(1-screws-6o.nc)
(----------------------------------------------------------------)
( Generated for RhinoCam to export for CNC-STEP models Raptor X-SL3000s20 / T-Rex1215 )
( Postprocessor written at FabLab BCN/IaaC by eduardo.chamorro@iaac.net )
( Last edit : 22 January - 2019 )
(----------------------------------------------------------------)
(Stock Size X = 380.0000, Y =  380.0000, Z = 4.0000)
(Home Origin X =  0, Y = 0, Z = 0)
(Units = MM, Spindle Speed = 18000)
(Max cut depth = Z-4.0000)
(Tool dia= 6.0 mm, Tool length= 35.0 mm)(WARNING!-CHECK YOUR TOOL)
(-------------------------------------------------------------)
%
G90
G64
M7
M8
T1
S18000
M3
G0 Z10.0000
G0 X10.0000 Y11.0000
G1 X10.0000 Y11.0000 Z0.0000 F3000.
G0 Z10.0000
G0 X10.0000 Y11.0000
G0 Z10.0000
G0 X370.0000 Y10.0000
G1 X370.0000 Y10.0000 Z0.0000 F3000.
G0 Z10.0000
G0 X370.0000 Y10.0000
G0 Z10.0000
G0 X365.0000 Y365.0000
G1 X365.0000 Y365.0000 Z0.0000 F3000.
G0 Z10.0000
G0 X365.0000 Y365.0000
G0 Z10.0000
G0 X7.0000 Y375.0000
G1 X7.0000 Y375.0000 Z0.0000 F3000.
G0 Z10.0000
G0 X7.0000 Y375.0000
G0 Z10.0000
G0 X105.0000 Y251.0000
G1 X105.0000 Y251.0000 Z0.0000 F3000.
G0 Z10.0000
G0 X105.0000 Y251.0000
M9
M5
M30
(--THE END - THANK YOU FOR USING THIS AWESOME POSTPROCESSOR---)
