(2-rest-6o.nc)
(----------------------------------------------------------------)
( Generated for RhinoCam to export for CNC-STEP models Raptor X-SL3000s20 / T-Rex1215 )
( Postprocessor written at FabLab BCN/IaaC by eduardo.chamorro@iaac.net )
( Last edit : 22 January - 2019 )
(----------------------------------------------------------------)
(Stock Size X = 380.0000, Y =  380.0000, Z = 4.0000)
(Home Origin X =  0, Y = 0, Z = 0)
(Units = MM, Spindle Speed = 18000)
(Max cut depth = Z-4.0000)
(Tool dia= 6.0 mm, Tool length= 35.0 mm)(WARNING!-CHECK YOUR TOOL)
(-------------------------------------------------------------)
%
G90
G64
M7
M8
T1
S18000
M3
G0 Z10.0000
G0 X36.9982 Y291.5810
G1 X36.9982 Y291.5810 Z0.9500 F3000.
G1 X36.9982 Y291.5810 Z0.3500
G1 X39.4119 Y291.8330 Z-0.0779
G1 X39.9039 Y291.8734 Z-0.1650
G1 X39.4234 Y291.9135 Z-0.2500
G1 X38.9429 Y291.9535 Z-0.2500 F6000.
G1 X29.9934 Y292.8928 Z-0.2500
G3 X28.1825 Y292.2042 I-0.5825 J-1.1937
G3 X29.2109 Y290.8007 I1.0175 J-0.3329
G3 X39.9039 Y291.8734 I-7.9945 J133.5330
G1 X39.4234 Y291.9135 Z-0.2500
G1 X39.5475 Y293.4081 Z-0.2500
G1 X48.9314 Y292.6287 Z-0.2500
G1 X58.7883 Y292.0320 Z-0.2500
G1 X63.0216 Y291.8717 Z-0.2500
G1 X59.2394 Y291.7326 Z-0.2500
G1 X49.3767 Y291.1457 Z-0.2500
G1 X39.5346 Y290.3380 Z-0.2500
G1 X30.1210 Y289.3550 Z-0.2500
G2 X26.6273 Y291.8698 I-0.8409 J2.5160
G2 X30.1188 Y294.3878 I2.6528 J0.0012
G1 X39.0994 Y293.4454 Z-0.2500
G1 X39.5475 Y293.4081 Z-0.2500
G1 X39.6716 Y294.9027 Z-0.2500
G1 X39.2560 Y294.9372 Z-0.2500
G1 X30.2441 Y295.8829 Z-0.2500
G3 X25.1252 Y291.8702 I-0.9874 J-4.0118
G3 X30.2460 Y287.8598 I4.1315 J0.0009
G1 X39.6573 Y288.8430 Z-0.2500
G1 X49.4658 Y289.6483 Z-0.2500
G1 X59.2946 Y290.2336 Z-0.2500
G1 X69.1390 Y290.5958 Z-0.2500
G1 X78.9933 Y290.7320 Z-0.2500
G1 X79.8502 Y290.7241 Z-0.2500
G1 X79.7719 Y292.0215 Z-0.2500
G1 X79.7968 Y293.0216 Z-0.2500
G1 X78.5677 Y293.0119 Z-0.2500
G1 X68.7180 Y293.1577 Z-0.2500
G1 X58.8789 Y293.5293 Z-0.2500
G1 X49.0555 Y294.1236 Z-0.2500
G1 X39.6716 Y294.9027 Z-0.2500
G1 X39.7957 Y296.3972 Z-0.2500
G1 X49.1796 Y295.6184 Z-0.2500
G1 X58.9694 Y295.0265 Z-0.2500
G1 X68.7745 Y294.6566 Z-0.2500
G1 X78.5899 Y294.5117 Z-0.2500
G1 X81.4548 Y294.5354 Z-0.2500
G3 X81.4510 Y289.2093 I18.4826 J-2.6761
G1 X78.9795 Y289.2320 Z-0.2500
G1 X69.1597 Y289.0960 Z-0.2500
G1 X59.3498 Y288.7346 Z-0.2500
G1 X49.5550 Y288.1510 Z-0.2500
G1 X39.7801 Y287.3481 Z-0.2500
G1 X30.3711 Y286.3647 Z-0.2500
G2 X23.6231 Y291.8704 I-1.1274 J5.5065
G2 X30.3695 Y297.3780 I5.6206 J0.0008
G1 X39.4125 Y296.4290 Z-0.2500
G1 X39.7957 Y296.3972 Z-0.2500
G1 X39.9196 Y297.8917 Z-0.2500
G1 X39.5691 Y297.9208 Z-0.2500
G1 X30.4948 Y298.8731 Z-0.2500
G3 X22.1210 Y291.8706 I-1.2596 J-7.0019
G3 X30.4961 Y284.8696 I7.1142 J0.0006
G1 X39.9029 Y285.8531 Z-0.2500
G1 X49.6443 Y286.6536 Z-0.2500
G1 X59.4051 Y287.2356 Z-0.2500
G1 X69.1806 Y287.5961 Z-0.2500
G1 X78.9657 Y287.7321 Z-0.2500
G1 X83.1057 Y287.6940 Z-0.2500
G2 X83.1281 Y296.0495 I25.0681 J4.1105
G1 X78.6119 Y296.0115 Z-0.2500
G1 X68.8310 Y296.1556 Z-0.2500
G1 X59.0599 Y296.5238 Z-0.2500
G1 X49.3036 Y297.1133 Z-0.2500
G1 X39.9196 Y297.8917 Z-0.2500
G1 X40.0436 Y299.3862 Z-0.2500
G1 X49.4275 Y298.6082 Z-0.2500
G1 X59.1503 Y298.0211 Z-0.2500
G1 X68.8874 Y297.6545 Z-0.2500
G1 X78.6340 Y297.5114 Z-0.2500
G1 X84.9678 Y297.5652 Z-0.2500
G3 X85.0030 Y286.1764 I22.3243 J-5.6255
G1 X78.9518 Y286.2322 Z-0.2500
G1 X69.2015 Y286.0963 Z-0.2500
G1 X59.4604 Y285.7366 Z-0.2500
G1 X49.7337 Y285.1563 Z-0.2500
G1 X40.0258 Y284.3582 Z-0.2500
G1 X30.6212 Y283.3745 Z-0.2500
G2 X20.6189 Y291.8707 I-1.3923 J8.4968
G2 X30.6202 Y300.3682 I8.6100 J0.0006
G1 X39.7256 Y299.4126 Z-0.2500
G1 X40.0436 Y299.3862 Z-0.2500
G1 X40.1674 Y300.8808 Z-0.2500
G1 X39.8822 Y300.9044 Z-0.2500
G1 X30.7455 Y301.8632 Z-0.2500
G3 X19.1168 Y291.8709 I-1.5216 J-9.9919
G3 X30.7463 Y281.8794 I10.1071 J0.0004
G1 X40.1488 Y282.8632 Z-0.2500
G1 X49.8231 Y283.6589 Z-0.2500
G1 X59.5158 Y284.2377 Z-0.2500
G1 X69.2225 Y284.5964 Z-0.2500
G1 X78.9380 Y284.7322 Z-0.2500
G1 X86.9426 Y284.6585 Z-0.2500
G2 X86.9692 Y299.0824 I21.2681 J7.1727
G1 X78.6559 Y299.0112 Z-0.2500
G1 X68.9438 Y299.1534 Z-0.2500
G1 X59.2407 Y299.5183 Z-0.2500
G1 X49.5514 Y300.1030 Z-0.2500
G1 X40.1674 Y300.8808 Z-0.2500
G1 X40.2912 Y302.3753 Z-0.2500
G1 X49.6752 Y301.5979 Z-0.2500
G1 X59.3310 Y301.0156 Z-0.2500
G1 X69.0001 Y300.6524 Z-0.2500
G1 X78.6778 Y300.5111 Z-0.2500
G1 X88.3590 Y300.5944 Z-0.2500
G1 X89.1516 Y300.6194 Z-0.2500
G3 X87.7721 Y296.4640 I12.6408 J-6.5032
G3 X89.1769 Y283.1246 I20.6255 J-4.5716
G1 X88.6080 Y283.1431 Z-0.2500
G1 X78.9242 Y283.2323 Z-0.2500
G1 X69.2435 Y283.0966 Z-0.2500
G1 X59.5713 Y282.7387 Z-0.2500
G1 X49.9125 Y282.1616 Z-0.2500
G1 X40.2718 Y281.3683 Z-0.2500
G1 X30.8715 Y280.3844 Z-0.2500
G2 X17.6147 Y291.8710 I-1.6517 J11.4869
G2 X30.8709 Y303.3583 I11.6051 J0.0003
G1 X40.0388 Y302.3962 Z-0.2500
G1 X40.2912 Y302.3753 Z-0.2500
G1 X40.4150 Y303.8698 Z-0.2500
G1 X40.1953 Y303.8880 Z-0.2500
G1 X30.9963 Y304.8534 Z-0.2500
G3 X16.1126 Y291.8711 I-1.7801 J-12.9821
G3 X30.9967 Y278.8893 I13.1036 J0.0002
G1 X40.3949 Y279.8733 Z-0.2500
G1 X50.0020 Y280.6643 Z-0.2500
G1 X59.6268 Y281.2397 Z-0.2500
G1 X69.2646 Y281.5967 Z-0.2500
G1 X78.9105 Y281.7324 Z-0.2500
G1 X88.5592 Y281.6439 Z-0.2500
G1 X91.6080 Y281.5445 Z-0.2500
G2 X91.6187 Y302.1992 I17.3179 J10.3185
G1 X88.3460 Y302.0944 Z-0.2500
G1 X78.6997 Y302.0109 Z-0.2500
G1 X69.0564 Y302.1513 Z-0.2500
G1 X59.4212 Y302.5129 Z-0.2500
G1 X49.7990 Y303.0928 Z-0.2500
G1 X40.4150 Y303.8698 Z-0.2500
G1 X40.5387 Y305.3644 Z-0.2500
G1 X49.9227 Y304.5877 Z-0.2500
G1 X59.5114 Y304.0102 Z-0.2500
G1 X69.1126 Y303.6503 Z-0.2500
G1 X78.7215 Y303.5107 Z-0.2500
G1 X88.3330 Y303.5943 Z-0.2500
G1 X94.6263 Y303.7968 Z-0.2500
G3 X94.6312 Y279.9452 I14.1073 J-11.9229
G1 X88.5103 Y280.1447 Z-0.2500
G1 X78.8968 Y280.2324 Z-0.2500
G1 X69.2857 Y280.0968 Z-0.2500
G1 X59.6824 Y279.7407 Z-0.2500
G1 X50.0916 Y279.1670 Z-0.2500
G1 X40.5180 Y278.3784 Z-0.2500
G1 X31.1219 Y277.3942 Z-0.2500
G2 X14.6105 Y291.8712 I-1.9090 J14.4771
G2 X31.1216 Y306.3485 I14.6024 J0.0001
G1 X40.3519 Y305.3798 Z-0.2500
G1 X40.5387 Y305.3644 Z-0.2500
G1 X40.6623 Y306.8589 Z-0.2500
G1 X40.5084 Y306.8716 Z-0.2500
G1 X31.2470 Y307.8436 Z-0.2500
G3 X13.1084 Y291.8712 I-2.0370 J-15.9723
G3 X31.2471 Y275.8991 I16.1016 J0.0001
G1 X40.6412 Y276.8835 Z-0.2500
G1 X50.1813 Y277.6697 Z-0.2500
G1 X59.7380 Y278.2418 Z-0.2500
G1 X69.3070 Y278.5970 Z-0.2500
G1 X78.8832 Y278.7325 Z-0.2500
G1 X88.4615 Y278.6455 Z-0.2500
G1 X98.0366 Y278.3335 Z-0.2500
G1 X98.4415 Y278.3107 Z-0.2500
G2 X98.4182 Y305.4319 I10.4433 J13.5695
G1 X97.8936 Y305.4029 Z-0.2500
G1 X88.3199 Y305.0943 Z-0.2500
G1 X78.7432 Y305.0106 Z-0.2500
G1 X69.1687 Y305.1492 Z-0.2500
G1 X59.6015 Y305.5075 Z-0.2500
G1 X50.0464 Y306.0826 Z-0.2500
G1 X40.6623 Y306.8589 Z-0.2500
G1 X40.7859 Y308.3534 Z-0.2500
G1 X50.1700 Y307.5775 Z-0.2500
G1 X59.6915 Y307.0048 Z-0.2500
G1 X69.2248 Y306.6482 Z-0.2500
G1 X78.7648 Y306.5104 Z-0.2500
G1 X88.3067 Y306.5942 Z-0.2500
G1 X97.8452 Y306.9021 Z-0.2500
G1 X106.6703 Y307.3969 Z-0.2500
G3 X106.9975 Y276.3265 I2.2697 J-15.5130
G1 X97.9523 Y276.8358 Z-0.2500
G1 X88.4127 Y277.1463 Z-0.2500
G1 X78.8696 Y277.2325 Z-0.2500
G1 X69.3282 Y277.0971 Z-0.2500
G1 X59.7937 Y276.7428 Z-0.2500
G1 X50.2710 Y276.1723 Z-0.2500
G1 X40.7645 Y275.3885 Z-0.2500
G1 X31.3724 Y274.4040 Z-0.2500
G2 X11.6063 Y291.8713 I-2.1651 J17.4673
G2 X31.3723 Y309.3387 I17.6010 J0.0000
G1 X40.6650 Y308.3634 Z-0.2500
G1 X40.7859 Y308.3534 Z-0.2500
G1 X40.9094 Y309.8480 Z-0.2500
G1 X40.8216 Y309.8552 Z-0.2500
G1 X31.4977 Y310.8337 Z-0.2500
G3 X10.1042 Y291.8713 I-2.2930 J-18.9624
G3 X31.4977 Y272.9089 I19.1005 J0.0000
G1 X40.8878 Y273.8936 Z-0.2500
G1 X50.3607 Y274.6750 Z-0.2500
G1 X59.8495 Y275.2438 Z-0.2500
G1 X69.3496 Y275.5973 Z-0.2500
G1 X78.8561 Y275.7326 Z-0.2500
G1 X88.3640 Y275.6471 Z-0.2500
G1 X97.8680 Y275.3382 Z-0.2500
G1 X107.3628 Y274.8036 Z-0.2500
G1 X116.8428 Y274.0410 Z-0.2500
G1 X126.3022 Y273.0483 Z-0.2500
G1 X135.7353 Y271.8236 Z-0.2500
G1 X145.1358 Y270.3651 Z-0.2500
G1 X154.4975 Y268.6712 Z-0.2500
G1 X163.8140 Y266.7405 Z-0.2500
G1 X173.0788 Y264.5722 Z-0.2500
G1 X182.2475 Y262.1758 Z-0.2500
G3 X215.6107 Y274.1482 I8.1735 J29.6955
G3 X215.6107 Y309.5945 I-25.1897 J17.7231
G3 X183.7661 Y321.9848 I-25.2672 J-17.8222
G1 X173.0036 Y319.1519 Z-0.2500
G1 X163.7391 Y316.9856 Z-0.2500
G1 X154.4229 Y315.0570 Z-0.2500
G1 X145.0616 Y313.3651 Z-0.2500
G1 X135.6616 Y311.9085 Z-0.2500
G1 X126.2291 Y310.6857 Z-0.2500
G1 X116.7702 Y309.6949 Z-0.2500
G1 X107.2909 Y308.9341 Z-0.2500
G1 X97.7968 Y308.4013 Z-0.2500
G1 X88.2935 Y308.0941 Z-0.2500
G1 X78.7864 Y308.0103 Z-0.2500
G1 X69.2808 Y308.1471 Z-0.2500
G1 X59.7815 Y308.5021 Z-0.2500
G1 X50.2936 Y309.0724 Z-0.2500
G1 X40.9094 Y309.8480 Z-0.2500
G1 X40.8221 Y308.7909 Z0.8107 F3000.
G1 X40.8221 Y308.7909 Z1.4107
G0 Z10.0000
G0 X40.8221 Y308.7909
G0 Z10.0000
G0 X199.2141 Y217.6916
G1 X199.2141 Y217.6916 Z0.9500 F3000.
G1 X199.2141 Y217.6916 Z0.3500
G1 X199.3640 Y218.2792 Z0.2431
G1 X199.7603 Y219.6201 Z-0.0035
G1 X200.2069 Y220.9450 Z-0.2500
G2 X212.3389 Y237.7124 I34.9538 J-12.5181 F6000.
G1 X215.2611 Y239.7706 Z-0.2500
G2 X255.0935 Y239.7706 I19.9162 J-31.3497
G1 X257.9578 Y237.7554 Z-0.2500
G2 X270.9469 Y198.5755 I-22.9087 J-29.3379
G1 X268.5930 Y189.5691 Z-0.2500
G1 X266.4585 Y180.4488 Z-0.2500
G1 X264.5585 Y171.2780 Z-0.2500
G1 X262.8917 Y162.0629 Z-0.2500
G1 X261.4569 Y152.8101 Z-0.2500
G1 X260.2525 Y143.5257 Z-0.2500
G1 X259.2766 Y134.2157 Z-0.2500
G1 X258.5273 Y124.8860 Z-0.2500
G1 X258.0023 Y115.5421 Z-0.2500
G1 X257.6994 Y106.1897 Z-0.2500
G1 X257.6162 Y96.8339 Z-0.2500
G1 X257.7502 Y87.4799 Z-0.2500
G1 X258.0985 Y78.1327 Z-0.2500
G1 X258.6586 Y68.7970 Z-0.2500
G1 X259.4275 Y59.4774 Z-0.2500
G1 X260.3926 Y50.2718 Z-0.2500
G2 X235.1773 Y21.8063 I-25.2153 J-3.0646
G2 X209.9620 Y50.2717 I0.0000 J25.4009
G1 X210.9178 Y59.3781 Z-0.2500
G1 X211.6889 Y68.6962 Z-0.2500
G1 X212.2511 Y78.0306 Z-0.2500
G1 X212.6017 Y87.3766 Z-0.2500
G1 X212.7380 Y96.7293 Z-0.2500
G1 X212.6574 Y106.0838 Z-0.2500
G1 X212.3571 Y115.4351 Z-0.2500
G1 X211.8347 Y124.7779 Z-0.2500
G1 X211.0880 Y134.1066 Z-0.2500
G1 X210.1150 Y143.4156 Z-0.2500
G1 X208.9135 Y152.6992 Z-0.2500
G1 X207.4816 Y161.9513 Z-0.2500
G1 X205.8179 Y171.1656 Z-0.2500
G1 X203.9210 Y180.3360 Z-0.2500
G1 X201.7896 Y189.4560 Z-0.2500
G1 X198.9360 Y200.2879 Z-0.2500
G2 X200.2069 Y220.9450 I36.2247 J8.1390
G1 X198.8373 Y221.4372 Z-0.2500
G3 X197.4780 Y199.9339 I36.4451 J-13.0984
G1 X200.3290 Y189.1145 Z-0.2500
G1 X202.4521 Y180.0321 Z-0.2500
G1 X204.3418 Y170.8990 Z-0.2500
G1 X205.9993 Y161.7218 Z-0.2500
G1 X207.4259 Y152.5066 Z-0.2500
G1 X208.6231 Y143.2596 Z-0.2500
G1 X209.5928 Y133.9869 Z-0.2500
G1 X210.3370 Y124.6941 Z-0.2500
G1 X210.8579 Y115.3868 Z-0.2500
G1 X211.1574 Y106.0708 Z-0.2500
G1 X211.2382 Y96.7511 Z-0.2500
G1 X211.1028 Y87.4327 Z-0.2500
G1 X210.7538 Y78.1207 Z-0.2500
G1 X210.1940 Y68.8199 Z-0.2500
G1 X209.4260 Y59.5347 Z-0.2500
G1 X208.4669 Y50.3971 Z-0.2500
G3 X235.1773 Y20.3042 I26.7104 J-3.1924
G3 X261.8877 Y50.3971 I0.0000 J26.9005
G1 X260.9224 Y59.6008 Z-0.2500
G1 X260.1559 Y68.8869 Z-0.2500
G1 X259.5975 Y78.1887 Z-0.2500
G1 X259.2500 Y87.5015 Z-0.2500
G1 X259.1162 Y96.8206 Z-0.2500
G1 X259.1986 Y106.1412 Z-0.2500
G1 X259.4999 Y115.4581 Z-0.2500
G1 X260.0225 Y124.7660 Z-0.2500
G1 X260.7685 Y134.0594 Z-0.2500
G1 X261.7401 Y143.3328 Z-0.2500
G1 X262.9392 Y152.5803 Z-0.2500
G1 X264.3678 Y161.7960 Z-0.2500
G1 X266.0273 Y170.9737 Z-0.2500
G1 X267.9191 Y180.1071 Z-0.2500
G1 X270.0443 Y189.1898 Z-0.2500
G1 X272.3931 Y198.1774 Z-0.2500
G3 X257.3888 Y239.9898 I-37.2158 J10.2435
G3 X212.9658 Y239.9898 I-22.2115 J-31.5689
G3 X198.8373 Y221.4372 I22.3166 J-31.6510
G1 X199.6734 Y220.7845 Z0.8107 F3000.
G1 X199.6734 Y220.7845 Z1.4107
G0 Z10.0000
G0 X199.6734 Y220.7845
G0 Z10.0000
G0 X184.7988 Y45.5073
G1 X184.7988 Y45.5073 Z0.9500 F3000.
G1 X184.7988 Y45.5073 Z0.3500
G1 X184.6506 Y44.9902 Z0.2551
G1 X184.2067 Y43.6283 Z0.0026
G1 X183.7142 Y42.2832 Z-0.2500
G2 X171.0655 Y25.2350 I-37.1999 J14.3836 F6000.
G1 X167.9385 Y23.0324 Z-0.2500
G2 X125.3145 Y23.0324 I-21.3120 J33.5468
G1 X122.2495 Y25.1889 Z-0.2500
G2 X108.3501 Y67.1146 I24.5141 J31.3938
G1 X110.6882 Y76.0606 Z-0.2500
G1 X112.8082 Y85.1201 Z-0.2500
G1 X114.6954 Y94.2300 Z-0.2500
G1 X116.3507 Y103.3837 Z-0.2500
G1 X117.7755 Y112.5749 Z-0.2500
G1 X118.9713 Y121.7975 Z-0.2500
G1 X119.9402 Y131.0455 Z-0.2500
G1 X120.6840 Y140.3131 Z-0.2500
G1 X121.2050 Y149.5946 Z-0.2500
G1 X121.5054 Y158.8846 Z-0.2500
G1 X121.5875 Y168.1780 Z-0.2500
G1 X121.4541 Y177.4695 Z-0.2500
G1 X121.1077 Y186.7543 Z-0.2500
G1 X120.5511 Y196.0276 Z-0.2500
G1 X118.8301 Y214.4036 Z-0.2500
G2 X146.6264 Y245.7937 I27.7964 J3.3880
G2 X174.4229 Y214.4036 I0.0001 J-28.0021
G1 X172.7134 Y196.1778 Z-0.2500
G1 X172.1503 Y186.8565 Z-0.2500
G1 X171.8016 Y177.5729 Z-0.2500
G1 X171.6658 Y168.2826 Z-0.2500
G1 X171.7454 Y158.9905 Z-0.2500
G1 X172.0432 Y149.7016 Z-0.2500
G1 X172.5616 Y140.4211 Z-0.2500
G1 X173.3027 Y131.1546 Z-0.2500
G1 X174.2687 Y121.9076 Z-0.2500
G1 X175.4617 Y112.6859 Z-0.2500
G1 X176.8836 Y103.4954 Z-0.2500
G1 X178.5358 Y94.3424 Z-0.2500
G1 X180.4198 Y85.2330 Z-0.2500
G1 X182.5368 Y76.1738 Z-0.2500
G1 X185.4072 Y65.2837 Z-0.2500
G1 X185.8246 Y63.4062 Z-0.2500
G2 X183.7142 Y42.2832 I-39.3103 J-6.7394
G1 X185.0687 Y41.7595 Z-0.2500
G3 X186.8651 Y65.6378 I-38.5544 J14.9073
G1 X183.9974 Y76.5152 Z-0.2500
G1 X181.8887 Y85.5369 Z-0.2500
G1 X180.0119 Y94.6089 Z-0.2500
G1 X178.3659 Y103.7248 Z-0.2500
G1 X176.9493 Y112.8784 Z-0.2500
G1 X175.7606 Y122.0636 Z-0.2500
G1 X174.7979 Y131.2743 Z-0.2500
G1 X174.0592 Y140.5049 Z-0.2500
G1 X173.5424 Y149.7498 Z-0.2500
G1 X173.2454 Y159.0035 Z-0.2500
G1 X173.1656 Y168.2608 Z-0.2500
G1 X173.3005 Y177.5166 Z-0.2500
G1 X173.6476 Y186.7662 Z-0.2500
G1 X174.2068 Y196.0377 Z-0.2500
G1 X175.9185 Y214.2865 Z-0.2500
G3 X146.6265 Y247.2958 I-29.2920 J3.5080
G3 X117.3345 Y214.2865 I0.0000 J-29.5013
G1 X119.0538 Y195.9376 Z-0.2500
G1 X119.6087 Y186.6983 Z-0.2500
G1 X119.9542 Y177.4479 Z-0.2500
G1 X120.0876 Y168.1912 Z-0.2500
G1 X120.0061 Y158.9330 Z-0.2500
G1 X119.7073 Y149.6785 Z-0.2500
G1 X119.1888 Y140.4330 Z-0.2500
G1 X118.4484 Y131.2017 Z-0.2500
G1 X117.4838 Y121.9903 Z-0.2500
G1 X116.2932 Y112.8046 Z-0.2500
G1 X114.8746 Y103.6506 Z-0.2500
G1 X113.2266 Y94.5342 Z-0.2500
G1 X111.3477 Y85.4618 Z-0.2500
G1 X109.2369 Y76.4398 Z-0.2500
G1 X106.9039 Y67.5126 Z-0.2500
G3 X122.9189 Y22.8839 I39.7226 J-10.9334
G3 X170.3341 Y22.8839 I23.7076 J33.6953
G3 X185.0687 Y41.7595 I-23.8198 J33.7829
G1 X184.2326 Y42.4123 Z0.8107 F3000.
G1 X184.2326 Y42.4123 Z1.4107
G0 Z10.0000
G0 X184.2326 Y42.4123
G0 Z10.0000
G0 X321.5699 Y18.2073
G1 X321.5699 Y18.2073 Z0.9500 F3000.
G1 X321.5699 Y18.2073 Z0.3500
G1 X320.7593 Y18.1311 Z0.2064
G1 X319.4671 Y18.0584 Z-0.0218
G1 X318.1730 Y18.0342 Z-0.2500
G2 X299.7637 Y23.3481 I0.0000 J34.5449 F6000.
G1 X296.8778 Y25.3786 Z-0.2500
G2 X284.9102 Y61.7345 I21.4360 J27.2040
G1 X287.2799 Y70.8012 Z-0.2500
G1 X289.4287 Y79.9821 Z-0.2500
G1 X291.3418 Y89.2141 Z-0.2500
G1 X293.0200 Y98.4904 Z-0.2500
G1 X294.4648 Y107.8048 Z-0.2500
G1 X295.6777 Y117.1511 Z-0.2500
G1 X296.6606 Y126.5231 Z-0.2500
G1 X297.4155 Y135.9150 Z-0.2500
G1 X297.9445 Y145.3211 Z-0.2500
G1 X298.2499 Y154.7360 Z-0.2500
G1 X298.3341 Y164.1542 Z-0.2500
G1 X298.1997 Y173.5706 Z-0.2500
G1 X297.8493 Y182.9803 Z-0.2500
G1 X297.2858 Y192.3783 Z-0.2500
G1 X296.5119 Y201.7602 Z-0.2500
G1 X295.5403 Y211.0280 Z-0.2500
G2 X318.1730 Y236.5937 I22.6327 J2.7648
G2 X340.8056 Y211.0281 I0.0000 J-22.8009
G1 X339.8433 Y201.8596 Z-0.2500
G1 X339.0673 Y192.4792 Z-0.2500
G1 X338.5016 Y183.0824 Z-0.2500
G1 X338.1490 Y173.6741 Z-0.2500
G1 X338.0122 Y164.2589 Z-0.2500
G1 X338.0939 Y154.8419 Z-0.2500
G1 X338.3967 Y145.4282 Z-0.2500
G1 X338.9231 Y136.0231 Z-0.2500
G1 X339.6753 Y126.6322 Z-0.2500
G1 X340.6554 Y117.2611 Z-0.2500
G1 X341.8655 Y107.9157 Z-0.2500
G1 X343.3073 Y98.6021 Z-0.2500
G1 X344.9824 Y89.3264 Z-0.2500
G1 X346.8923 Y80.0949 Z-0.2500
G1 X349.0381 Y70.9143 Z-0.2500
G1 X351.8750 Y60.1404 Z-0.2500
G1 X352.2369 Y58.5124 Z-0.2500
G2 X339.4108 Y25.3403 I-34.1620 J-5.8568
G1 X336.5823 Y23.3481 Z-0.2500
G2 X318.1730 Y18.0342 I-18.4093 J29.2310
G1 X318.1730 Y16.5793 Z-0.2500
G3 X338.8884 Y23.1366 I0.0000 J35.9998
G3 X353.3329 Y60.4943 I-20.8135 J29.5190
G1 X350.4987 Y71.2558 Z-0.2500
G1 X348.3612 Y80.3989 Z-0.2500
G1 X346.4585 Y89.5930 Z-0.2500
G1 X344.7896 Y98.8316 Z-0.2500
G1 X343.3530 Y108.1084 Z-0.2500
G1 X342.1473 Y117.4172 Z-0.2500
G1 X341.1705 Y126.7520 Z-0.2500
G1 X340.4207 Y136.1070 Z-0.2500
G1 X339.8960 Y145.4765 Z-0.2500
G1 X339.5939 Y154.8550 Z-0.2500
G1 X339.5120 Y164.2372 Z-0.2500
G1 X339.6479 Y173.6179 Z-0.2500
G1 X339.9989 Y182.9923 Z-0.2500
G1 X340.5622 Y192.3556 Z-0.2500
G1 X341.3351 Y201.7030 Z-0.2500
G1 X342.3007 Y210.9027 Z-0.2500
G3 X318.1730 Y238.0958 I-24.1277 J2.8926
G3 X294.0453 Y210.9027 I0.0000 J-24.3005
G1 X295.0170 Y201.6369 Z-0.2500
G1 X295.7885 Y192.2885 Z-0.2500
G1 X296.3504 Y182.9244 Z-0.2500
G1 X296.6999 Y173.5491 Z-0.2500
G1 X296.8342 Y164.1675 Z-0.2500
G1 X296.7507 Y154.7845 Z-0.2500
G1 X296.4469 Y145.4053 Z-0.2500
G1 X295.9203 Y136.0351 Z-0.2500
G1 X295.1688 Y126.6795 Z-0.2500
G1 X294.1901 Y117.3441 Z-0.2500
G1 X292.9825 Y108.0347 Z-0.2500
G1 X291.5440 Y98.7574 Z-0.2500
G1 X289.8730 Y89.5184 Z-0.2500
G1 X287.9682 Y80.3239 Z-0.2500
G1 X285.8286 Y71.1805 Z-0.2500
G1 X283.4640 Y62.1326 Z-0.2500
G3 X297.4576 Y23.1366 I34.7090 J-9.5535
G3 X318.1730 Y16.5793 I20.7154 J29.4425
G1 X318.4931 Y17.5905 Z0.8107 F3000.
G1 X318.4931 Y17.5905 Z1.4107
G0 Z10.0000
G0 X318.4931 Y17.5905
G0 Z10.0000
G0 X50.8767 Y245.9499
G1 X50.8767 Y245.9499 Z0.9500 F3000.
G1 X50.8767 Y245.9499 Z0.3500
G1 X51.0831 Y245.9695 Z0.3134
G1 X52.6783 Y246.0599 Z0.0317
G1 X54.2757 Y246.0900 Z-0.2500
G2 X76.9834 Y239.4869 I0.0000 J-42.3469 F6000.
G1 X80.2491 Y237.1892 Z-0.2500
G2 X95.0588 Y192.5178 I-26.1195 J-33.4499
G1 X92.7366 Y183.6321 Z-0.2500
G1 X90.6309 Y174.6332 Z-0.2500
G1 X88.7567 Y165.5843 Z-0.2500
G1 X87.1129 Y156.4920 Z-0.2500
G1 X85.6981 Y147.3624 Z-0.2500
G1 X84.5107 Y138.2016 Z-0.2500
G1 X83.5489 Y129.0156 Z-0.2500
G1 X82.8106 Y119.8103 Z-0.2500
G1 X82.2937 Y110.5911 Z-0.2500
G1 X81.9958 Y101.3634 Z-0.2500
G1 X81.9147 Y92.1324 Z-0.2500
G1 X82.0477 Y82.9033 Z-0.2500
G1 X82.3921 Y73.6811 Z-0.2500
G1 X82.9452 Y64.4702 Z-0.2500
G1 X84.6664 Y46.1005 Z-0.2500
G1 X84.8561 Y44.4610 Z-0.2500
G1 X84.9538 Y42.8605 Z-0.2500
G2 X71.9733 Y17.5085 I-30.7929 J-0.2327
G1 X69.2606 Y15.7973 Z-0.2500
G2 X39.2908 Y15.7973 I-14.9849 J26.7256
G1 X36.6423 Y17.4655 Z-0.2500
G2 X23.8798 Y46.0510 I17.7799 J25.0799
G1 X25.5947 Y64.3199 Z-0.2500
G1 X26.1543 Y73.5789 Z-0.2500
G1 X26.5010 Y82.8000 Z-0.2500
G1 X26.6364 Y92.0278 Z-0.2500
G1 X26.5577 Y101.2575 Z-0.2500
G1 X26.2625 Y110.4840 Z-0.2500
G1 X25.7481 Y119.7022 Z-0.2500
G1 X25.0125 Y128.9065 Z-0.2500
G1 X24.0535 Y138.0915 Z-0.2500
G1 X22.8691 Y147.2514 Z-0.2500
G1 X21.4572 Y156.3802 Z-0.2500
G1 X19.8165 Y165.4720 Z-0.2500
G1 X17.9454 Y174.5203 Z-0.2500
G1 X15.8428 Y183.5188 Z-0.2500
G1 X12.9942 Y194.3271 Z-0.2500
G1 X12.5751 Y196.1795 Z-0.2500
G2 X28.3623 Y237.2294 I41.8029 J7.4839
G1 X31.5680 Y239.4869 Z-0.2500
G2 X54.2757 Y246.0900 I22.7077 J-35.7438
G1 X54.2757 Y247.5429 Z-0.2500
G3 X29.0720 Y239.5648 I0.0000 J-43.7998
G3 X11.5370 Y193.9703 I25.3060 J-35.9014
G1 X14.3822 Y183.1775 Z-0.2500
G1 X16.4765 Y174.2164 Z-0.2500
G1 X18.3403 Y165.2055 Z-0.2500
G1 X19.9749 Y156.1509 Z-0.2500
G1 X21.3814 Y147.0589 Z-0.2500
G1 X22.5617 Y137.9356 Z-0.2500
G1 X23.5173 Y128.7869 Z-0.2500
G1 X24.2505 Y119.6185 Z-0.2500
G1 X24.7632 Y110.4360 Z-0.2500
G1 X25.0578 Y101.2446 Z-0.2500
G1 X25.1365 Y92.0498 Z-0.2500
G1 X25.0021 Y82.8563 Z-0.2500
G1 X24.6571 Y73.6693 Z-0.2500
G1 X24.1013 Y64.4600 Z-0.2500
G1 X22.3898 Y46.2239 Z-0.2500
G3 X37.1671 Y15.3622 I31.8859 J-3.7010
G3 X71.3843 Y15.3622 I17.1086 J27.1607
G3 X86.3509 Y44.5931 I-17.2234 J27.2656
G1 X86.1581 Y46.2568 Z-0.2500
G1 X84.4425 Y64.5602 Z-0.2500
G1 X83.8910 Y73.7371 Z-0.2500
G1 X83.5475 Y82.9250 Z-0.2500
G1 X83.4147 Y92.1193 Z-0.2500
G1 X83.4951 Y101.3150 Z-0.2500
G1 X83.7913 Y110.5072 Z-0.2500
G1 X84.3058 Y119.6904 Z-0.2500
G1 X85.0408 Y128.8595 Z-0.2500
G1 X85.9983 Y138.0088 Z-0.2500
G1 X87.1804 Y147.1327 Z-0.2500
G1 X88.5890 Y156.2252 Z-0.2500
G1 X90.2256 Y165.2802 Z-0.2500
G1 X92.0915 Y174.2915 Z-0.2500
G1 X94.1879 Y183.2528 Z-0.2500
G1 X96.5050 Y192.1197 Z-0.2500
G3 X79.4794 Y239.5648 I-42.2293 J11.6234
G3 X54.2757 Y247.5429 I-25.2037 J-35.8217
G1 X53.9556 Y246.5317 Z0.8107 F3000.
G1 X53.9556 Y246.5317 Z1.4107
G0 Z10.0000
G0 X53.9556 Y246.5317
G0 Z10.0000
G0 X168.1053 Y210.7596
G1 X168.1053 Y210.7596 Z-2.0000 F3000.
G3 X168.7073 Y218.6912 I-43.6445 J7.3010 F6000.
G3 X144.8786 Y239.8296 I-22.0816 J-0.8920
G3 X124.6796 Y215.1996 I1.7471 J-22.0304
G1 X125.4906 Y207.6196 Z-2.0000
G1 X126.1679 Y200.0003 Z-2.0000
G1 X126.7072 Y192.3696 Z-2.0000
G1 X127.1067 Y184.7380 Z-2.0000
G1 X127.3037 Y179.3589 Z-2.0000
G1 X127.3055 Y179.2844 Z-2.0000
G1 X127.3055 Y179.2844 Z0.0000
G1 X127.4305 Y173.9775 Z0.0000
G1 X127.4797 Y169.2467 Z0.0000
G1 X127.4797 Y169.2467 Z-2.0000
G1 X127.4864 Y168.5945 Z-2.0000
G1 X127.4710 Y163.2040 Z-2.0000
G1 X127.3359 Y155.9224 Z-2.0000
G1 X127.0683 Y148.6440 Z-2.0000
G1 X126.6673 Y141.3713 Z-2.0000
G1 X126.1320 Y134.1095 Z-2.0000
G1 X125.5317 Y127.5566 Z-2.0000
G1 X124.8202 Y121.0145 Z-2.0000
G1 X123.9967 Y114.4852 Z-2.0000
G1 X123.0594 Y107.9623 Z-2.0000
G1 X121.6478 Y99.3753 Z-2.0000
G1 X120.0392 Y90.8316 Z-2.0000
G1 X118.7054 Y84.4660 Z-2.0000
G1 X117.2597 Y78.1245 Z-2.0000
G1 X115.7018 Y71.8093 Z-2.0000
G3 X113.2399 Y61.8410 I105.2503 J-31.2815
G3 X148.5538 Y22.8345 I33.3875 J-5.2619
G3 X179.1990 Y65.6066 I-1.9264 J33.7446
G1 X177.0092 Y73.9524 Z-2.0000
G1 X176.5803 Y75.7603 Z-2.0000
G1 X176.5803 Y75.7603 Z0.0000
G1 X175.0122 Y82.3708 Z0.0000
G1 X174.3311 Y85.5759 Z0.0000
G1 X174.3311 Y85.5759 Z-2.0000
G1 X173.2062 Y90.8700 Z-2.0000
G1 X171.5993 Y99.4087 Z-2.0000
G1 X170.1834 Y108.0293 Z-2.0000
G1 X168.9668 Y116.6800 Z-2.0000
G1 X167.9420 Y125.4140 Z-2.0000
G1 X167.1162 Y134.1687 Z-2.0000
G1 X166.4813 Y143.0477 Z-2.0000
G1 X166.0474 Y151.9260 Z-2.0000
G1 X165.8745 Y157.5872 Z-2.0000
G1 X165.7815 Y163.2500 Z-2.0000
G1 X165.7679 Y168.9133 Z-2.0000
G1 X165.8331 Y174.5760 Z-2.0000
G1 X165.9773 Y180.2585 Z-2.0000
G1 X166.1998 Y185.9381 Z-2.0000
G1 X166.4999 Y191.6139 Z-2.0000
G1 X166.8781 Y197.2966 Z-2.0000
G1 X167.6351 Y206.2990 Z-2.0000
G1 X168.1053 Y210.7596 Z-2.0000
G1 X168.1053 Y210.7596 Z-4.0000
G1 X167.6351 Y206.2990 Z-4.0000
G1 X166.8781 Y197.2966 Z-4.0000
G1 X166.4999 Y191.6139 Z-4.0000
G1 X166.1998 Y185.9381 Z-4.0000
G1 X165.9773 Y180.2585 Z-4.0000
G1 X165.8331 Y174.5760 Z-4.0000
G1 X165.7679 Y168.9133 Z-4.0000
G1 X165.7815 Y163.2500 Z-4.0000
G1 X165.8745 Y157.5872 Z-4.0000
G1 X166.0474 Y151.9260 Z-4.0000
G1 X166.4813 Y143.0477 Z-4.0000
G1 X167.1162 Y134.1687 Z-4.0000
G1 X167.9420 Y125.4140 Z-4.0000
G1 X168.9668 Y116.6800 Z-4.0000
G1 X170.1834 Y108.0293 Z-4.0000
G1 X171.5993 Y99.4087 Z-4.0000
G1 X173.2062 Y90.8700 Z-4.0000
G1 X174.3311 Y85.5759 Z-4.0000
G1 X174.3311 Y85.5759 Z0.0000
G1 X175.0122 Y82.3708 Z0.0000
G1 X176.5803 Y75.7603 Z0.0000
G1 X176.5803 Y75.7603 Z-4.0000
G1 X177.0092 Y73.9524 Z-4.0000
G2 X180.0130 Y61.8410 I-137.0023 J-40.4072
G2 X144.7014 Y22.8344 I-33.3873 J-5.2620
G2 X114.0529 Y65.6023 I1.9243 J33.7446
G1 X115.7018 Y71.8093 Z-4.0000
G1 X117.2597 Y78.1245 Z-4.0000
G1 X118.7054 Y84.4660 Z-4.0000
G1 X120.0392 Y90.8316 Z-4.0000
G1 X121.6478 Y99.3753 Z-4.0000
G1 X123.0594 Y107.9623 Z-4.0000
G1 X123.9967 Y114.4852 Z-4.0000
G1 X124.8202 Y121.0145 Z-4.0000
G1 X125.5317 Y127.5566 Z-4.0000
G1 X126.1320 Y134.1095 Z-4.0000
G1 X126.6673 Y141.3713 Z-4.0000
G1 X127.0683 Y148.6440 Z-4.0000
G1 X127.3359 Y155.9224 Z-4.0000
G1 X127.4710 Y163.2040 Z-4.0000
G1 X127.4864 Y168.5945 Z-4.0000
G1 X127.4797 Y169.2467 Z-4.0000
G1 X127.4797 Y169.2467 Z0.0000
G1 X127.4305 Y173.9775 Z0.0000
G1 X127.3055 Y179.2844 Z0.0000
G1 X127.3055 Y179.2844 Z-4.0000
G1 X127.3037 Y179.3589 Z-4.0000
G1 X127.1067 Y184.7380 Z-4.0000
G1 X126.7072 Y192.3696 Z-4.0000
G1 X126.1679 Y200.0003 Z-4.0000
G1 X125.4906 Y207.6196 Z-4.0000
G2 X124.5295 Y217.5293 I116.7152 J16.3215
G2 X147.1974 Y239.8916 I22.0971 J0.2709
G2 X168.6802 Y216.3886 I-0.5708 J-22.0914
G1 X168.1053 Y210.7596 Z-4.0000
G0 Z10.0000
G0 X168.1053 Y210.7596
G0 Z10.0000
G0 X252.2693 Y77.0679
G1 X252.2693 Y77.0679 Z-2.0000 F3000.
G1 X252.0346 Y81.7282 Z-2.0000 F6000.
G1 X251.7736 Y90.9903 Z-2.0000
G1 X251.7201 Y100.0723 Z-2.0000
G1 X251.8686 Y109.1406 Z-2.0000
G1 X252.0579 Y114.6361 Z-2.0000
G1 X252.3227 Y120.1288 Z-2.0000
G1 X252.6634 Y125.6175 Z-2.0000
G1 X253.0802 Y131.0992 Z-2.0000
G1 X253.5228 Y136.0475 Z-2.0000
G1 X254.0283 Y140.9901 Z-2.0000
G1 X254.5970 Y145.9259 Z-2.0000
G1 X255.2308 Y150.8648 Z-2.0000
G1 X256.3358 Y158.4795 Z-2.0000
G1 X257.5945 Y166.0706 Z-2.0000
G1 X259.0000 Y173.5964 Z-2.0000
G1 X260.5566 Y181.0816 Z-2.0000
G1 X261.6379 Y185.8742 Z-2.0000
G1 X262.7829 Y190.6522 Z-2.0000
G1 X263.9915 Y195.4148 Z-2.0000
G1 X264.6096 Y197.7208 Z-2.0000
G1 X264.6096 Y197.7208 Z0.0000
G3 X266.3378 Y206.9624 I-36.2073 J11.5533
G1 X266.3378 Y206.9624 Z-2.0000
G3 X231.6932 Y239.4255 I-31.1635 J1.4602
G3 X205.1105 Y200.0877 I3.4811 J-31.0029
G1 X206.7844 Y193.7845 Z-2.0000
G1 X208.3524 Y187.4249 Z-2.0000
G1 X209.8074 Y181.0388 Z-2.0000
G1 X211.1496 Y174.6284 Z-2.0000
G1 X212.3833 Y168.1738 Z-2.0000
G1 X213.5044 Y161.6988 Z-2.0000
G1 X214.5203 Y155.1570 Z-2.0000
G1 X215.4237 Y148.5902 Z-2.0000
G1 X216.4580 Y139.7589 Z-2.0000
G1 X217.2902 Y130.9070 Z-2.0000
G1 X217.9219 Y122.0392 Z-2.0000
G1 X218.3549 Y113.1612 Z-2.0000
G1 X218.5856 Y104.6034 Z-2.0000
G1 X218.6356 Y96.0432 Z-2.0000
G1 X218.5066 Y87.4845 Z-2.0000
G1 X218.2009 Y78.9349 Z-2.0000
G1 X218.0936 Y76.9803 Z-2.0000
G1 X218.0936 Y76.9803 Z0.0000
G1 X217.7949 Y71.5418 Z0.0000
G1 X217.4617 Y66.9479 Z0.0000
G1 X217.4617 Y66.9479 Z-2.0000
G1 X217.2593 Y64.1573 Z-2.0000
G1 X216.5953 Y56.7838 Z-2.0000
G3 X215.6944 Y46.4136 I75.9994 J-11.8271
G3 X236.7404 Y27.7651 I19.4837 J0.7885
G3 X254.5376 Y49.5358 I-1.5623 J19.4370
G1 X253.9181 Y55.2056 Z-2.0000
G1 X253.3682 Y60.9508 Z-2.0000
G1 X252.8960 Y66.7032 Z-2.0000
G1 X252.5014 Y72.4743 Z-2.0000
G1 X252.2693 Y77.0679 Z-2.0000
G1 X252.2693 Y77.0679 Z-4.0000
G1 X252.5014 Y72.4743 Z-4.0000
G1 X252.8960 Y66.7032 Z-4.0000
G1 X253.3682 Y60.9508 Z-4.0000
G1 X253.9181 Y55.2056 Z-4.0000
G2 X254.6602 Y46.4136 I-62.6987 J-9.7200
G2 X233.6127 Y27.7652 I-19.4838 J0.7886
G2 X215.8172 Y49.5386 I1.5637 J19.4370
G1 X216.5953 Y56.7838 Z-4.0000
G1 X217.2593 Y64.1573 Z-4.0000
G1 X217.4617 Y66.9479 Z-4.0000
G1 X217.4617 Y66.9479 Z0.0000
G1 X217.7949 Y71.5418 Z0.0000
G1 X218.0936 Y76.9803 Z0.0000
G1 X218.0936 Y76.9803 Z-4.0000
G1 X218.2009 Y78.9349 Z-4.0000
G1 X218.5066 Y87.4845 Z-4.0000
G1 X218.6356 Y96.0432 Z-4.0000
G1 X218.5856 Y104.6034 Z-4.0000
G1 X218.3549 Y113.1612 Z-4.0000
G1 X217.9219 Y122.0392 Z-4.0000
G1 X217.2902 Y130.9070 Z-4.0000
G1 X216.4580 Y139.7589 Z-4.0000
G1 X215.4237 Y148.5902 Z-4.0000
G1 X214.5203 Y155.1570 Z-4.0000
G1 X213.5044 Y161.6988 Z-4.0000
G1 X212.3833 Y168.1738 Z-4.0000
G1 X211.1496 Y174.6284 Z-4.0000
G1 X209.8074 Y181.0388 Z-4.0000
G1 X208.3524 Y187.4249 Z-4.0000
G1 X206.7844 Y193.7845 Z-4.0000
G2 X204.3591 Y203.5638 I103.4844 J30.8559
G2 X233.4670 Y239.5735 I30.8160 J4.8596
G2 X266.3378 Y206.9624 I1.7081 J-31.1501
G1 X266.3378 Y206.9624 Z0.0000
G2 X264.6096 Y197.7208 I-35.5249 J1.8609
G1 X264.6096 Y197.7208 Z-4.0000
G1 X263.9915 Y195.4148 Z-4.0000
G1 X262.7829 Y190.6522 Z-4.0000
G1 X261.6379 Y185.8742 Z-4.0000
G1 X260.5566 Y181.0816 Z-4.0000
G1 X259.0000 Y173.5964 Z-4.0000
G1 X257.5945 Y166.0706 Z-4.0000
G1 X256.3358 Y158.4795 Z-4.0000
G1 X255.2308 Y150.8648 Z-4.0000
G1 X254.5970 Y145.9259 Z-4.0000
G1 X254.0283 Y140.9901 Z-4.0000
G1 X253.5228 Y136.0475 Z-4.0000
G1 X253.0802 Y131.0992 Z-4.0000
G1 X252.6634 Y125.6175 Z-4.0000
G1 X252.3227 Y120.1288 Z-4.0000
G1 X252.0579 Y114.6361 Z-4.0000
G1 X251.8686 Y109.1406 Z-4.0000
G1 X251.7201 Y100.0723 Z-4.0000
G1 X251.7736 Y90.9903 Z-4.0000
G1 X252.0346 Y81.7282 Z-4.0000
G1 X252.2693 Y77.0679 Z-4.0000
G0 Z10.0000
G0 X252.2693 Y77.0679
G0 Z10.0000
G0 X78.2862 Y50.4115
G1 X78.2862 Y50.4115 Z-2.0000 F3000.
G1 X77.7589 Y55.4887 Z-2.0000 F6000.
G1 X76.9539 Y65.5761 Z-2.0000
G1 X76.6425 Y70.6358 Z-2.0000
G1 X76.3930 Y75.6990 Z-2.0000
G1 X76.2057 Y80.7652 Z-2.0000
G1 X76.0811 Y85.8356 Z-2.0000
G1 X76.0169 Y91.4621 Z-2.0000
G1 X76.0310 Y97.0893 Z-2.0000
G1 X76.1240 Y102.7160 Z-2.0000
G1 X76.2970 Y108.3534 Z-2.0000
G1 X76.7299 Y117.1857 Z-2.0000
G1 X77.3621 Y126.0062 Z-2.0000
G1 X78.1839 Y134.7022 Z-2.0000
G1 X79.2034 Y143.3777 Z-2.0000
G1 X80.4133 Y151.9692 Z-2.0000
G1 X81.8211 Y160.5309 Z-2.0000
G1 X83.4184 Y169.0100 Z-2.0000
G1 X85.2135 Y177.4499 Z-2.0000
G1 X85.7287 Y179.6198 Z-2.0000
G1 X85.7287 Y179.6198 Z0.0000
G1 X87.1980 Y185.8085 Z0.0000
G1 X88.1400 Y189.3970 Z0.0000
G1 X88.1400 Y189.3970 Z-2.0000
G3 X90.6427 Y202.2236 I-49.9346 J16.4005
G3 X50.1255 Y239.9054 I-36.3678 J1.5196
G3 X19.1964 Y194.0257 I4.1494 J-36.1622
G1 X21.3706 Y185.7395 Z-2.0000
G1 X23.3533 Y177.3810 Z-2.0000
G1 X25.1467 Y168.9413 Z-2.0000
G1 X26.7424 Y160.4623 Z-2.0000
G1 X28.1485 Y151.9008 Z-2.0000
G1 X29.3568 Y143.3095 Z-2.0000
G1 X30.3747 Y134.6343 Z-2.0000
G1 X31.1949 Y125.9385 Z-2.0000
G1 X31.8256 Y117.1181 Z-2.0000
G1 X32.2566 Y108.2984 Z-2.0000
G1 X32.4284 Y102.6736 Z-2.0000
G1 X32.5208 Y97.0473 Z-2.0000
G1 X32.5343 Y91.4204 Z-2.0000
G1 X32.4735 Y86.1412 Z-2.0000
G1 X32.4735 Y86.1412 Z0.0000
G1 X32.4695 Y85.7941 Z0.0000
G1 X32.3262 Y80.1473 Z0.0000
G1 X32.1662 Y76.0633 Z0.0000
G1 X32.1662 Y76.0633 Z-2.0000
G1 X32.1051 Y74.5032 Z-2.0000
G1 X31.8069 Y68.8629 Z-2.0000
G1 X31.4311 Y63.2157 Z-2.0000
G1 X30.6787 Y54.2682 Z-2.0000
G3 X29.5789 Y42.8248 I139.8343 J-19.2126
G3 X54.9138 Y17.8316 I24.6969 J-0.3027
G3 X78.9241 Y44.0998 I-0.6380 J24.6905
G1 X78.2862 Y50.4115 Z-2.0000
G1 X78.2862 Y50.4115 Z-4.0000
G1 X78.9241 Y44.0998 Z-4.0000
G2 X53.6095 Y17.8323 I-24.6492 J-1.5768
G2 X29.7464 Y45.4250 I0.6654 J24.6907
G1 X30.6787 Y54.2682 Z-4.0000
G1 X31.4311 Y63.2157 Z-4.0000
G1 X31.8069 Y68.8629 Z-4.0000
G1 X32.1051 Y74.5032 Z-4.0000
G1 X32.1662 Y76.0633 Z-4.0000
G1 X32.1662 Y76.0633 Z0.0000
G1 X32.3262 Y80.1473 Z0.0000
G1 X32.4695 Y85.7941 Z0.0000
G1 X32.4735 Y86.1412 Z0.0000
G1 X32.4735 Y86.1412 Z-4.0000
G1 X32.5343 Y91.4204 Z-4.0000
G1 X32.5208 Y97.0473 Z-4.0000
G1 X32.4284 Y102.6736 Z-4.0000
G1 X32.2566 Y108.2984 Z-4.0000
G1 X31.8256 Y117.1181 Z-4.0000
G1 X31.1949 Y125.9385 Z-4.0000
G1 X30.3747 Y134.6343 Z-4.0000
G1 X29.3568 Y143.3095 Z-4.0000
G1 X28.1485 Y151.9008 Z-4.0000
G1 X26.7424 Y160.4623 Z-4.0000
G1 X25.1467 Y168.9413 Z-4.0000
G1 X23.3533 Y177.3810 Z-4.0000
G1 X21.3706 Y185.7395 Z-4.0000
G2 X18.3209 Y198.0766 I139.4630 J41.0209
G2 X56.3490 Y240.0837 I35.9557 J5.6666
G2 X89.3550 Y194.0257 I-2.0724 J-36.3405
G1 X88.1400 Y189.3970 Z-4.0000
G1 X88.1400 Y189.3970 Z0.0000
G1 X87.1980 Y185.8085 Z0.0000
G1 X85.7287 Y179.6198 Z0.0000
G1 X85.7287 Y179.6198 Z-4.0000
G1 X85.2135 Y177.4499 Z-4.0000
G1 X83.4184 Y169.0100 Z-4.0000
G1 X81.8211 Y160.5309 Z-4.0000
G1 X80.4133 Y151.9692 Z-4.0000
G1 X79.2034 Y143.3777 Z-4.0000
G1 X78.1839 Y134.7022 Z-4.0000
G1 X77.3621 Y126.0062 Z-4.0000
G1 X76.7299 Y117.1857 Z-4.0000
G1 X76.2970 Y108.3534 Z-4.0000
G1 X76.1240 Y102.7160 Z-4.0000
G1 X76.0310 Y97.0893 Z-4.0000
G1 X76.0169 Y91.4621 Z-4.0000
G1 X76.0811 Y85.8356 Z-4.0000
G1 X76.2057 Y80.7652 Z-4.0000
G1 X76.3930 Y75.6990 Z-4.0000
G1 X76.6425 Y70.6358 Z-4.0000
G1 X76.9539 Y65.5761 Z-4.0000
G1 X77.7589 Y55.4887 Z-4.0000
G1 X78.2862 Y50.4115 Z-4.0000
G0 Z10.0000
G0 X78.2862 Y50.4115
G0 Z10.0000
G0 X112.4232 Y301.9189
G1 X112.4232 Y301.9189 Z-2.0000 F3000.
G3 X106.3300 Y301.2426 I0.0113 J-27.8859 F6000.
G3 X107.7978 Y282.2016 I2.6697 J-9.3713
G1 X113.8414 Y281.7336 Z-2.0000
G1 X118.9017 Y281.2797 Z-2.0000
G1 X123.9559 Y280.7612 Z-2.0000
G1 X129.0162 Y280.1763 Z-2.0000
G1 X133.1262 Y279.6293 Z-2.0000
G1 X133.1262 Y279.6293 Z0.0000
G1 X137.4299 Y279.0565 Z0.0000
G1 X143.0856 Y278.1782 Z0.0000
G1 X143.0856 Y278.1782 Z-2.0000
G1 X145.8158 Y277.7542 Z-2.0000
G1 X153.6574 Y276.3652 Z-2.0000
G1 X161.4609 Y274.8155 Z-2.0000
G1 X167.1852 Y273.5705 Z-2.0000
G1 X172.8899 Y272.2370 Z-2.0000
G1 X178.5734 Y270.8150 Z-2.0000
G3 X186.7781 Y268.7580 I25.6368 J84.8653
G3 X213.8091 Y291.1419 I3.6449 J23.1117
G3 X188.2224 Y315.1635 I-23.3861 J0.7278
G1 X188.2224 Y315.1635 Z0.0000
G3 X184.1580 Y314.4179 I2.1040 J-22.9200
G1 X179.0409 Y313.0582 Z0.0000
G1 X179.0409 Y313.0582 Z-2.0000
G1 X177.8186 Y312.7334 Z-2.0000
G1 X171.4229 Y311.1538 Z-2.0000
G1 X165.0009 Y309.6861 Z-2.0000
G1 X158.5498 Y308.3292 Z-2.0000
G1 X150.8129 Y306.8542 Z-2.0000
G1 X143.0451 Y305.5374 Z-2.0000
G1 X134.5179 Y304.2776 Z-2.0000
G1 X125.9637 Y303.2057 Z-2.0000
G1 X116.9203 Y302.2776 Z-2.0000
G1 X112.4232 Y301.9189 Z-2.0000
G1 X112.4232 Y301.9189 Z-4.0000
G1 X116.9203 Y302.2776 Z-4.0000
G1 X125.9637 Y303.2057 Z-4.0000
G1 X134.5179 Y304.2776 Z-4.0000
G1 X143.0451 Y305.5374 Z-4.0000
G1 X150.8129 Y306.8542 Z-4.0000
G1 X158.5498 Y308.3292 Z-4.0000
G1 X165.0009 Y309.6861 Z-4.0000
G1 X171.4229 Y311.1538 Z-4.0000
G1 X177.8186 Y312.7334 Z-4.0000
G1 X179.0409 Y313.0582 Z-4.0000
G1 X179.0409 Y313.0582 Z0.0000
G2 X186.7781 Y314.9847 I24.4958 J-81.8793
G1 X188.1080 Y315.1554 Z0.0000
G1 X188.2224 Y315.1635 Z0.0000
G1 X188.2224 Y315.1635 Z-4.0000
G2 X213.7290 Y289.8031 I2.1997 J-23.2946
G2 X184.1594 Y269.3244 I-23.3069 J2.0658
G1 X178.5734 Y270.8150 Z-4.0000
G1 X172.8899 Y272.2370 Z-4.0000
G1 X167.1852 Y273.5705 Z-4.0000
G1 X161.4609 Y274.8155 Z-4.0000
G1 X153.6574 Y276.3652 Z-4.0000
G1 X145.8158 Y277.7542 Z-4.0000
G1 X143.0856 Y278.1782 Z-4.0000
G1 X143.0856 Y278.1782 Z0.0000
G1 X137.4299 Y279.0565 Z0.0000
G1 X133.1262 Y279.6293 Z0.0000
G1 X133.1262 Y279.6293 Z-4.0000
G1 X129.0162 Y280.1763 Z-4.0000
G1 X123.9559 Y280.7612 Z-4.0000
G1 X118.9017 Y281.2797 Z-4.0000
G1 X113.8414 Y281.7336 Z-4.0000
G1 X107.7978 Y282.2016 Z-4.0000
G2 X108.0258 Y301.5682 I1.2028 J9.6705
G1 X112.4232 Y301.9189 Z-4.0000
G0 Z10.0000
G0 X112.4232 Y301.9189
G0 Z10.0000
G0 X301.9126 Y206.7984
G1 X301.9126 Y206.7984 Z-2.0000 F3000.
G1 X302.4421 Y201.7101 Z-2.0000 F6000.
G1 X303.2555 Y191.5871 Z-2.0000
G1 X303.7478 Y183.1573 Z-2.0000
G1 X304.0710 Y174.7201 Z-2.0000
G1 X304.2198 Y166.6781 Z-2.0000
G1 X304.2119 Y158.6307 Z-2.0000
G1 X304.0166 Y149.6708 Z-2.0000
G1 X303.6229 Y140.7155 Z-2.0000
G1 X303.0036 Y131.4499 Z-2.0000
G1 X302.1679 Y122.2048 Z-2.0000
G1 X301.2492 Y114.0675 Z-2.0000
G1 X300.1592 Y105.9514 Z-2.0000
G1 X298.9263 Y98.0368 Z-2.0000
G1 X297.5277 Y90.1505 Z-2.0000
G1 X297.4275 Y89.6467 Z-2.0000
G1 X297.4275 Y89.6467 Z0.0000
G1 X296.0257 Y82.5961 Z0.0000
G1 X295.4078 Y79.7904 Z0.0000
G1 X295.4078 Y79.7904 Z-2.0000
G1 X294.3691 Y75.0736 Z-2.0000
G1 X292.5574 Y67.5865 Z-2.0000
G3 X289.9230 Y57.0315 I115.4082 J-34.4099
G3 X319.8045 Y24.0261 I28.2507 J-4.4525
G3 X345.7338 Y60.2190 I-1.6308 J28.5529
G1 X344.4613 Y64.9674 Z-2.0000
G1 X343.2448 Y69.7632 Z-2.0000
G1 X342.0924 Y74.5746 Z-2.0000
G1 X341.0026 Y79.4072 Z-2.0000
G1 X339.6490 Y85.8727 Z-2.0000
G1 X338.4101 Y92.3544 Z-2.0000
G1 X337.5487 Y97.2663 Z-2.0000
G1 X336.7517 Y102.1888 Z-2.0000
G1 X336.0188 Y107.1211 Z-2.0000
G1 X335.3490 Y112.0689 Z-2.0000
G1 X334.5487 Y118.7349 Z-2.0000
G1 X333.8631 Y125.4134 Z-2.0000
G1 X333.2915 Y132.1022 Z-2.0000
G1 X332.8333 Y138.7987 Z-2.0000
G1 X332.4949 Y145.3355 Z-2.0000
G1 X332.2629 Y151.8765 Z-2.0000
G1 X332.1651 Y156.9320 Z-2.0000
G1 X332.1651 Y156.9320 Z0.0000
G1 X332.1364 Y158.4201 Z0.0000
G1 X332.1146 Y164.9632 Z0.0000
G1 X332.1396 Y167.0259 Z0.0000
G1 X332.1396 Y167.0259 Z-2.0000
G1 X332.1893 Y171.1320 Z-2.0000
G1 X332.3556 Y177.2988 Z-2.0000
G1 X332.6129 Y183.4621 Z-2.0000
G1 X332.9603 Y189.6187 Z-2.0000
G1 X333.3522 Y195.1913 Z-2.0000
G1 X333.8169 Y200.7580 Z-2.0000
G1 X334.3539 Y206.3180 Z-2.0000
G3 X334.9961 Y215.3657 I-46.3932 J7.8396
G3 X316.3658 Y230.5987 I-16.8255 J-1.5687
G3 X301.3958 Y211.7565 I1.8048 J-16.8017
G1 X301.9126 Y206.7984 Z-2.0000
G1 X301.9126 Y206.7984 Z-4.0000
G2 X301.3499 Y215.3657 I46.5879 J7.3619
G2 X319.9760 Y230.5992 I16.8253 J-1.5685
G2 X334.9507 Y211.7644 I-1.8008 J-16.8020
G1 X334.3539 Y206.3180 Z-4.0000
G1 X333.8169 Y200.7580 Z-4.0000
G1 X333.3522 Y195.1913 Z-4.0000
G1 X332.9603 Y189.6187 Z-4.0000
G1 X332.6129 Y183.4621 Z-4.0000
G1 X332.3556 Y177.2988 Z-4.0000
G1 X332.1893 Y171.1320 Z-4.0000
G1 X332.1396 Y167.0259 Z-4.0000
G1 X332.1396 Y167.0259 Z0.0000
G1 X332.1146 Y164.9632 Z0.0000
G1 X332.1364 Y158.4201 Z0.0000
G1 X332.1651 Y156.9320 Z0.0000
G1 X332.1651 Y156.9320 Z-4.0000
G1 X332.2629 Y151.8765 Z-4.0000
G1 X332.4949 Y145.3355 Z-4.0000
G1 X332.8333 Y138.7987 Z-4.0000
G1 X333.2915 Y132.1022 Z-4.0000
G1 X333.8631 Y125.4134 Z-4.0000
G1 X334.5487 Y118.7349 Z-4.0000
G1 X335.3490 Y112.0689 Z-4.0000
G1 X336.0188 Y107.1211 Z-4.0000
G1 X336.7517 Y102.1888 Z-4.0000
G1 X337.5487 Y97.2663 Z-4.0000
G1 X338.4101 Y92.3544 Z-4.0000
G1 X339.6490 Y85.8727 Z-4.0000
G1 X341.0026 Y79.4072 Z-4.0000
G1 X342.0924 Y74.5746 Z-4.0000
G1 X343.2448 Y69.7632 Z-4.0000
G1 X344.4613 Y64.9674 Z-4.0000
G2 X346.6316 Y55.4062 I-46.2167 J-15.5174
G2 X315.7213 Y24.0848 I-28.4594 J-2.8271
G2 X290.6135 Y60.2245 I2.4509 J28.4943
G1 X292.5574 Y67.5865 Z-4.0000
G1 X294.3691 Y75.0736 Z-4.0000
G1 X295.4078 Y79.7904 Z-4.0000
G1 X295.4078 Y79.7904 Z0.0000
G1 X296.0257 Y82.5961 Z0.0000
G1 X297.4275 Y89.6467 Z0.0000
G1 X297.4275 Y89.6467 Z-4.0000
G1 X297.5277 Y90.1505 Z-4.0000
G1 X298.9263 Y98.0368 Z-4.0000
G1 X300.1592 Y105.9514 Z-4.0000
G1 X301.2492 Y114.0675 Z-4.0000
G1 X302.1679 Y122.2048 Z-4.0000
G1 X303.0036 Y131.4499 Z-4.0000
G1 X303.6229 Y140.7155 Z-4.0000
G1 X304.0166 Y149.6708 Z-4.0000
G1 X304.2119 Y158.6307 Z-4.0000
G1 X304.2198 Y166.6781 Z-4.0000
G1 X304.0710 Y174.7201 Z-4.0000
G1 X303.7478 Y183.1573 Z-4.0000
G1 X303.2555 Y191.5871 Z-4.0000
G1 X302.4421 Y201.7101 Z-4.0000
G1 X301.9126 Y206.7984 Z-4.0000
G0 Z10.0000
G0 X301.9126 Y206.7984
G0 Z10.0000
G0 X54.2757 Y256.1440
G1 X54.2757 Y256.1440 Z-2.0000 F3000.
G2 X105.1140 Y190.9903 I-0.0064 J-52.4160 F6000.
G1 X103.3859 Y184.5478 Z-2.0000
G1 X102.0589 Y179.2364 Z-2.0000
G1 X100.8157 Y173.9045 Z-2.0000
G1 X99.6560 Y168.5535 Z-2.0000
G1 X98.5719 Y163.1444 Z-2.0000
G1 X97.5720 Y157.7189 Z-2.0000
G1 X96.6562 Y152.2782 Z-2.0000
G1 X95.8240 Y146.8240 Z-2.0000
G1 X95.0673 Y141.2956 Z-2.0000
G1 X94.6010 Y137.4516 Z-2.0000
G1 X94.6010 Y137.4516 Z0.0000
G3 X93.5714 Y127.5968 I245.1065 J-30.5891
G1 X93.5714 Y127.5968 Z-2.0000
G1 X93.3044 Y124.6488 Z-2.0000
G1 X92.8793 Y119.0104 Z-2.0000
G1 X92.5395 Y113.3660 Z-2.0000
G1 X92.2842 Y107.7168 Z-2.0000
G1 X92.1133 Y102.0687 Z-2.0000
G1 X92.0138 Y94.0872 Z-2.0000
G1 X92.0789 Y86.1092 Z-2.0000
G1 X92.3068 Y78.1334 Z-2.0000
G1 X92.6958 Y70.1591 Z-2.0000
G1 X93.0751 Y64.4167 Z-2.0000
G1 X93.5369 Y58.6758 Z-2.0000
G1 X94.0802 Y52.9417 Z-2.0000
G2 X94.9406 Y40.8328 I-64.7790 J-10.6879
G2 X51.6035 Y1.9102 I-40.6713 J1.6967
G2 X13.7250 Y46.1627 I2.6658 J40.6193
G1 X14.4712 Y52.9417 Z-2.0000
G1 X15.0145 Y58.6758 Z-2.0000
G1 X15.4763 Y64.4167 Z-2.0000
G1 X15.8556 Y70.1591 Z-2.0000
G1 X16.2446 Y78.1334 Z-2.0000
G1 X16.4725 Y86.1092 Z-2.0000
G1 X16.5376 Y94.0872 Z-2.0000
G1 X16.4381 Y102.0687 Z-2.0000
G1 X16.2672 Y107.7168 Z-2.0000
G1 X16.0119 Y113.3660 Z-2.0000
G1 X15.6721 Y119.0104 Z-2.0000
G1 X15.2470 Y124.6488 Z-2.0000
G1 X14.9792 Y127.6047 Z-2.0000
G1 X14.9792 Y127.6047 Z0.0000
G1 X14.7435 Y130.2067 Z0.0000
G1 X14.1560 Y135.7561 Z0.0000
G1 X13.9494 Y137.4595 Z0.0000
G1 X13.9494 Y137.4595 Z-2.0000
G1 X13.4841 Y141.2956 Z-2.0000
G1 X12.7274 Y146.8240 Z-2.0000
G1 X11.8952 Y152.2782 Z-2.0000
G1 X10.9794 Y157.7189 Z-2.0000
G1 X9.9795 Y163.1444 Z-2.0000
G1 X8.8954 Y168.5535 Z-2.0000
G1 X7.7357 Y173.9045 Z-2.0000
G1 X6.4925 Y179.2364 Z-2.0000
G1 X5.1655 Y184.5478 Z-2.0000
G1 X3.7516 Y189.8489 Z-2.0000
G2 X54.2757 Y256.1440 I50.5241 J13.8951
G1 X54.2757 Y256.1440 Z-4.0000
G3 X3.7516 Y189.8489 I0.0000 J-52.4000
G1 X5.1655 Y184.5478 Z-4.0000
G1 X6.4925 Y179.2364 Z-4.0000
G1 X7.7357 Y173.9045 Z-4.0000
G1 X8.8954 Y168.5535 Z-4.0000
G1 X9.9795 Y163.1444 Z-4.0000
G1 X10.9794 Y157.7189 Z-4.0000
G1 X11.8952 Y152.2782 Z-4.0000
G1 X12.7274 Y146.8240 Z-4.0000
G1 X13.4841 Y141.2956 Z-4.0000
G1 X13.9494 Y137.4595 Z-4.0000
G1 X13.9494 Y137.4595 Z0.0000
G2 X14.9792 Y127.6047 I-245.2273 J-30.6078
G1 X14.9792 Y127.6047 Z-4.0000
G1 X15.2470 Y124.6488 Z-4.0000
G1 X15.6721 Y119.0104 Z-4.0000
G1 X16.0119 Y113.3660 Z-4.0000
G1 X16.2672 Y107.7168 Z-4.0000
G1 X16.4381 Y102.0687 Z-4.0000
G1 X16.5376 Y94.0872 Z-4.0000
G1 X16.4725 Y86.1092 Z-4.0000
G1 X16.2446 Y78.1334 Z-4.0000
G1 X15.8556 Y70.1591 Z-4.0000
G1 X15.4763 Y64.4167 Z-4.0000
G1 X15.0145 Y58.6758 Z-4.0000
G1 X14.4712 Y52.9417 Z-4.0000
G3 X13.5701 Y41.9104 I66.9233 J-11.0194
G3 X56.9209 Y1.9084 I40.7002 J0.6165
G3 X94.7054 Y47.2051 I-2.6506 J40.6185
G1 X94.0802 Y52.9417 Z-4.0000
G1 X93.5369 Y58.6758 Z-4.0000
G1 X93.0751 Y64.4167 Z-4.0000
G1 X92.6958 Y70.1591 Z-4.0000
G1 X92.3068 Y78.1334 Z-4.0000
G1 X92.0789 Y86.1092 Z-4.0000
G1 X92.0138 Y94.0872 Z-4.0000
G1 X92.1133 Y102.0687 Z-4.0000
G1 X92.2842 Y107.7168 Z-4.0000
G1 X92.5395 Y113.3660 Z-4.0000
G1 X92.8793 Y119.0104 Z-4.0000
G1 X93.3044 Y124.6488 Z-4.0000
G1 X93.5714 Y127.5968 Z-4.0000
G1 X93.5714 Y127.5968 Z0.0000
G1 X93.8079 Y130.2067 Z0.0000
G1 X94.3954 Y135.7561 Z0.0000
G1 X94.6010 Y137.4516 Z0.0000
G1 X94.6010 Y137.4516 Z-4.0000
G1 X95.0673 Y141.2956 Z-4.0000
G1 X95.8240 Y146.8240 Z-4.0000
G1 X96.6562 Y152.2782 Z-4.0000
G1 X97.5720 Y157.7189 Z-4.0000
G1 X98.5719 Y163.1444 Z-4.0000
G1 X99.6560 Y168.5535 Z-4.0000
G1 X100.8157 Y173.9045 Z-4.0000
G1 X102.0589 Y179.2364 Z-4.0000
G1 X103.3859 Y184.5478 Z-4.0000
G3 X106.2368 Y196.9069 I-69.5346 J22.5480
G3 X54.2757 Y256.1440 I-51.9606 J6.8296
G0 Z10.0000
G0 X54.2757 Y256.1440
G0 Z10.0000
G0 X235.1773 Y255.6217
G1 X235.1773 Y255.6217 Z-2.0000 F3000.
G2 X272.7213 Y237.0275 I0.0584 J-47.0822 F6000.
G2 X280.9845 Y196.9840 I-37.6080 J-28.6350
G1 X279.0761 Y189.8390 Z-2.0000
G1 X277.5756 Y183.7549 Z-2.0000
G1 X276.1832 Y177.6447 Z-2.0000
G1 X274.8993 Y171.5150 Z-2.0000
G1 X273.3465 Y163.2643 Z-2.0000
G1 X271.9854 Y154.9796 Z-2.0000
G1 X271.0833 Y148.6976 Z-2.0000
G1 X270.2891 Y142.3963 Z-2.0000
G1 X270.2645 Y142.1699 Z-2.0000
G1 X270.2645 Y142.1699 Z0.0000
G1 X269.6028 Y136.0820 Z0.0000
G1 X269.2541 Y132.2727 Z0.0000
G1 X269.2541 Y132.2727 Z-2.0000
G1 X269.0239 Y129.7578 Z-2.0000
G1 X268.5069 Y122.7388 Z-2.0000
G1 X268.1200 Y115.7123 Z-2.0000
G1 X267.8620 Y108.6793 Z-2.0000
G1 X267.7319 Y101.6388 Z-2.0000
G1 X267.7173 Y96.4360 Z-2.0000
G1 X267.7717 Y91.2297 Z-2.0000
G1 X267.8946 Y86.0243 Z-2.0000
G1 X268.0853 Y80.8247 Z-2.0000
G1 X268.4731 Y73.4248 Z-2.0000
G1 X268.9957 Y66.0368 Z-2.0000
G1 X269.6521 Y58.6589 Z-2.0000
G2 X270.6768 Y47.3969 I-94.1857 J-14.2473
G2 X233.6988 Y11.7308 I-35.5058 J-0.1904
G2 X199.8032 Y50.3382 I1.4722 J35.4757
G1 X200.8313 Y59.9955 Z-2.0000
G1 X201.5643 Y68.7203 Z-2.0000
G1 X201.9288 Y74.2034 Z-2.0000
G1 X202.2190 Y79.6965 Z-2.0000
G1 X202.4341 Y85.1928 Z-2.0000
G1 X202.5733 Y90.6912 Z-2.0000
G1 X202.6361 Y96.1670 Z-2.0000
G1 X202.6227 Y101.6429 Z-2.0000
G1 X202.5325 Y107.1177 Z-2.0000
G1 X202.3652 Y112.5843 Z-2.0000
G1 X201.9447 Y121.1796 Z-2.0000
G1 X201.3308 Y129.7567 Z-2.0000
G1 X201.0935 Y132.2710 Z-2.0000
G1 X201.0935 Y132.2710 Z0.0000
G1 X200.5360 Y138.1781 Z0.0000
G1 X200.0701 Y142.1495 Z0.0000
G1 X200.0701 Y142.1495 Z-2.0000
G1 X199.5505 Y146.5789 Z-2.0000
G1 X198.3730 Y154.9542 Z-2.0000
G1 X197.0020 Y163.2994 Z-2.0000
G1 X195.4560 Y171.5114 Z-2.0000
G1 X193.7191 Y179.6847 Z-2.0000
G1 X191.7905 Y187.8142 Z-2.0000
G1 X189.6651 Y195.9123 Z-2.0000
G2 X235.1773 Y255.6217 I45.5122 J12.5094
G1 X235.1773 Y255.6217 Z-4.0000
G3 X189.6651 Y195.9123 I0.0000 J-47.2000
G1 X191.7905 Y187.8142 Z-4.0000
G1 X193.7191 Y179.6847 Z-4.0000
G1 X195.4560 Y171.5114 Z-4.0000
G1 X197.0020 Y163.2994 Z-4.0000
G1 X198.3730 Y154.9542 Z-4.0000
G1 X199.5505 Y146.5789 Z-4.0000
G1 X200.0701 Y142.1495 Z-4.0000
G1 X200.0701 Y142.1495 Z0.0000
G1 X200.5360 Y138.1781 Z0.0000
G1 X201.0935 Y132.2710 Z0.0000
G1 X201.0935 Y132.2710 Z-4.0000
G1 X201.3308 Y129.7567 Z-4.0000
G1 X201.9447 Y121.1796 Z-4.0000
G1 X202.3652 Y112.5843 Z-4.0000
G1 X202.5325 Y107.1177 Z-4.0000
G1 X202.6227 Y101.6429 Z-4.0000
G1 X202.6361 Y96.1670 Z-4.0000
G1 X202.5733 Y90.6912 Z-4.0000
G1 X202.4341 Y85.1928 Z-4.0000
G1 X202.2190 Y79.6965 Z-4.0000
G1 X201.9288 Y74.2034 Z-4.0000
G1 X201.5643 Y68.7203 Z-4.0000
G1 X200.8313 Y59.9955 Z-4.0000
G3 X199.6862 Y48.3944 I125.6368 J-18.2589
G3 X216.2564 Y17.1625 I35.5254 J-1.1635
G3 X270.4420 Y51.2803 I18.9209 J30.0375
G1 X269.6521 Y58.6589 Z-4.0000
G1 X268.9957 Y66.0368 Z-4.0000
G1 X268.4731 Y73.4248 Z-4.0000
G1 X268.0853 Y80.8247 Z-4.0000
G1 X267.8946 Y86.0243 Z-4.0000
G1 X267.7717 Y91.2297 Z-4.0000
G1 X267.7173 Y96.4360 Z-4.0000
G1 X267.7319 Y101.6388 Z-4.0000
G1 X267.8620 Y108.6793 Z-4.0000
G1 X268.1200 Y115.7123 Z-4.0000
G1 X268.5069 Y122.7388 Z-4.0000
G1 X269.0239 Y129.7578 Z-4.0000
G1 X269.2541 Y132.2727 Z-4.0000
G1 X269.2541 Y132.2727 Z0.0000
G1 X269.6028 Y136.0820 Z0.0000
G1 X270.2645 Y142.1699 Z0.0000
G1 X270.2645 Y142.1699 Z-4.0000
G1 X270.2891 Y142.3963 Z-4.0000
G1 X271.0833 Y148.6976 Z-4.0000
G1 X271.9854 Y154.9796 Z-4.0000
G1 X273.3465 Y163.2643 Z-4.0000
G1 X274.8993 Y171.5150 Z-4.0000
G1 X276.1832 Y177.6447 Z-4.0000
G1 X277.5756 Y183.7549 Z-4.0000
G1 X279.0761 Y189.8390 Z-4.0000
G3 X281.8717 Y201.4664 I-77.2873 J24.7320
G3 X235.1773 Y255.6217 I-46.6964 J6.9452
G0 Z10.0000
G0 X235.1773 Y255.6217
G0 Z10.0000
G0 X146.6265 Y6.7783
G1 X146.6265 Y6.7783 Z-2.0000 F3000.
G2 X98.3116 Y68.7027 I0.0083 J49.8169 F6000.
G1 X100.7174 Y77.8167 Z-2.0000
G1 X102.6318 Y85.8866 Z-2.0000
G1 X104.3559 Y94.0001 Z-2.0000
G1 X105.8906 Y102.1521 Z-2.0000
G1 X107.2474 Y110.4082 Z-2.0000
G1 X108.4134 Y118.6939 Z-2.0000
G1 X108.9026 Y122.8598 Z-2.0000
G1 X108.9026 Y122.8598 Z0.0000
G1 X109.3965 Y127.0658 Z0.0000
G1 X109.9319 Y132.7374 Z0.0000
G1 X109.9319 Y132.7374 Z-2.0000
G1 X110.1888 Y135.4584 Z-2.0000
G1 X110.7986 Y143.9769 Z-2.0000
G1 X111.2163 Y152.5136 Z-2.0000
G1 X111.3824 Y157.9438 Z-2.0000
G1 X111.4720 Y163.3822 Z-2.0000
G1 X111.4853 Y168.8217 Z-2.0000
G1 X111.4230 Y174.2528 Z-2.0000
G1 X111.1206 Y184.0673 Z-2.0000
G1 X110.5772 Y193.8640 Z-2.0000
G1 X109.7960 Y203.6457 Z-2.0000
G1 X108.7786 Y213.4243 Z-2.0000
G2 X166.9331 Y250.0374 I37.8479 J4.3757
G2 X184.4742 Y213.4223 I-20.3066 J-32.2374
G1 X183.5609 Y204.7595 Z-2.0000
G1 X182.8325 Y196.0897 Z-2.0000
G1 X182.4704 Y190.6422 Z-2.0000
G1 X182.1821 Y185.1846 Z-2.0000
G1 X181.9684 Y179.7238 Z-2.0000
G1 X181.8301 Y174.2609 Z-2.0000
G1 X181.7677 Y168.8216 Z-2.0000
G1 X181.7810 Y163.3822 Z-2.0000
G1 X181.8705 Y157.9438 Z-2.0000
G1 X182.0367 Y152.5137 Z-2.0000
G1 X182.4544 Y143.9770 Z-2.0000
G1 X183.0642 Y135.4584 Z-2.0000
G1 X183.3218 Y132.7296 Z-2.0000
G1 X183.3218 Y132.7296 Z0.0000
G1 X183.8565 Y127.0658 Z0.0000
G1 X184.3513 Y122.8520 Z0.0000
G1 X184.3513 Y122.8520 Z-2.0000
G1 X184.8396 Y118.6939 Z-2.0000
G1 X186.0056 Y110.4082 Z-2.0000
G1 X187.3624 Y102.1521 Z-2.0000
G1 X188.9010 Y93.9804 Z-2.0000
G1 X190.6300 Y85.8473 Z-2.0000
G1 X192.5404 Y77.7972 Z-2.0000
G1 X194.6454 Y69.7777 Z-2.0000
G2 X146.6265 Y6.7783 I-48.0189 J-13.1994
G1 X146.6265 Y6.7783 Z-4.0000
G3 X186.2385 Y26.3968 I0.0016 J49.7968
G3 X194.6454 Y69.7777 I-39.6120 J30.1815
G1 X192.5404 Y77.7972 Z-4.0000
G1 X190.6300 Y85.8473 Z-4.0000
G1 X188.9010 Y93.9804 Z-4.0000
G1 X187.3624 Y102.1521 Z-4.0000
G1 X186.0056 Y110.4082 Z-4.0000
G1 X184.8396 Y118.6939 Z-4.0000
G1 X184.3513 Y122.8520 Z-4.0000
G1 X184.3513 Y122.8520 Z0.0000
G1 X183.8565 Y127.0658 Z0.0000
G1 X183.3218 Y132.7296 Z0.0000
G1 X183.3218 Y132.7296 Z-4.0000
G1 X183.0642 Y135.4584 Z-4.0000
G1 X182.4544 Y143.9770 Z-4.0000
G1 X182.0367 Y152.5137 Z-4.0000
G1 X181.8705 Y157.9438 Z-4.0000
G1 X181.7810 Y163.3822 Z-4.0000
G1 X181.7677 Y168.8216 Z-4.0000
G1 X181.8301 Y174.2609 Z-4.0000
G1 X181.9684 Y179.7238 Z-4.0000
G1 X182.1821 Y185.1846 Z-4.0000
G1 X182.4704 Y190.6422 Z-4.0000
G1 X182.8325 Y196.0897 Z-4.0000
G1 X183.5609 Y204.7595 Z-4.0000
G1 X184.4742 Y213.4223 Z-4.0000
G3 X166.9331 Y250.0374 I-37.8477 J4.3777
G3 X126.3198 Y250.0374 I-20.3066 J-32.2374
G3 X108.7786 Y213.4243 I20.3067 J-32.2374
G1 X109.7960 Y203.6457 Z-4.0000
G1 X110.5772 Y193.8640 Z-4.0000
G1 X111.1206 Y184.0673 Z-4.0000
G1 X111.4230 Y174.2528 Z-4.0000
G1 X111.4853 Y168.8217 Z-4.0000
G1 X111.4720 Y163.3822 Z-4.0000
G1 X111.3824 Y157.9438 Z-4.0000
G1 X111.2163 Y152.5136 Z-4.0000
G1 X110.7986 Y143.9769 Z-4.0000
G1 X110.1888 Y135.4584 Z-4.0000
G1 X109.9319 Y132.7374 Z-4.0000
G1 X109.9319 Y132.7374 Z0.0000
G1 X109.3965 Y127.0658 Z0.0000
G1 X108.9026 Y122.8598 Z0.0000
G1 X108.9026 Y122.8598 Z-4.0000
G1 X108.4134 Y118.6939 Z-4.0000
G1 X107.2474 Y110.4082 Z-4.0000
G1 X105.8906 Y102.1521 Z-4.0000
G1 X104.3559 Y94.0001 Z-4.0000
G1 X102.6318 Y85.8866 Z-4.0000
G1 X100.7174 Y77.8167 Z-4.0000
G3 X97.7953 Y66.4092 I154.2309 J-45.5856
G3 X107.0144 Y26.3968 I48.8921 J-9.8032
G3 X146.6265 Y6.7783 I39.5571 J30.0706
G0 Z10.0000
G0 X146.6265 Y6.7783
G0 Z10.0000
G0 X318.1730 Y7.9783
G1 X318.1730 Y7.9783 Z-2.0000 F3000.
G2 X274.8902 Y63.3900 I0.0082 J44.6167 F6000.
G1 X277.3107 Y72.5636 Z-2.0000
G1 X279.2551 Y80.7614 Z-2.0000
G1 X281.0061 Y89.0034 Z-2.0000
G1 X282.5648 Y97.2866 Z-2.0000
G1 X283.7781 Y104.6081 Z-2.0000
G1 X284.8444 Y111.9604 Z-2.0000
G1 X285.4538 Y116.7127 Z-2.0000
G1 X285.6998 Y118.8487 Z-2.0000
G1 X285.6998 Y118.8487 Z0.0000
G1 X286.0026 Y121.4780 Z0.0000
G1 X286.4905 Y126.2502 Z0.0000
G1 X286.7113 Y128.7200 Z0.0000
G1 X286.7113 Y128.7200 Z-2.0000
G1 X286.9176 Y131.0274 Z-2.0000
G1 X287.3202 Y136.3266 Z-2.0000
G1 X287.6491 Y141.6301 Z-2.0000
G1 X287.9047 Y146.9379 Z-2.0000
G1 X288.0871 Y152.2424 Z-2.0000
G1 X288.2305 Y161.0310 Z-2.0000
G1 X288.1781 Y169.8144 Z-2.0000
G1 X287.9248 Y178.7784 Z-2.0000
G1 X287.4719 Y187.7412 Z-2.0000
G1 X287.0905 Y193.3119 Z-2.0000
G1 X286.6329 Y198.8834 Z-2.0000
G1 X286.1000 Y204.4485 Z-2.0000
G2 X285.2867 Y214.7484 I57.4258 J9.7166
G2 X335.7081 Y241.6375 I32.8863 J-0.9484
G2 X350.9612 Y210.9340 I-17.5700 J-27.8691
G1 X350.0878 Y202.8759 Z-2.0000
G1 X349.4450 Y195.7339 Z-2.0000
G1 X348.9267 Y188.5822 Z-2.0000
G1 X348.5342 Y181.4251 Z-2.0000
G1 X348.2386 Y173.1471 Z-2.0000
G1 X348.1144 Y164.8675 Z-2.0000
G1 X348.1633 Y156.5878 Z-2.0000
G1 X348.3871 Y148.3124 Z-2.0000
G1 X348.8061 Y139.7331 Z-2.0000
G1 X349.4170 Y131.1666 Z-2.0000
G1 X349.6466 Y128.7270 Z-2.0000
G1 X349.6466 Y128.7270 Z0.0000
G1 X350.2215 Y122.6170 Z0.0000
G1 X350.6632 Y118.8484 Z0.0000
G1 X350.6632 Y118.8484 Z-2.0000
G1 X351.2216 Y114.0843 Z-2.0000
G1 X352.0922 Y107.7600 Z-2.0000
G1 X353.0729 Y101.4476 Z-2.0000
G1 X354.1546 Y95.2027 Z-2.0000
G1 X355.3449 Y88.9778 Z-2.0000
G1 X356.6390 Y82.7989 Z-2.0000
G1 X358.0417 Y76.6440 Z-2.0000
G1 X359.5532 Y70.5154 Z-2.0000
G1 X361.1772 Y64.4019 Z-2.0000
G2 X353.6488 Y25.5483 I-43.0042 J-11.8236
G2 X318.1730 Y7.9783 I-35.4758 J27.0300
G1 X318.1730 Y7.9783 Z-4.0000
G3 X353.6488 Y25.5483 I0.0016 J44.5967
G3 X361.1772 Y64.4019 I-35.4758 J27.0300
G1 X359.5532 Y70.5154 Z-4.0000
G1 X358.0417 Y76.6440 Z-4.0000
G1 X356.6390 Y82.7989 Z-4.0000
G1 X355.3449 Y88.9778 Z-4.0000
G1 X354.1546 Y95.2027 Z-4.0000
G1 X353.0729 Y101.4476 Z-4.0000
G1 X352.0922 Y107.7600 Z-4.0000
G1 X351.2216 Y114.0843 Z-4.0000
G1 X350.6632 Y118.8484 Z-4.0000
G1 X350.6632 Y118.8484 Z0.0000
G1 X350.2215 Y122.6170 Z0.0000
G1 X349.6466 Y128.7270 Z0.0000
G1 X349.6466 Y128.7270 Z-4.0000
G1 X349.4170 Y131.1666 Z-4.0000
G1 X348.8061 Y139.7331 Z-4.0000
G1 X348.3871 Y148.3124 Z-4.0000
G1 X348.1633 Y156.5878 Z-4.0000
G1 X348.1144 Y164.8675 Z-4.0000
G1 X348.2386 Y173.1471 Z-4.0000
G1 X348.5342 Y181.4251 Z-4.0000
G1 X348.9267 Y188.5822 Z-4.0000
G1 X349.4450 Y195.7339 Z-4.0000
G1 X350.0878 Y202.8759 Z-4.0000
G3 X351.0700 Y212.8284 I-97.7065 J14.6671
G3 X335.7081 Y241.6375 I-32.9319 J0.9400
G3 X300.6379 Y241.6375 I-17.5351 J-27.8375
G3 X285.4913 Y210.0162 I17.5351 J-27.8375
G1 X286.1000 Y204.4485 Z-4.0000
G1 X286.6329 Y198.8834 Z-4.0000
G1 X287.0905 Y193.3119 Z-4.0000
G1 X287.4719 Y187.7412 Z-4.0000
G1 X287.9248 Y178.7784 Z-4.0000
G1 X288.1781 Y169.8144 Z-4.0000
G1 X288.2305 Y161.0310 Z-4.0000
G1 X288.0871 Y152.2424 Z-4.0000
G1 X287.9047 Y146.9379 Z-4.0000
G1 X287.6491 Y141.6301 Z-4.0000
G1 X287.3202 Y136.3266 Z-4.0000
G1 X286.9176 Y131.0274 Z-4.0000
G1 X286.7113 Y128.7200 Z-4.0000
G1 X286.7113 Y128.7200 Z0.0000
G1 X286.4905 Y126.2502 Z0.0000
G1 X286.0026 Y121.4780 Z0.0000
G1 X285.6998 Y118.8487 Z0.0000
G1 X285.6998 Y118.8487 Z-4.0000
G1 X285.4538 Y116.7127 Z-4.0000
G1 X284.8444 Y111.9604 Z-4.0000
G1 X283.7781 Y104.6081 Z-4.0000
G1 X282.5648 Y97.2866 Z-4.0000
G1 X281.0061 Y89.0034 Z-4.0000
G1 X279.2551 Y80.7614 Z-4.0000
G1 X277.3107 Y72.5636 Z-4.0000
G3 X274.4080 Y61.2234 I144.0277 J-42.9076
G3 X282.6971 Y25.5483 I43.8250 J-8.6178
G3 X318.1730 Y7.9783 I35.4219 J26.9210
G0 Z10.0000
G0 X318.1730 Y7.9783
G0 Z10.0000
G0 X229.8217 Y291.8713
G1 X229.8217 Y291.8713 Z-2.0000 F3000.
G2 X180.9147 Y253.6228 I-39.4162 J0.0080 F6000.
G1 X172.7339 Y255.7933 Z-2.0000
G1 X165.4642 Y257.5518 Z-2.0000
G1 X158.1592 Y259.1598 Z-2.0000
G1 X150.8228 Y260.6179 Z-2.0000
G1 X143.1585 Y261.9764 Z-2.0000
G1 X135.4688 Y263.1736 Z-2.0000
G1 X127.0459 Y264.2980 Z-2.0000
G1 X124.1657 Y264.6168 Z-2.0000
G1 X124.1657 Y264.6168 Z0.0000
G1 X118.6005 Y265.2327 Z0.0000
G1 X114.2832 Y265.6136 Z0.0000
G1 X114.2832 Y265.6136 Z-2.0000
G1 X110.1356 Y265.9794 Z-2.0000
G1 X101.6553 Y266.5395 Z-2.0000
G1 X93.3870 Y266.9070 Z-2.0000
G1 X85.1117 Y267.1006 Z-2.0000
G1 X76.8335 Y267.1220 Z-2.0000
G1 X68.5558 Y266.9728 Z-2.0000
G1 X60.3346 Y266.6573 Z-2.0000
G1 X52.1237 Y266.1772 Z-2.0000
G1 X42.2470 Y265.3829 Z-2.0000
G1 X32.3767 Y264.3541 Z-2.0000
G2 X5.7623 Y277.1077 I-3.1767 J27.5172
G2 X31.5826 Y319.4808 I23.4506 J14.7636
G1 X41.8726 Y318.3945 Z-2.0000
G1 X51.3783 Y317.6170 Z-2.0000
G1 X56.5483 Y317.2862 Z-2.0000
G1 X61.7296 Y317.0200 Z-2.0000
G1 X66.9136 Y316.8195 Z-2.0000
G1 X72.0990 Y316.6851 Z-2.0000
G1 X77.5838 Y316.6155 Z-2.0000
G1 X83.0682 Y316.6207 Z-2.0000
G1 X88.5517 Y316.7014 Z-2.0000
G1 X94.0330 Y316.8579 Z-2.0000
G1 X99.6824 Y317.0994 Z-2.0000
G1 X105.3271 Y317.4226 Z-2.0000
G1 X110.9661 Y317.8280 Z-2.0000
G1 X114.2973 Y318.1167 Z-2.0000
G1 X114.2973 Y318.1167 Z0.0000
G1 X116.5995 Y318.3162 Z0.0000
G1 X121.6551 Y318.8258 Z0.0000
G1 X124.1645 Y319.1127 Z0.0000
G1 X124.1645 Y319.1127 Z-2.0000
G1 X126.7044 Y319.4030 Z-2.0000
G1 X131.7451 Y320.0480 Z-2.0000
G1 X136.7714 Y320.7602 Z-2.0000
G1 X144.3432 Y321.9654 Z-2.0000
G1 X151.8839 Y323.3260 Z-2.0000
G1 X158.9515 Y324.7496 Z-2.0000
G1 X165.9900 Y326.3127 Z-2.0000
G1 X172.9956 Y328.0155 Z-2.0000
G1 X179.9797 Y329.8625 Z-2.0000
G2 X214.3002 Y323.2110 I10.4420 J-37.9912
G2 X229.8217 Y291.8713 I-23.8785 J-31.3397
G1 X229.8217 Y291.8713 Z-4.0000
G3 X179.9797 Y329.8625 I-39.4000 J0.0000
G1 X172.9956 Y328.0155 Z-4.0000
G1 X165.9900 Y326.3127 Z-4.0000
G1 X158.9515 Y324.7496 Z-4.0000
G1 X151.8839 Y323.3260 Z-4.0000
G1 X144.3432 Y321.9654 Z-4.0000
G1 X136.7714 Y320.7602 Z-4.0000
G1 X131.7451 Y320.0480 Z-4.0000
G1 X126.7044 Y319.4030 Z-4.0000
G1 X124.1645 Y319.1127 Z-4.0000
G1 X124.1645 Y319.1127 Z0.0000
G1 X121.6551 Y318.8258 Z0.0000
G1 X116.5995 Y318.3162 Z0.0000
G1 X114.2973 Y318.1167 Z0.0000
G1 X114.2973 Y318.1167 Z-4.0000
G1 X110.9661 Y317.8280 Z-4.0000
G1 X105.3271 Y317.4226 Z-4.0000
G1 X99.6824 Y317.0994 Z-4.0000
G1 X94.0330 Y316.8579 Z-4.0000
G1 X88.5517 Y316.7014 Z-4.0000
G1 X83.0682 Y316.6207 Z-4.0000
G1 X77.5838 Y316.6155 Z-4.0000
G1 X72.0990 Y316.6851 Z-4.0000
G1 X66.9136 Y316.8195 Z-4.0000
G1 X61.7296 Y317.0200 Z-4.0000
G1 X56.5483 Y317.2862 Z-4.0000
G1 X51.3783 Y317.6170 Z-4.0000
G1 X41.8726 Y318.3945 Z-4.0000
G1 X31.5826 Y319.4808 Z-4.0000
G3 X5.7623 Y306.6349 I-2.3539 J-27.6413
G3 X32.3767 Y264.3541 I23.4377 J-14.7636
G1 X42.2470 Y265.3829 Z-4.0000
G1 X52.1237 Y266.1772 Z-4.0000
G1 X60.3346 Y266.6573 Z-4.0000
G1 X68.5558 Y266.9728 Z-4.0000
G1 X76.8335 Y267.1220 Z-4.0000
G1 X85.1117 Y267.1006 Z-4.0000
G1 X93.3870 Y266.9070 Z-4.0000
G1 X101.6553 Y266.5395 Z-4.0000
G1 X110.1356 Y265.9794 Z-4.0000
G1 X114.2832 Y265.6136 Z-4.0000
G1 X114.2832 Y265.6136 Z0.0000
G1 X118.6005 Y265.2327 Z0.0000
G1 X124.1657 Y264.6168 Z0.0000
G1 X124.1657 Y264.6168 Z-4.0000
G1 X127.0459 Y264.2980 Z-4.0000
G1 X135.4688 Y263.1736 Z-4.0000
G1 X143.1585 Y261.9764 Z-4.0000
G1 X150.8228 Y260.6179 Z-4.0000
G1 X158.1592 Y259.1598 Z-4.0000
G1 X165.4642 Y257.5518 Z-4.0000
G1 X172.7339 Y255.7933 Z-4.0000
G3 X182.9399 Y253.1778 I35.4916 J117.2674
G3 X229.8217 Y291.8713 I7.4693 J38.6982
G0 Z10.0000
G0 X229.8217 Y291.8713
M9
M5
M30
(--THE END - THANK YOU FOR USING THIS AWESOME POSTPROCESSOR---)
