(1-screws-6o.nc)
(----------------------------------------------------------------)
( Generated for RhinoCam to export for CNC-STEP models Raptor X-SL3000s20 / T-Rex1215 )
( Postprocessor written at FabLab BCN/IaaC by eduardo.chamorro@iaac.net )
( Last edit : 22 January - 2019 )
(----------------------------------------------------------------)
(Stock Size X = 380.0000, Y =  380.0000, Z = 4.0000)
(Home Origin X =  0, Y = 0, Z = 0)
(Units = MM, Spindle Speed = 18000)
(Max cut depth = Z-4.0000)
(Tool dia= 6.0 mm, Tool length= 35.0 mm)(WARNING!-CHECK YOUR TOOL)
(-------------------------------------------------------------)
%
G90
G64
M7
M8
T1
S18000
M3
G0 Z10.0000
G0 X5.8443 Y374.3552
G1 X5.8443 Y374.3552 Z0.0000 F3000.
G0 Z10.0000
G0 X5.8443 Y374.3552
G0 Z10.0000
G0 X374.6423 Y375.2791
G1 X374.6423 Y375.2791 Z0.0000 F3000.
G0 Z10.0000
G0 X374.6423 Y375.2791
G0 Z10.0000
G0 X372.1502 Y148.3944
G1 X372.1502 Y148.3944 Z0.0000 F3000.
G0 Z10.0000
G0 X372.1502 Y148.3944
G0 Z10.0000
G0 X123.1445 Y134.2193
G1 X123.1445 Y134.2193 Z0.0000 F3000.
G0 Z10.0000
G0 X123.1445 Y134.2193
G0 Z10.0000
G0 X366.1619 Y10.8569
G1 X366.1619 Y10.8569 Z0.0000 F3000.
G0 Z10.0000
G0 X366.1619 Y10.8569
G0 Z10.0000
G0 X6.7600 Y5.9012
G1 X6.7600 Y5.9012 Z0.0000 F3000.
G0 Z10.0000
G0 X6.7600 Y5.9012
M9
M5
M30
(--THE END - THANK YOU FOR USING THIS AWESOME POSTPROCESSOR---)
