(2-rest-6o.nc)
(----------------------------------------------------------------)
( Generated for RhinoCam to export for CNC-STEP models Raptor X-SL3000s20 / T-Rex1215 )
( Postprocessor written at FabLab BCN/IaaC by eduardo.chamorro@iaac.net )
( Last edit : 22 January - 2019 )
(----------------------------------------------------------------)
(Stock Size X = 380.0000, Y =  380.0000, Z = 4.0000)
(Home Origin X =  0, Y = 0, Z = 0)
(Units = MM, Spindle Speed = 18000)
(Max cut depth = Z-4.0000)
(Tool dia= 6.0 mm, Tool length= 35.0 mm)(WARNING!-CHECK YOUR TOOL)
(-------------------------------------------------------------)
%
G90
G64
M7
M8
T1
S18000
M3
G0 Z10.0000
G0 X40.6744 Y190.5335
G1 X40.6744 Y190.5335 Z0.9500 F3000.
G1 X40.6744 Y190.5335 Z0.3500
G1 X40.6318 Y191.0521 Z0.2583
G1 X40.3933 Y188.1795 Z-0.2500
G1 X40.1548 Y185.3070 Z-0.2500 F6000.
G1 X39.2025 Y176.2330 Z-0.2500
G3 X41.8299 Y174.6290 I1.4044 J-0.6534
G3 X42.0603 Y176.2349 I-1.5675 J1.0444
G1 X41.0706 Y185.7085 Z-0.2500
G1 X40.6318 Y191.0521 Z-0.2500
G1 X40.3933 Y188.1795 Z-0.2500
G1 X41.4503 Y188.0922 Z0.8107 F3000.
G1 X41.4503 Y188.0922 Z1.4107
G0 Z10.0000
G0 X41.4503 Y188.0922
G0 Z10.0000
G0 X39.7062 Y301.7939
G1 X39.7062 Y301.7939 Z0.9500 F3000.
G1 X39.7062 Y301.7939 Z0.3500
G1 X39.1857 Y304.6827 Z-0.1676
G1 X39.0915 Y305.1405 Z-0.2500
G1 X38.9974 Y305.5983 Z-0.2500 F6000.
G1 X41.8538 Y305.5855 Z-0.2500
G1 X42.2604 Y305.6025 Z-0.2500
G1 X42.1885 Y305.2565 Z-0.2500
G1 X40.6291 Y296.6717 Z-0.2500
G1 X39.1857 Y304.6827 Z-0.2500
G1 X39.0915 Y305.1405 Z-0.2500
G1 X37.6227 Y304.8375 Z-0.2500
G1 X37.7095 Y304.4167 Z-0.2500
G1 X39.4874 Y294.5492 Z-0.2500
G1 X40.6298 Y287.1539 Z-0.2500
G1 X41.8649 Y295.0814 Z-0.2500
G1 X43.6572 Y304.9515 Z-0.2500
G1 X44.1304 Y307.2301 Z-0.2500
G2 X37.1223 Y307.2637 I-3.3389 J34.5152
G1 X37.6227 Y304.8375 Z-0.2500
G1 X36.1541 Y304.5344 Z-0.2500
G1 X35.2152 Y309.0821 Z-0.2500
G3 X46.0439 Y309.0670 I5.4530 J27.7552
G1 X45.1259 Y304.6465 Z-0.2500
G1 X43.3408 Y294.8135 Z-0.2500
G1 X41.8036 Y284.9433 Z-0.2500
G1 X40.6293 Y275.9392 Z-0.2500
G1 X39.5291 Y284.4535 Z-0.2500
G1 X38.0050 Y294.3202 Z-0.2500
G1 X36.2333 Y304.1507 Z-0.2500
G1 X36.1541 Y304.5344 Z-0.2500
G1 X34.6855 Y304.2311 Z-0.2500
G1 X34.7571 Y303.8846 Z-0.2500
G1 X36.5226 Y294.0912 Z-0.2500
G1 X38.0415 Y284.2612 Z-0.2500
G1 X39.3156 Y274.4013 Z-0.2500
G1 X40.3469 Y264.5178 Z-0.2500
G1 X40.6321 Y260.9491 Z-0.2500
G1 X40.9572 Y264.9619 Z-0.2500
G1 X41.9999 Y274.8491 Z-0.2500
G1 X43.2857 Y284.7125 Z-0.2500
G1 X44.8167 Y294.5456 Z-0.2500
G1 X46.5945 Y304.3414 Z-0.2500
G1 X47.9965 Y311.0920 Z-0.2500
G2 X33.2692 Y311.0885 I-7.3699 J25.6282
G1 X34.6855 Y304.2311 Z-0.2500
G1 X33.2170 Y303.9276 Z-0.2500
G1 X31.2688 Y313.3569 Z-0.2500
G3 X39.2899 Y311.5889 I9.3822 J23.4864
G3 X49.9988 Y313.3566 I1.4152 J24.7487
G1 X48.0632 Y304.0364 Z-0.2500
G1 X46.2926 Y294.2778 Z-0.2500
G1 X44.7679 Y284.4818 Z-0.2500
G1 X43.4873 Y274.6553 Z-0.2500
G1 X42.4489 Y264.8046 Z-0.2500
G1 X41.6505 Y254.9360 Z-0.2500
G1 X41.0896 Y245.0553 Z-0.2500
G1 X40.7639 Y235.1684 Z-0.2500
G1 X40.6707 Y225.2809 Z-0.2500
G1 X40.8073 Y215.3983 Z-0.2500
G1 X41.1706 Y205.5258 Z-0.2500
G1 X41.7577 Y195.6686 Z-0.2500
G1 X42.5656 Y185.8312 Z-0.2500
G1 X43.5554 Y176.3599 Z-0.2500
G2 X40.6325 Y172.5117 I-2.9238 J-0.8134
G2 X37.7075 Y176.3583 I-0.0009 J3.0348
G1 X38.6629 Y185.4635 Z-0.2500
G1 X39.4785 Y195.2930 Z-0.2500
G1 X40.0739 Y205.1453 Z-0.2500
G1 X40.4458 Y215.0130 Z-0.2500
G1 X40.5911 Y224.8909 Z-0.2500
G1 X40.5072 Y234.7738 Z-0.2500
G1 X40.1910 Y244.6565 Z-0.2500
G1 X39.6400 Y254.5333 Z-0.2500
G1 X38.8517 Y264.3983 Z-0.2500
G1 X37.8237 Y274.2455 Z-0.2500
G1 X36.5539 Y284.0689 Z-0.2500
G1 X35.0402 Y293.8620 Z-0.2500
G1 X33.2809 Y303.6184 Z-0.2500
G1 X33.2170 Y303.9276 Z-0.2500
G1 X31.7485 Y303.6242 Z-0.2500
G1 X31.8047 Y303.3521 Z-0.2500
G1 X33.5578 Y293.6328 Z-0.2500
G1 X35.0663 Y283.8766 Z-0.2500
G1 X36.3318 Y274.0897 Z-0.2500
G1 X37.3564 Y264.2788 Z-0.2500
G1 X38.1423 Y254.4496 Z-0.2500
G1 X38.6918 Y244.6085 Z-0.2500
G1 X39.0072 Y234.7610 Z-0.2500
G1 X39.0913 Y224.9129 Z-0.2500
G1 X38.9468 Y215.0694 Z-0.2500
G1 X38.5766 Y205.2358 Z-0.2500
G1 X37.9836 Y195.4169 Z-0.2500
G1 X37.1711 Y185.6201 Z-0.2500
G1 X36.2124 Y176.4837 Z-0.2500
G3 X40.6322 Y171.0096 I4.4192 J-0.9533
G3 X45.0505 Y176.4850 I-0.0006 J4.5208
G1 X44.0605 Y185.9541 Z-0.2500
G1 X43.2551 Y195.7578 Z-0.2500
G1 X42.6696 Y205.5811 Z-0.2500
G1 X42.3071 Y215.4191 Z-0.2500
G1 X42.1707 Y225.2668 Z-0.2500
G1 X42.2631 Y235.1191 Z-0.2500
G1 X42.5872 Y244.9704 Z-0.2500
G1 X43.1456 Y254.8151 Z-0.2500
G1 X43.9407 Y264.6474 Z-0.2500
G1 X44.9748 Y274.4615 Z-0.2500
G1 X46.2500 Y284.2512 Z-0.2500
G1 X47.7685 Y294.0101 Z-0.2500
G1 X49.5318 Y303.7314 Z-0.2500
G1 X51.5415 Y313.4084 Z-0.2500
G1 X52.1606 Y316.0495 Z-0.2500
G2 X41.8716 Y313.0855 I-11.5117 J20.6199
G1 X39.3702 Y313.0868 Z-0.2500
G2 X29.1000 Y316.0513 I1.2686 J23.6666
G1 X29.8054 Y313.0276 Z-0.2500
G1 X31.7485 Y303.6242 Z-0.2500
G1 X30.2800 Y303.3207 Z-0.2500
G1 X28.3365 Y312.7240 Z-0.2500
G1 X26.7606 Y319.4741 Z-0.2500
G3 X40.6207 Y314.5862 I13.8712 J17.2383
G3 X54.5042 Y319.4754 I0.0123 J22.1213
G1 X53.0020 Y313.0661 Z-0.2500
G1 X51.0005 Y303.4265 Z-0.2500
G1 X49.2444 Y293.7425 Z-0.2500
G1 X47.7322 Y284.0207 Z-0.2500
G1 X46.4622 Y274.2678 Z-0.2500
G1 X45.4324 Y264.4903 Z-0.2500
G1 X44.6407 Y254.6942 Z-0.2500
G1 X44.0848 Y244.8855 Z-0.2500
G1 X43.7623 Y235.0698 Z-0.2500
G1 X43.6706 Y225.2528 Z-0.2500
G1 X43.8070 Y215.4399 Z-0.2500
G1 X44.1686 Y205.6363 Z-0.2500
G1 X44.7524 Y195.8471 Z-0.2500
G1 X45.5555 Y186.0769 Z-0.2500
G1 X46.5456 Y176.6101 Z-0.2500
G2 X40.6321 Y169.5075 I-5.9141 J-1.0891
G2 X34.7173 Y176.6090 I-0.0006 J6.0135
G1 X35.6793 Y185.7766 Z-0.2500
G1 X36.4888 Y195.5409 Z-0.2500
G1 X37.0793 Y205.3261 Z-0.2500
G1 X37.4479 Y215.1258 Z-0.2500
G1 X37.5915 Y224.9348 Z-0.2500
G1 X37.5073 Y234.7482 Z-0.2500
G1 X37.1925 Y244.5604 Z-0.2500
G1 X36.6447 Y254.3660 Z-0.2500
G1 X35.8612 Y264.1591 Z-0.2500
G1 X34.8399 Y273.9339 Z-0.2500
G1 X33.5786 Y283.6841 Z-0.2500
G1 X32.0754 Y293.4036 Z-0.2500
G1 X30.3285 Y303.0858 Z-0.2500
G1 X30.2800 Y303.3207 Z-0.2500
G1 X28.8115 Y303.0171 Z-0.2500
G1 X28.8524 Y302.8193 Z-0.2500
G1 X30.5931 Y293.1743 Z-0.2500
G1 X32.0911 Y283.4916 Z-0.2500
G1 X33.3481 Y273.7779 Z-0.2500
G1 X34.3660 Y264.0395 Z-0.2500
G1 X35.1470 Y254.2822 Z-0.2500
G1 X35.6933 Y244.5123 Z-0.2500
G1 X36.0073 Y234.7352 Z-0.2500
G1 X36.0916 Y224.9567 Z-0.2500
G1 X35.9489 Y215.1821 Z-0.2500
G1 X35.5820 Y205.4164 Z-0.2500
G1 X34.9939 Y195.6647 Z-0.2500
G1 X34.1875 Y185.9332 Z-0.2500
G1 X33.2222 Y176.7344 Z-0.2500
G3 X40.6319 Y168.0054 I7.4093 J-1.2200
G3 X48.0407 Y176.7352 I-0.0004 J7.5090
G1 X47.0505 Y186.1999 Z-0.2500
G1 X46.2497 Y195.9365 Z-0.2500
G1 X45.6675 Y205.6917 Z-0.2500
G1 X45.3068 Y215.4608 Z-0.2500
G1 X45.1705 Y225.2389 Z-0.2500
G1 X45.2615 Y235.0206 Z-0.2500
G1 X45.5824 Y244.8007 Z-0.2500
G1 X46.1359 Y254.5735 Z-0.2500
G1 X46.9242 Y264.3333 Z-0.2500
G1 X47.9497 Y274.0742 Z-0.2500
G1 X49.2144 Y283.7902 Z-0.2500
G1 X50.7203 Y293.4749 Z-0.2500
G1 X52.4692 Y303.1216 Z-0.2500
G1 X54.4624 Y312.7238 Z-0.2500
G1 X56.7006 Y322.2731 Z-0.2500
G1 X57.2994 Y324.5639 Z-0.2500
G2 X23.9517 Y324.5802 I-16.6679 J12.1464
G1 X24.6374 Y321.9702 Z-0.2500
G1 X26.8675 Y312.4203 Z-0.2500
G1 X28.8115 Y303.0171 Z-0.2500
G1 X27.3430 Y302.7134 Z-0.2500
G1 X25.3986 Y312.1165 Z-0.2500
G1 X23.1767 Y321.6290 Z-0.2500
G1 X20.3243 Y332.4768 Z-0.2500
G2 X19.8196 Y338.4399 I18.3622 J4.5572
G2 X27.6052 Y352.8521 I21.6205 J-2.3707
G2 X32.8950 Y356.0655 I14.6845 J-18.2127
G2 X51.4741 Y354.3910 I7.5743 J-19.8686
G2 X57.0429 Y349.5638 I-11.3503 J-18.7198
G2 X60.5828 Y331.1933 I-17.2352 J-12.8475
G1 X58.1518 Y321.8938 Z-0.2500
G1 X55.9228 Y312.3815 Z-0.2500
G1 X53.9379 Y302.8168 Z-0.2500
G1 X52.1963 Y293.2074 Z-0.2500
G1 X50.6966 Y283.5598 Z-0.2500
G1 X49.4371 Y273.8807 Z-0.2500
G1 X48.4159 Y264.1763 Z-0.2500
G1 X47.6310 Y254.4528 Z-0.2500
G1 X47.0800 Y244.7159 Z-0.2500
G1 X46.7607 Y234.9715 Z-0.2500
G1 X46.6705 Y225.2250 Z-0.2500
G1 X46.8067 Y215.4818 Z-0.2500
G1 X47.1665 Y205.7471 Z-0.2500
G1 X47.7471 Y196.0259 Z-0.2500
G1 X48.5454 Y186.3229 Z-0.2500
G1 X49.5358 Y176.8603 Z-0.2500
G2 X40.6318 Y166.5033 I-8.9043 J-1.3508
G2 X31.7271 Y176.8597 I-0.0003 J9.0062
G1 X32.6957 Y186.0897 Z-0.2500
G1 X33.4990 Y195.7885 Z-0.2500
G1 X34.0848 Y205.5067 Z-0.2500
G1 X34.4500 Y215.2383 Z-0.2500
G1 X34.5918 Y224.9786 Z-0.2500
G1 X34.5074 Y234.7222 Z-0.2500
G1 X34.1941 Y244.4641 Z-0.2500
G1 X33.6494 Y254.1984 Z-0.2500
G1 X32.8708 Y263.9197 Z-0.2500
G1 X31.8562 Y273.6219 Z-0.2500
G1 X30.6035 Y283.2991 Z-0.2500
G1 X29.1107 Y292.9448 Z-0.2500
G1 X27.3763 Y302.5529 Z-0.2500
G1 X27.3430 Y302.7134 Z-0.2500
G1 X25.8746 Y302.4097 Z-0.2500
G1 X25.9001 Y302.2863 Z-0.2500
G1 X27.6284 Y292.7154 Z-0.2500
G1 X29.1159 Y283.1064 Z-0.2500
G1 X30.3643 Y273.4658 Z-0.2500
G1 X31.3756 Y263.7999 Z-0.2500
G1 X32.1517 Y254.1145 Z-0.2500
G1 X32.6949 Y244.4158 Z-0.2500
G1 X33.0074 Y234.7092 Z-0.2500
G1 X33.0919 Y225.0003 Z-0.2500
G1 X32.9510 Y215.2945 Z-0.2500
G1 X32.5875 Y205.5969 Z-0.2500
G1 X32.0041 Y195.9123 Z-0.2500
G1 X31.2039 Y186.2463 Z-0.2500
G1 X30.2320 Y176.9851 Z-0.2500
G3 X40.6317 Y165.0012 I10.3995 J-1.4797
G3 X51.0309 Y176.9855 I-0.0002 J10.5042
G1 X50.0403 Y186.4459 Z-0.2500
G1 X49.2444 Y196.1154 Z-0.2500
G1 X48.6655 Y205.8026 Z-0.2500
G1 X48.3065 Y215.5028 Z-0.2500
G1 X48.1704 Y225.2111 Z-0.2500
G1 X48.2599 Y234.9224 Z-0.2500
G1 X48.5776 Y244.6313 Z-0.2500
G1 X49.1261 Y254.3321 Z-0.2500
G1 X49.9077 Y264.0194 Z-0.2500
G1 X50.9246 Y273.6872 Z-0.2500
G1 X52.1788 Y283.3295 Z-0.2500
G1 X53.6723 Y292.9399 Z-0.2500
G1 X55.4066 Y302.5121 Z-0.2500
G1 X57.3833 Y312.0394 Z-0.2500
G1 X59.6031 Y321.5144 Z-0.2500
G1 X62.0316 Y330.8049 Z-0.2500
G3 X57.3445 Y351.5201 I-22.0243 J5.9045
G3 X52.2963 Y355.6466 I-17.6484 J-16.4393
G3 X32.3101 Y357.4476 I-11.8270 J-19.4497
G3 X26.6978 Y354.0477 I9.9803 J-22.8064
G3 X18.2663 Y337.2071 I14.5360 J-17.8087
G3 X18.8645 Y332.1301 I20.4559 J-0.1635
G1 X21.7160 Y321.2877 Z-0.2500
G1 X23.9297 Y311.8127 Z-0.2500
G1 X25.8746 Y302.4097 Z-0.2500
G1 X24.4062 Y302.1059 Z-0.2500
G1 X22.4608 Y311.5088 Z-0.2500
G1 X20.2554 Y320.9464 Z-0.2500
G1 X17.4046 Y331.7834 Z-0.2500
G2 X16.7929 Y335.8789 I22.1727 J5.4051
G2 X25.7930 Y355.2451 I24.2746 J0.4933
G2 X30.4182 Y358.2240 I19.3373 J-24.9445
G2 X53.1210 Y356.9004 I10.1176 J-21.8253
G2 X57.5175 Y353.4979 I-16.2987 J-25.6018
G2 X63.4798 Y330.4139 I-17.3443 J-16.7918
G1 X61.0543 Y321.1351 Z-0.2500
G1 X58.8437 Y311.6973 Z-0.2500
G1 X56.8754 Y302.2075 Z-0.2500
G1 X55.1482 Y292.6726 Z-0.2500
G1 X53.6610 Y283.0992 Z-0.2500
G1 X52.4121 Y273.4938 Z-0.2500
G1 X51.3995 Y263.8626 Z-0.2500
G1 X50.6213 Y254.2116 Z-0.2500
G1 X50.0752 Y244.5467 Z-0.2500
G1 X49.7591 Y234.8734 Z-0.2500
G1 X49.6703 Y225.1974 Z-0.2500
G1 X49.8064 Y215.5239 Z-0.2500
G1 X50.1645 Y205.8581 Z-0.2500
G1 X50.7417 Y196.2049 Z-0.2500
G1 X51.5353 Y186.5691 Z-0.2500
G1 X52.5260 Y177.1107 Z-0.2500
G2 X40.6316 Y163.4991 I-11.8945 J-1.6088
G2 X28.7370 Y177.1104 I-0.0001 J12.0028
G1 X29.7121 Y186.4028 Z-0.2500
G1 X30.5092 Y196.0360 Z-0.2500
G1 X31.0902 Y205.6870 Z-0.2500
G1 X31.4521 Y215.3507 Z-0.2500
G1 X31.5921 Y225.0221 Z-0.2500
G1 X31.5075 Y234.6961 Z-0.2500
G1 X31.1956 Y244.3674 Z-0.2500
G1 X30.6541 Y254.0306 Z-0.2500
G1 X29.8804 Y263.6800 Z-0.2500
G1 X28.8725 Y273.3097 Z-0.2500
G1 X27.6283 Y282.9137 Z-0.2500
G1 X26.1460 Y292.4858 Z-0.2500
G1 X24.4240 Y302.0197 Z-0.2500
G1 X24.4062 Y302.1059 Z-0.2500
G1 X22.9378 Y301.8020 Z-0.2500
G1 X22.9479 Y301.7530 Z-0.2500
G1 X24.6637 Y292.2562 Z-0.2500
G1 X26.1408 Y282.7209 Z-0.2500
G1 X27.3806 Y273.1535 Z-0.2500
G1 X28.3852 Y263.5601 Z-0.2500
G1 X29.1564 Y253.9466 Z-0.2500
G1 X29.6964 Y244.3190 Z-0.2500
G1 X30.0076 Y234.6829 Z-0.2500
G1 X30.0923 Y225.0437 Z-0.2500
G1 X29.9531 Y215.4067 Z-0.2500
G1 X29.5929 Y205.7771 Z-0.2500
G1 X29.0143 Y196.1596 Z-0.2500
G1 X28.2203 Y186.5594 Z-0.2500
G1 X27.2419 Y177.2358 Z-0.2500
G3 X40.6316 Y161.9970 I13.3896 J-1.7370
G3 X54.0211 Y177.2359 I-0.0001 J13.5018
G1 X53.0302 Y186.6922 Z-0.2500
G1 X52.2390 Y196.2945 Z-0.2500
G1 X51.6634 Y205.9137 Z-0.2500
G1 X51.3062 Y215.5451 Z-0.2500
G1 X51.1703 Y225.1837 Z-0.2500
G1 X51.2583 Y234.8245 Z-0.2500
G1 X51.5729 Y244.4621 Z-0.2500
G1 X52.1164 Y254.0911 Z-0.2500
G1 X52.8913 Y263.7058 Z-0.2500
G1 X53.8996 Y273.3004 Z-0.2500
G1 X55.1433 Y282.8690 Z-0.2500
G1 X56.6242 Y292.4053 Z-0.2500
G1 X58.3441 Y301.9029 Z-0.2500
G1 X60.3042 Y311.3553 Z-0.2500
G1 X62.5055 Y320.7557 Z-0.2500
G1 X64.9272 Y330.0202 Z-0.2500
G3 X57.4348 Y355.5952 I-24.5771 J6.6849
G1 X56.3141 Y356.4878 Z-0.2500
G1 X53.9480 Y358.1526 Z-0.2500
G3 X28.4747 Y358.8755 I-13.3595 J-21.5862
G1 X27.3154 Y358.1529 Z-0.2500
G1 X24.8906 Y356.4442 Z-0.2500
G3 X15.4281 Y334.2746 I15.9984 J-19.9327
G1 X15.6440 Y332.8543 Z-0.2500
G1 X15.9448 Y331.4367 Z-0.2500
G1 X18.7948 Y320.6050 Z-0.2500
G1 X20.9919 Y311.2048 Z-0.2500
G1 X22.9378 Y301.8020 Z-0.2500
G1 X21.4694 Y301.4981 Z-0.2500
G1 X19.5231 Y310.9008 Z-0.2500
G1 X17.3341 Y320.2635 Z-0.2500
G1 X14.4850 Y331.0900 Z-0.2500
G1 X14.1676 Y332.5857 Z-0.2500
G2 X23.9904 Y357.6449 I26.5726 J4.0387
G1 X26.4860 Y359.4034 Z-0.2500
G2 X54.7770 Y359.4034 I14.1455 J-22.6937
G1 X57.2138 Y357.6889 Z-0.2500
G2 X66.3740 Y329.6242 I-16.7131 J-20.9823
G1 X63.9568 Y320.3764 Z-0.2500
G1 X61.7647 Y311.0134 Z-0.2500
G1 X59.8129 Y301.5984 Z-0.2500
G1 X58.1002 Y292.1381 Z-0.2500
G1 X56.6255 Y282.6389 Z-0.2500
G1 X55.3871 Y273.1072 Z-0.2500
G1 X54.3831 Y263.5491 Z-0.2500
G1 X53.6116 Y253.9707 Z-0.2500
G1 X53.0705 Y244.3776 Z-0.2500
G1 X52.7575 Y234.7756 Z-0.2500
G1 X52.6702 Y225.1701 Z-0.2500
G1 X52.8061 Y215.5663 Z-0.2500
G1 X53.1624 Y205.9693 Z-0.2500
G1 X53.7364 Y196.3842 Z-0.2500
G1 X54.5251 Y186.8155 Z-0.2500
G1 X55.5161 Y177.3612 Z-0.2500
G2 X40.6315 Y160.4949 I-14.8846 J-1.8652
G2 X25.7468 Y177.3611 I0.0000 J15.0011
G1 X26.7285 Y186.7159 Z-0.2500
G1 X27.5194 Y196.2832 Z-0.2500
G1 X28.0956 Y205.8671 Z-0.2500
G1 X28.4542 Y215.4628 Z-0.2500
G1 X28.5924 Y225.0653 Z-0.2500
G1 X28.5076 Y234.6696 Z-0.2500
G1 X28.1972 Y244.2705 Z-0.2500
G1 X27.6588 Y253.8625 Z-0.2500
G1 X26.8900 Y263.4400 Z-0.2500
G1 X25.8888 Y272.9972 Z-0.2500
G1 X24.6532 Y282.5281 Z-0.2500
G1 X23.1814 Y292.0265 Z-0.2500
G1 X21.4718 Y301.4862 Z-0.2500
G1 X21.4694 Y301.4981 Z-0.2500
G1 X19.9957 Y301.2194 Z-0.2500
G1 X21.6991 Y291.7968 Z-0.2500
G1 X23.1657 Y282.3352 Z-0.2500
G1 X24.3970 Y272.8408 Z-0.2500
G1 X25.3948 Y263.3200 Z-0.2500
G1 X26.1611 Y253.7784 Z-0.2500
G1 X26.6980 Y244.2220 Z-0.2500
G1 X27.0077 Y234.6563 Z-0.2500
G1 X27.0926 Y225.0868 Z-0.2500
G1 X26.9552 Y215.5187 Z-0.2500
G1 X26.5983 Y205.9571 Z-0.2500
G1 X26.0245 Y196.4067 Z-0.2500
G1 X25.2367 Y186.8725 Z-0.2500
G1 X24.2517 Y177.4865 Z-0.2500
G3 X40.6315 Y158.9928 I16.3798 J-1.9931
G3 X57.0112 Y177.4865 I0.0000 J16.5006
G1 X56.0201 Y186.9388 Z-0.2500
G1 X55.2337 Y196.4739 Z-0.2500
G1 X54.6614 Y206.0251 Z-0.2500
G1 X54.3059 Y215.5876 Z-0.2500
G1 X54.1702 Y225.1565 Z-0.2500
G1 X54.2567 Y234.7268 Z-0.2500
G1 X54.5681 Y244.2932 Z-0.2500
G1 X55.1068 Y253.8503 Z-0.2500
G1 X55.8749 Y263.3925 Z-0.2500
G1 X56.8746 Y272.9140 Z-0.2500
G1 X58.1077 Y282.4088 Z-0.2500
G1 X59.5763 Y291.8710 Z-0.2500
G1 X61.2817 Y301.2940 Z-0.2500
G1 X63.2253 Y310.6715 Z-0.2500
G1 X65.4080 Y319.9971 Z-0.2500
G1 X67.8202 Y329.2261 Z-0.2500
G3 X56.8585 Y359.7730 I-27.1887 J7.4836
G3 X24.4044 Y359.7730 I-16.2270 J-23.0633
G3 X13.0252 Y330.7432 I16.3358 J-23.1486
G1 X15.8735 Y319.9219 Z-0.2500
G1 X18.0542 Y310.5967 Z-0.2500
G1 X19.9957 Y301.2194 Z-0.2500
G1 X21.0344 Y301.4345 Z0.8107 F3000.
G1 X21.0344 Y301.4345 Z1.4107
G0 Z10.0000
G0 X21.0344 Y301.4345
G0 Z10.0000
G0 X111.2468 Y158.7214
G1 X111.2468 Y158.7214 Z0.9500 F3000.
G1 X111.2468 Y158.7214 Z0.3500
G1 X111.1163 Y158.7043 Z0.3268
G1 X110.0306 Y158.6032 Z0.1345
G1 X108.9419 Y158.5424 Z-0.0577
G1 X107.8517 Y158.5222 Z-0.2500
G2 X92.3288 Y162.9639 I0.0000 J29.3454 F6000.
G1 X89.6547 Y164.8454 Z-0.2500
G2 X79.6025 Y195.6431 I18.3405 J23.0256
G1 X82.0038 Y204.8305 Z-0.2500
G1 X84.1815 Y214.1328 Z-0.2500
G1 X86.1204 Y223.4868 Z-0.2500
G1 X87.8216 Y232.8857 Z-0.2500
G1 X89.2863 Y242.3234 Z-0.2500
G1 X90.5162 Y251.7933 Z-0.2500
G1 X91.5132 Y261.2893 Z-0.2500
G1 X92.2792 Y270.8056 Z-0.2500
G1 X92.8162 Y280.3363 Z-0.2500
G1 X93.1267 Y289.8759 Z-0.2500
G1 X93.2130 Y299.4190 Z-0.2500
G1 X93.0776 Y308.9604 Z-0.2500
G1 X92.7232 Y318.4949 Z-0.2500
G1 X92.1527 Y328.0176 Z-0.2500
G1 X91.3689 Y337.5241 Z-0.2500
G1 X90.3844 Y346.9162 Z-0.2500
G2 X107.8517 Y366.6823 I17.4673 J2.1651
G2 X125.3191 Y346.9163 I0.0000 J-17.6010
G1 X124.3438 Y337.6236 Z-0.2500
G1 X123.5579 Y328.1186 Z-0.2500
G1 X122.9852 Y318.5971 Z-0.2500
G1 X122.6286 Y309.0639 Z-0.2500
G1 X122.4908 Y299.5238 Z-0.2500
G1 X122.5746 Y289.9819 Z-0.2500
G1 X122.8825 Y280.4434 Z-0.2500
G1 X123.4169 Y270.9137 Z-0.2500
G1 X124.1801 Y261.3984 Z-0.2500
G1 X125.1743 Y251.9033 Z-0.2500
G1 X126.4014 Y242.4342 Z-0.2500
G1 X127.8632 Y232.9973 Z-0.2500
G1 X129.5613 Y223.5990 Z-0.2500
G1 X131.4971 Y214.2455 Z-0.2500
G1 X133.6717 Y204.9434 Z-0.2500
G1 X136.0934 Y195.6714 Z-0.2500
G1 X136.5082 Y194.1638 Z-0.2500
G1 X136.8329 Y192.6721 Z-0.2500
G2 X125.9910 Y164.8070 I-29.0802 J-4.7270
G1 X123.3747 Y162.9639 Z-0.2500
G2 X107.8517 Y158.5222 I-15.5230 J24.9037
G1 X107.8517 Y157.0677 Z-0.2500
G3 X125.5749 Y162.6779 I0.0000 J30.7999
G3 X137.9652 Y194.5225 I-17.8222 J25.2672
G1 X137.5422 Y196.0599 Z-0.2500
G1 X135.1323 Y205.2850 Z-0.2500
G1 X132.9660 Y214.5495 Z-0.2500
G1 X131.0374 Y223.8657 Z-0.2500
G1 X129.3455 Y233.2270 Z-0.2500
G1 X127.8890 Y242.6270 Z-0.2500
G1 X126.6662 Y252.0595 Z-0.2500
G1 X125.6753 Y261.5184 Z-0.2500
G1 X124.9145 Y270.9977 Z-0.2500
G1 X124.3817 Y280.4918 Z-0.2500
G1 X124.0746 Y289.9951 Z-0.2500
G1 X123.9907 Y299.5022 Z-0.2500
G1 X124.1275 Y309.0078 Z-0.2500
G1 X124.4825 Y318.5071 Z-0.2500
G1 X125.0528 Y327.9950 Z-0.2500
G1 X125.8357 Y337.4671 Z-0.2500
G1 X126.8141 Y346.7909 Z-0.2500
G3 X107.8517 Y368.1844 I-18.9624 J2.2930
G3 X88.8893 Y346.7909 I0.0000 J-19.1005
G1 X89.8740 Y337.4008 Z-0.2500
G1 X90.6554 Y327.9279 Z-0.2500
G1 X91.2243 Y318.4391 Z-0.2500
G1 X91.5777 Y308.9390 Z-0.2500
G1 X91.7130 Y299.4325 Z-0.2500
G1 X91.6275 Y289.9246 Z-0.2500
G1 X91.3186 Y280.4206 Z-0.2500
G1 X90.7840 Y270.9258 Z-0.2500
G1 X90.0214 Y261.4458 Z-0.2500
G1 X89.0287 Y251.9864 Z-0.2500
G1 X87.8041 Y242.5533 Z-0.2500
G1 X86.3455 Y233.1528 Z-0.2500
G1 X84.6516 Y223.7911 Z-0.2500
G1 X82.7209 Y214.4746 Z-0.2500
G1 X80.5526 Y205.2098 Z-0.2500
G1 X78.1562 Y196.0411 Z-0.2500
G3 X90.1286 Y162.6779 I29.6955 J-8.1735
G3 X107.8517 Y157.0677 I17.7231 J25.1897
G1 X108.1718 Y158.0789 Z0.8107 F3000.
G1 X108.1718 Y158.0789 Z1.4107
G0 Z10.0000
G0 X108.1718 Y158.0789
G0 Z10.0000
G0 X151.6640 Y348.0256
G1 X151.6640 Y348.0256 Z0.9500 F3000.
G1 X151.6640 Y348.0256 Z0.3500
G1 X151.9779 Y349.1077 Z0.1513
G1 X152.3336 Y350.1887 Z-0.0493
G1 X152.7273 Y351.2564 Z-0.2500
G2 X162.7637 Y364.8164 I29.8928 J-11.6308 F6000.
G1 X165.4908 Y366.7376 Z-0.2500
G2 X199.5347 Y366.7376 I17.0219 J-27.0280
G1 X202.2030 Y364.8602 Z-0.2500
G2 X213.2688 Y331.2441 I-19.8205 J-25.1539
G1 X210.8832 Y322.1171 Z-0.2500
G1 X208.7200 Y312.8755 Z-0.2500
G1 X206.7940 Y303.5825 Z-0.2500
G1 X205.1043 Y294.2448 Z-0.2500
G1 X203.6495 Y284.8688 Z-0.2500
G1 X202.4281 Y275.4607 Z-0.2500
G1 X201.4382 Y266.0267 Z-0.2500
G1 X200.6778 Y256.5726 Z-0.2500
G1 X200.1447 Y247.1042 Z-0.2500
G1 X199.8368 Y237.6270 Z-0.2500
G1 X199.7515 Y228.1463 Z-0.2500
G1 X199.8864 Y218.6674 Z-0.2500
G1 X200.2388 Y209.1953 Z-0.2500
G1 X200.8058 Y199.7349 Z-0.2500
G1 X201.5846 Y190.2907 Z-0.2500
G1 X202.5627 Y180.9608 Z-0.2500
G2 X182.5128 Y158.2949 I-20.0500 J-2.4650
G2 X162.4627 Y180.9607 I-0.0001 J20.2009
G1 X163.4315 Y190.1913 Z-0.2500
G1 X164.2125 Y199.6340 Z-0.2500
G1 X164.7817 Y209.0932 Z-0.2500
G1 X165.1363 Y218.5639 Z-0.2500
G1 X165.2736 Y228.0416 Z-0.2500
G1 X165.1908 Y237.5210 Z-0.2500
G1 X164.8855 Y246.9971 Z-0.2500
G1 X164.3551 Y256.4645 Z-0.2500
G1 X163.5974 Y265.9176 Z-0.2500
G1 X162.6102 Y275.3507 Z-0.2500
G1 X161.3916 Y284.7580 Z-0.2500
G1 X159.9399 Y294.1332 Z-0.2500
G1 X158.2532 Y303.4702 Z-0.2500
G1 X156.3303 Y312.7628 Z-0.2500
G1 X154.1702 Y322.0040 Z-0.2500
G1 X151.7643 Y331.2158 Z-0.2500
G1 X151.3142 Y332.8516 Z-0.2500
G1 X150.9599 Y334.4792 Z-0.2500
G2 X152.7273 Y351.2564 I31.6602 J5.1464
G1 X151.3718 Y351.7839 Z-0.2500
G3 X149.8572 Y332.4928 I31.2483 J-12.1583
G1 X150.3155 Y330.8272 Z-0.2500
G1 X152.7096 Y321.6626 Z-0.2500
G1 X154.8615 Y312.4587 Z-0.2500
G1 X156.7771 Y303.2035 Z-0.2500
G1 X158.4575 Y293.9036 Z-0.2500
G1 X159.9041 Y284.5652 Z-0.2500
G1 X161.1184 Y275.1946 Z-0.2500
G1 X162.1022 Y265.7977 Z-0.2500
G1 X162.8574 Y256.3805 Z-0.2500
G1 X163.3862 Y246.9487 Z-0.2500
G1 X163.6909 Y237.5079 Z-0.2500
G1 X163.7737 Y228.0632 Z-0.2500
G1 X163.6374 Y218.6200 Z-0.2500
G1 X163.2844 Y209.1832 Z-0.2500
G1 X162.7176 Y199.7576 Z-0.2500
G1 X161.9397 Y190.3479 Z-0.2500
G1 X160.9676 Y181.0861 Z-0.2500
G3 X182.5127 Y156.7928 I21.5451 J-2.5928
G3 X204.0578 Y181.0861 I0.0000 J21.7005
G1 X203.0796 Y190.4141 Z-0.2500
G1 X202.3031 Y199.8247 Z-0.2500
G1 X201.7378 Y209.2512 Z-0.2500
G1 X201.3863 Y218.6888 Z-0.2500
G1 X201.2515 Y228.1329 Z-0.2500
G1 X201.3360 Y237.5783 Z-0.2500
G1 X201.6424 Y247.0200 Z-0.2500
G1 X202.1729 Y256.4524 Z-0.2500
G1 X202.9300 Y265.8702 Z-0.2500
G1 X203.9156 Y275.2677 Z-0.2500
G1 X205.1318 Y284.6389 Z-0.2500
G1 X206.5803 Y293.9778 Z-0.2500
G1 X208.2628 Y303.2781 Z-0.2500
G1 X210.1805 Y312.5337 Z-0.2500
G1 X212.3345 Y321.7378 Z-0.2500
G1 X214.7150 Y330.8461 Z-0.2500
G3 X201.7320 Y367.0257 I-32.2023 J8.8635
G3 X163.2934 Y367.0257 I-19.2193 J-27.3161
G3 X151.3718 Y351.7839 I19.3267 J-27.4001
G1 X152.2071 Y351.1303 Z0.8107 F3000.
G1 X152.2071 Y351.1303 Z1.4107
G0 Z10.0000
G0 X152.2071 Y351.1303
G0 Z10.0000
G0 X264.4604 Y153.4959
G1 X264.4604 Y153.4959 Z0.9500 F3000.
G1 X264.4604 Y153.4959 Z0.3500
G1 X263.6498 Y153.4197 Z0.2064
G1 X262.3575 Y153.3470 Z-0.0218
G1 X261.0635 Y153.3228 Z-0.2500
G2 X242.6542 Y158.6368 I0.0000 J34.5449 F6000.
G1 X239.7683 Y160.6672 Z-0.2500
G2 X227.8007 Y197.0231 I21.4360 J27.2040
G1 X230.1704 Y206.0898 Z-0.2500
G1 X232.3192 Y215.2707 Z-0.2500
G1 X234.2323 Y224.5027 Z-0.2500
G1 X235.9105 Y233.7790 Z-0.2500
G1 X237.3553 Y243.0934 Z-0.2500
G1 X238.5682 Y252.4397 Z-0.2500
G1 X239.5511 Y261.8117 Z-0.2500
G1 X240.3060 Y271.2036 Z-0.2500
G1 X240.8350 Y280.6097 Z-0.2500
G1 X241.1404 Y290.0246 Z-0.2500
G1 X241.2246 Y299.4428 Z-0.2500
G1 X241.0902 Y308.8592 Z-0.2500
G1 X240.7398 Y318.2689 Z-0.2500
G1 X240.1763 Y327.6669 Z-0.2500
G1 X239.4024 Y337.0488 Z-0.2500
G1 X238.4308 Y346.3166 Z-0.2500
G2 X261.0634 Y371.8823 I22.6327 J2.7648
G2 X283.6961 Y346.3167 I0.0001 J-22.8009
G1 X282.7338 Y337.1482 Z-0.2500
G1 X281.9578 Y327.7678 Z-0.2500
G1 X281.3921 Y318.3710 Z-0.2500
G1 X281.0395 Y308.9627 Z-0.2500
G1 X280.9027 Y299.5475 Z-0.2500
G1 X280.9844 Y290.1305 Z-0.2500
G1 X281.2872 Y280.7168 Z-0.2500
G1 X281.8136 Y271.3117 Z-0.2500
G1 X282.5658 Y261.9208 Z-0.2500
G1 X283.5459 Y252.5497 Z-0.2500
G1 X284.7559 Y243.2043 Z-0.2500
G1 X286.1977 Y233.8907 Z-0.2500
G1 X287.8729 Y224.6150 Z-0.2500
G1 X289.7828 Y215.3835 Z-0.2500
G1 X291.9286 Y206.2029 Z-0.2500
G1 X294.3187 Y197.0515 Z-0.2500
G1 X294.7673 Y195.4210 Z-0.2500
G1 X295.1274 Y193.8010 Z-0.2500
G2 X282.3013 Y160.6289 I-34.1620 J-5.8568
G1 X279.4728 Y158.6368 Z-0.2500
G2 X261.0635 Y153.3228 I-18.4093 J29.2309
G1 X261.0635 Y151.8679 Z-0.2500
G3 X281.7789 Y158.4252 I0.0000 J35.9998
G3 X296.2234 Y195.7830 I-20.8135 J29.5190
G1 X295.7675 Y197.4400 Z-0.2500
G1 X293.3892 Y206.5444 Z-0.2500
G1 X291.2517 Y215.6875 Z-0.2500
G1 X289.3490 Y224.8816 Z-0.2500
G1 X287.6801 Y234.1202 Z-0.2500
G1 X286.2435 Y243.3970 Z-0.2500
G1 X285.0377 Y252.7058 Z-0.2500
G1 X284.0610 Y262.0406 Z-0.2500
G1 X283.3112 Y271.3956 Z-0.2500
G1 X282.7865 Y280.7651 Z-0.2500
G1 X282.4844 Y290.1436 Z-0.2500
G1 X282.4025 Y299.5258 Z-0.2500
G1 X282.5384 Y308.9065 Z-0.2500
G1 X282.8894 Y318.2809 Z-0.2500
G1 X283.4527 Y327.6442 Z-0.2500
G1 X284.2256 Y336.9917 Z-0.2500
G1 X285.1912 Y346.1913 Z-0.2500
G3 X261.0635 Y373.3844 I-24.1277 J2.8926
G3 X236.9358 Y346.1913 I0.0000 J-24.3005
G1 X237.9075 Y336.9255 Z-0.2500
G1 X238.6790 Y327.5771 Z-0.2500
G1 X239.2409 Y318.2130 Z-0.2500
G1 X239.5903 Y308.8378 Z-0.2500
G1 X239.7247 Y299.4562 Z-0.2500
G1 X239.6412 Y290.0732 Z-0.2500
G1 X239.3373 Y280.6939 Z-0.2500
G1 X238.8108 Y271.3237 Z-0.2500
G1 X238.0592 Y261.9681 Z-0.2500
G1 X237.0806 Y252.6327 Z-0.2500
G1 X235.8730 Y243.3233 Z-0.2500
G1 X234.4344 Y234.0460 Z-0.2500
G1 X232.7635 Y224.8070 Z-0.2500
G1 X230.8587 Y215.6125 Z-0.2500
G1 X228.7191 Y206.4691 Z-0.2500
G1 X226.3545 Y197.4212 Z-0.2500
G3 X240.3481 Y158.4252 I34.7090 J-9.5535
G3 X261.0635 Y151.8679 I20.7154 J29.4425
G1 X261.3836 Y152.8791 Z0.8107 F3000.
G1 X261.3836 Y152.8791 Z1.4107
G0 Z10.0000
G0 X261.3836 Y152.8791
G0 Z10.0000
G0 X305.8704 Y343.9137
G1 X305.8704 Y343.9137 Z0.9500 F3000.
G1 X305.8704 Y343.9137 Z0.3500
G1 X306.1843 Y344.9958 Z0.1513
G1 X306.5400 Y346.0768 Z-0.0493
G1 X306.9337 Y347.1445 Z-0.2500
G2 X316.9701 Y360.7045 I29.8928 J-11.6308 F6000.
G1 X319.6972 Y362.6257 Z-0.2500
G2 X353.7411 Y362.6257 I17.0219 J-27.0280
G1 X356.4094 Y360.7483 Z-0.2500
G2 X367.4752 Y327.1322 I-19.8205 J-25.1539
G1 X365.0896 Y318.0052 Z-0.2500
G1 X362.9264 Y308.7636 Z-0.2500
G1 X361.0004 Y299.4706 Z-0.2500
G1 X359.3107 Y290.1329 Z-0.2500
G1 X357.8559 Y280.7569 Z-0.2500
G1 X356.6345 Y271.3488 Z-0.2500
G1 X355.6446 Y261.9148 Z-0.2500
G1 X354.8842 Y252.4607 Z-0.2500
G1 X354.3511 Y242.9923 Z-0.2500
G1 X354.0432 Y233.5151 Z-0.2500
G1 X353.9579 Y224.0344 Z-0.2500
G1 X354.0928 Y214.5555 Z-0.2500
G1 X354.4452 Y205.0834 Z-0.2500
G1 X355.0122 Y195.6230 Z-0.2500
G1 X355.7910 Y186.1788 Z-0.2500
G1 X356.7691 Y176.8489 Z-0.2500
G2 X336.7192 Y154.1830 I-20.0500 J-2.4650
G2 X316.6691 Y176.8488 I-0.0001 J20.2009
G1 X317.6379 Y186.0794 Z-0.2500
G1 X318.4189 Y195.5221 Z-0.2500
G1 X318.9881 Y204.9813 Z-0.2500
G1 X319.3427 Y214.4520 Z-0.2500
G1 X319.4800 Y223.9297 Z-0.2500
G1 X319.3972 Y233.4091 Z-0.2500
G1 X319.0919 Y242.8852 Z-0.2500
G1 X318.5615 Y252.3526 Z-0.2500
G1 X317.8038 Y261.8057 Z-0.2500
G1 X316.8166 Y271.2388 Z-0.2500
G1 X315.5980 Y280.6461 Z-0.2500
G1 X314.1463 Y290.0213 Z-0.2500
G1 X312.4596 Y299.3583 Z-0.2500
G1 X310.5367 Y308.6509 Z-0.2500
G1 X308.3766 Y317.8922 Z-0.2500
G1 X305.5224 Y328.7317 Z-0.2500
G1 X305.1663 Y330.3673 Z-0.2500
G2 X306.9337 Y347.1445 I31.6602 J5.1464
G1 X305.5781 Y347.6720 Z-0.2500
G3 X304.0636 Y328.3809 I31.2484 J-12.1583
G1 X306.9160 Y317.5507 Z-0.2500
G1 X309.0679 Y308.3468 Z-0.2500
G1 X310.9835 Y299.0916 Z-0.2500
G1 X312.6639 Y289.7917 Z-0.2500
G1 X314.1105 Y280.4533 Z-0.2500
G1 X315.3248 Y271.0827 Z-0.2500
G1 X316.3086 Y261.6858 Z-0.2500
G1 X317.0638 Y252.2687 Z-0.2500
G1 X317.5926 Y242.8369 Z-0.2500
G1 X317.8973 Y233.3960 Z-0.2500
G1 X317.9801 Y223.9513 Z-0.2500
G1 X317.8438 Y214.5081 Z-0.2500
G1 X317.4908 Y205.0713 Z-0.2500
G1 X316.9240 Y195.6457 Z-0.2500
G1 X316.1461 Y186.2360 Z-0.2500
G1 X315.1740 Y176.9742 Z-0.2500
G3 X336.7191 Y152.6809 I21.5451 J-2.5928
G3 X358.2642 Y176.9742 I0.0000 J21.7005
G1 X357.2860 Y186.3022 Z-0.2500
G1 X356.5095 Y195.7128 Z-0.2500
G1 X355.9442 Y205.1393 Z-0.2500
G1 X355.5927 Y214.5769 Z-0.2500
G1 X355.4579 Y224.0210 Z-0.2500
G1 X355.5424 Y233.4664 Z-0.2500
G1 X355.8487 Y242.9081 Z-0.2500
G1 X356.3793 Y252.3405 Z-0.2500
G1 X357.1364 Y261.7583 Z-0.2500
G1 X358.1220 Y271.1558 Z-0.2500
G1 X359.3382 Y280.5270 Z-0.2500
G1 X360.7867 Y289.8659 Z-0.2500
G1 X362.4692 Y299.1662 Z-0.2500
G1 X364.3869 Y308.4218 Z-0.2500
G1 X366.5409 Y317.6259 Z-0.2500
G1 X368.9214 Y326.7342 Z-0.2500
G3 X355.9384 Y362.9138 I-32.2023 J8.8635
G3 X317.4998 Y362.9138 I-19.2193 J-27.3161
G3 X305.5781 Y347.6720 I19.3267 J-27.4001
G1 X306.4135 Y347.0184 Z0.8107 F3000.
G1 X306.4135 Y347.0184 Z1.4107
G0 Z10.0000
G0 X306.4135 Y347.0184
G0 Z10.0000
G0 X349.2397 Y123.2243
G1 X349.2397 Y123.2243 Z0.9500 F3000.
G1 X349.2397 Y123.2243 Z0.3500
G1 X352.5424 Y123.6394 Z-0.2369
G1 X352.6126 Y123.6155 Z-0.2500
G2 X353.5037 Y122.6929 I-0.6597 J-1.5287 F6000.
G2 X353.4419 Y122.0203 I-1.7286 J-0.1805
G1 X353.1106 Y121.4693 Z-0.2500
G1 X353.0251 Y121.3929 Z-0.2500
G1 X352.8864 Y121.3154 Z-0.2500
G2 X352.0766 Y121.2073 I-0.7363 J2.4281
G1 X342.3856 Y122.0227 Z-0.2500
G1 X340.3593 Y122.1487 Z-0.2500
G1 X342.1455 Y122.3328 Z-0.2500
G1 X352.5424 Y123.6394 Z-0.2500
G1 X352.6126 Y123.6155 Z-0.2500
G1 X353.2327 Y124.9770 Z-0.2500
G3 X352.9888 Y125.0771 I-1.4390 J-3.1592
G3 X351.8349 Y125.0612 I-0.5495 J-2.0091
G1 X341.9917 Y123.8249 Z-0.2500
G1 X332.1541 Y122.8110 Z-0.2500
G1 X322.2940 Y122.0182 Z-0.2500
G1 X315.7792 Y121.6429 Z-0.2500
G1 X322.5100 Y121.5301 Z-0.2500
G1 X332.3919 Y121.1399 Z-0.2500
G1 X342.2598 Y120.5280 Z-0.2500
G1 X351.9673 Y119.7112 Z-0.2500
G3 X353.8628 Y120.1427 I0.2133 J3.4417
G3 X354.7970 Y121.3629 I-1.6361 J2.2203
G3 X354.9634 Y123.0581 I-3.0527 J1.1554
G3 X354.2934 Y124.2267 I-2.7236 J-0.7852
G3 X353.2327 Y124.9770 I-2.4997 J-2.4089
G1 X352.8612 Y123.9835 Z0.8107 F3000.
G1 X352.8612 Y123.9835 Z1.4107
G0 Z10.0000
G0 X352.8612 Y123.9835
G0 Z10.0000
G0 X247.7532 Y120.4908
G1 X247.7532 Y120.4908 Z0.9500 F3000.
G1 X247.7532 Y120.4908 Z0.3500
G1 X247.7120 Y120.2838 Z0.3128
G1 X247.7131 Y120.2087 Z0.2995
G1 X247.8568 Y119.5907 Z0.1877
G1 X248.2432 Y119.0873 Z0.0758
G1 X248.8032 Y118.7888 Z-0.0361
G1 X249.4365 Y118.7484 Z-0.1480
G1 X249.5807 Y118.7702 Z-0.1737
G1 X249.7249 Y118.7919 Z-0.1994
G1 X249.9846 Y118.9135 Z-0.2500
G1 X249.3572 Y120.2534 Z-0.2500
G1 X249.5014 Y120.2752 Z-0.2500 F6000.
G1 X249.2118 Y120.3068 Z-0.2500
G1 X249.2130 Y120.2317 Z-0.2500
G1 X249.3572 Y120.2534 Z-0.2500
G1 X249.5807 Y118.7702 Z-0.2500
G1 X247.6897 Y118.4852 Z-0.2500
G3 X247.6254 Y121.9890 I-16.8323 J1.4437
G1 X252.9047 Y121.4124 Z-0.2500
G1 X262.8143 Y120.5742 Z-0.2500
G1 X263.0865 Y120.5574 Z-0.2500
G1 X253.2064 Y119.3165 Z-0.2500
G1 X249.5807 Y118.7702 Z-0.2500
G1 X249.8043 Y117.2871 Z-0.2500
G1 X253.3934 Y117.8282 Z-0.2500
G1 X263.2222 Y119.0635 Z-0.2500
G1 X273.0756 Y120.0595 Z-0.2500
G1 X282.9478 Y120.8184 Z-0.2500
G1 X287.4876 Y121.0593 Z-0.2500
G1 X282.7261 Y121.1178 Z-0.2500
G1 X272.8288 Y121.4744 Z-0.2500
G1 X262.9406 Y122.0689 Z-0.2500
G1 X253.0676 Y122.9035 Z-0.2500
G1 X245.7567 Y123.7020 Z-0.2500
G2 X245.9035 Y116.6990 I-14.4529 J-3.8061
G1 X249.8043 Y117.2871 Z-0.2500
G1 X250.0280 Y115.8041 Z-0.2500
G1 X243.7633 Y114.8592 Z-0.2500
G3 X244.7330 Y119.1476 I-12.3960 J5.0568
G3 X243.5270 Y125.4544 I-12.7350 J0.8335
G1 X253.2304 Y124.3946 Z-0.2500
G1 X263.0669 Y123.5636 Z-0.2500
G1 X272.9188 Y122.9717 Z-0.2500
G1 X282.7800 Y122.6169 Z-0.2500
G1 X292.6450 Y122.4965 Z-0.2500
G1 X302.5082 Y122.6080 Z-0.2500
G1 X312.3641 Y122.9487 Z-0.2500
G1 X322.2077 Y123.5158 Z-0.2500
G1 X332.0338 Y124.3062 Z-0.2500
G1 X341.8379 Y125.3170 Z-0.2500
G2 X352.6549 Y126.6468 I28.6045 J-188.0159
G1 X352.9823 Y126.6143 Z-0.2500
G2 X355.4877 Y125.1404 I-1.0044 J-4.5738
G1 X356.0688 Y124.2587 Z-0.2500
G1 X356.2695 Y123.8816 Z-0.2500
G2 X356.1343 Y120.6760 I-4.2569 J-1.4261
G2 X355.1063 Y119.2147 I-4.7721 J2.2648
G2 X351.8472 Y118.2160 I-2.9028 J3.6555
G1 X342.1340 Y119.0333 Z-0.2500
G1 X332.2992 Y119.6427 Z-0.2500
G1 X322.4509 Y120.0312 Z-0.2500
G1 X312.5943 Y120.1960 Z-0.2500
G1 X302.7347 Y120.1341 Z-0.2500
G1 X292.8772 Y119.8432 Z-0.2500
G1 X283.0272 Y119.3205 Z-0.2500
G1 X273.1907 Y118.5639 Z-0.2500
G1 X263.3731 Y117.5711 Z-0.2500
G1 X253.5806 Y116.3399 Z-0.2500
G1 X250.0280 Y115.8041 Z-0.2500
G1 X250.2515 Y114.3215 Z-0.2500
G1 X253.7677 Y114.8516 Z-0.2500
G1 X263.5241 Y116.0787 Z-0.2500
G1 X273.3058 Y117.0683 Z-0.2500
G1 X283.1068 Y117.8226 Z-0.2500
G1 X292.9215 Y118.3438 Z-0.2500
G1 X302.7441 Y118.6342 Z-0.2500
G1 X312.5693 Y118.6962 Z-0.2500
G1 X322.3918 Y118.5324 Z-0.2500
G1 X332.2064 Y118.1456 Z-0.2500
G1 X342.0083 Y117.5386 Z-0.2500
G1 X351.7205 Y116.7213 Z-0.2500
G3 X356.5345 Y118.5364 I0.5046 J5.9530
G1 X356.8439 Y118.9456 Z-0.2500
G1 X357.4640 Y119.9767 Z-0.2500
G3 X357.6436 Y124.4923 I-5.4481 J2.4781
G1 X357.3599 Y125.0254 Z-0.2500
G1 X356.6928 Y126.0377 Z-0.2500
G3 X352.6977 Y128.1500 I-4.5881 J-3.8435
G1 X352.0941 Y128.1244 Z-0.2500
G1 X351.4609 Y128.0378 Z-0.2500
G1 X341.6840 Y126.8091 Z-0.2500
G1 X331.9135 Y125.8014 Z-0.2500
G1 X322.1214 Y125.0133 Z-0.2500
G1 X312.3123 Y124.4478 Z-0.2500
G1 X302.4912 Y124.1079 Z-0.2500
G1 X292.6632 Y123.9964 Z-0.2500
G1 X282.8339 Y124.1159 Z-0.2500
G1 X273.0087 Y124.4690 Z-0.2500
G1 X263.1931 Y125.0582 Z-0.2500
G1 X253.3933 Y125.8858 Z-0.2500
G1 X243.6153 Y126.9537 Z-0.2500
G1 X240.5640 Y127.3634 Z-0.2500
G2 X243.1995 Y121.0675 I-9.2819 J-7.5849
G1 X243.2353 Y119.2305 Z-0.2500
G2 X240.8555 Y112.8240 I-11.5308 J0.6380
G1 X244.0430 Y113.3854 Z-0.2500
G1 X250.2515 Y114.3215 Z-0.2500
G1 X250.4752 Y112.8385 Z-0.2500
G1 X244.2667 Y111.9022 Z-0.2500
G1 X234.9640 Y110.2624 Z-0.2500
G3 X241.7187 Y120.1154 I-3.5316 J9.6629
G3 X234.4386 Y129.6994 I-10.2244 J-0.2095
G1 X243.8149 Y128.4403 Z-0.2500
G1 X253.5561 Y127.3769 Z-0.2500
G1 X263.3193 Y126.5529 Z-0.2500
G1 X273.0985 Y125.9663 Z-0.2500
G1 X282.8877 Y125.6149 Z-0.2500
G1 X292.6814 Y125.4963 Z-0.2500
G1 X302.4741 Y125.6078 Z-0.2500
G1 X312.2603 Y125.9469 Z-0.2500
G1 X322.0350 Y126.5108 Z-0.2500
G1 X331.7931 Y127.2965 Z-0.2500
G1 X341.5300 Y128.3012 Z-0.2500
G1 X351.2738 Y129.5261 Z-0.2500
G1 X351.9604 Y129.6201 Z-0.2500
G2 X357.9065 Y126.9219 I0.3067 J-7.2251
G1 X358.6511 Y125.7922 Z-0.2500
G2 X358.7857 Y119.2638 I-6.3840 J-3.3972
G1 X358.0884 Y118.1044 Z-0.2500
G2 X351.5850 Y115.2274 I-5.8421 J4.4170
G1 X341.8825 Y116.0439 Z-0.2500
G1 X332.1138 Y116.6485 Z-0.2500
G1 X322.3328 Y117.0336 Z-0.2500
G1 X312.5444 Y117.1964 Z-0.2500
G1 X302.7537 Y117.1342 Z-0.2500
G1 X292.9659 Y116.8445 Z-0.2500
G1 X283.1864 Y116.3247 Z-0.2500
G1 X273.4209 Y115.5728 Z-0.2500
G1 X263.6752 Y114.5863 Z-0.2500
G1 X253.9550 Y113.3634 Z-0.2500
G1 X250.4752 Y112.8385 Z-0.2500
G1 X250.6989 Y111.3556 Z-0.2500
G1 X254.1423 Y111.8751 Z-0.2500
G1 X263.8263 Y113.0940 Z-0.2500
G1 X273.5361 Y114.0772 Z-0.2500
G1 X283.2661 Y114.8269 Z-0.2500
G1 X293.0103 Y115.3451 Z-0.2500
G1 X302.7632 Y115.6342 Z-0.2500
G1 X312.5195 Y115.6966 Z-0.2500
G1 X322.2738 Y115.5347 Z-0.2500
G1 X332.0212 Y115.1513 Z-0.2500
G1 X341.7567 Y114.5492 Z-0.2500
G1 X351.4265 Y113.7357 Z-0.2500
G1 X351.4429 Y113.7342 Z-0.2500
G3 X359.7224 Y117.9110 I0.8242 J8.6608
G3 X359.5313 Y127.1824 I-7.4553 J4.4840
G3 X351.0866 Y131.0144 I-7.2642 J-4.7874
G1 X341.3760 Y129.7933 Z-0.2500
G1 X331.6727 Y128.7917 Z-0.2500
G1 X321.9485 Y128.0083 Z-0.2500
G1 X312.2083 Y127.4460 Z-0.2500
G1 X302.4569 Y127.1077 Z-0.2500
G1 X292.6995 Y126.9961 Z-0.2500
G1 X282.9415 Y127.1140 Z-0.2500
G1 X273.1882 Y127.4636 Z-0.2500
G1 X263.4454 Y128.0476 Z-0.2500
G1 X253.7188 Y128.8681 Z-0.2500
G1 X244.0146 Y129.9270 Z-0.2500
G1 X234.3388 Y131.2263 Z-0.2500
G1 X224.6979 Y132.7677 Z-0.2500
G1 X215.0984 Y134.5525 Z-0.2500
G1 X205.5469 Y136.5820 Z-0.2500
G1 X196.0881 Y138.8472 Z-0.2500
G3 X174.1585 Y130.4636 I-5.0071 J-19.7759
G3 X174.6425 Y106.9912 I16.9225 J-11.3923
G3 X195.6987 Y99.1615 I16.5120 J12.1777
G1 X206.3310 Y102.1920 Z-0.2500
G1 X215.7905 Y104.6114 Z-0.2500
G1 X225.3081 Y106.7884 Z-0.2500
G1 X234.8769 Y108.7239 Z-0.2500
G1 X244.4905 Y110.4190 Z-0.2500
G1 X250.6989 Y111.3556 Z-0.2500
G1 X250.5406 Y112.4044 Z0.8107 F3000.
G1 X250.5406 Y112.4044 Z1.4107
G0 Z10.0000
G0 X250.5406 Y112.4044
G0 Z10.0000
G0 X35.4933 Y114.2126
G1 X35.4933 Y114.2126 Z0.9500 F3000.
G1 X35.4933 Y114.2126 Z0.3500
G1 X34.6504 Y114.6399 Z0.1834
G1 X34.1457 Y114.9119 Z0.0823
G1 X34.1296 Y114.8198 Z0.0658
G1 X34.1126 Y114.7279 Z0.0493
G1 X34.0947 Y114.6361 Z0.0328
G1 X34.0760 Y114.5445 Z0.0163
G1 X34.0564 Y114.4531 Z-0.0002
G1 X34.0360 Y114.3618 Z-0.0166
G1 X34.0148 Y114.2708 Z-0.0331
G1 X33.9926 Y114.1800 Z-0.0496
G1 X33.9697 Y114.0893 Z-0.0661
G1 X33.9459 Y113.9989 Z-0.0826
G1 X33.9212 Y113.9087 Z-0.0991
G1 X33.8957 Y113.8188 Z-0.1156
G1 X33.8693 Y113.7291 Z-0.1320
G1 X33.8422 Y113.6396 Z-0.1485
G1 X33.8142 Y113.5504 Z-0.1650
G1 X34.2961 Y113.5581 Z-0.2500
G1 X34.7780 Y113.5658 Z-0.2500 F6000.
G1 X36.8056 Y113.5473 Z-0.2500
G1 X34.6504 Y114.6399 Z-0.2500
G1 X34.1457 Y114.9119 Z-0.2500
G2 X33.8142 Y113.5504 I-9.8580 J1.6795
G1 X34.2961 Y113.5581 Z-0.2500
G1 X34.3207 Y112.0585 Z-0.2500
G1 X31.4483 Y112.0113 Z-0.2500
G3 X32.7523 Y117.3669 I-7.1606 J4.5801
G1 X35.3621 Y115.9603 Z-0.2500
G1 X43.1996 Y111.9888 Z-0.2500
G1 X34.7643 Y112.0658 Z-0.2500
G1 X34.3207 Y112.0585 Z-0.2500
G1 X34.3456 Y110.5592 Z-0.2500
G2 X50.1901 Y110.2894 I4.0121 J-229.7601
G1 X45.1004 Y112.7073 Z-0.2500
G1 X36.0737 Y117.2808 Z-0.2500
G1 X30.0917 Y120.5048 Z-0.2500
G2 X27.6433 Y110.4481 I-5.8040 J-3.9134
G1 X34.3456 Y110.5592 Z-0.2500
G1 X34.3706 Y109.0599 Z-0.2500
G1 X24.8898 Y108.9020 Z-0.2500
G2 X16.8229 Y118.4071 I-0.5796 J7.6839
G2 X28.3542 Y123.1451 I7.4873 J-1.8212
G1 X36.7853 Y118.6012 Z-0.2500
G1 X45.7783 Y114.0454 Z-0.2500
G1 X54.8836 Y109.7208 Z-0.2500
G1 X57.7299 Y108.4558 Z-0.2500
G1 X54.8883 Y108.6259 Z-0.2500
G1 X44.8167 Y108.9744 Z-0.2500
G1 X34.7370 Y109.0660 Z-0.2500
G1 X34.3706 Y109.0599 Z-0.2500
G1 X34.3956 Y107.5605 Z-0.2500
G1 X34.7234 Y107.5660 Z-0.2500
G1 X44.7649 Y107.4753 Z-0.2500
G1 X54.7987 Y107.1286 Z-0.2500
G1 X64.8183 Y106.5286 Z-0.2500
G1 X66.0999 Y106.4197 Z-0.2500
G1 X64.7022 Y106.9996 Z-0.2500
G1 X55.5271 Y111.0757 Z-0.2500
G1 X46.4561 Y115.3835 Z-0.2500
G1 X37.4970 Y119.9217 Z-0.2500
G1 X29.0364 Y124.4815 Z-0.2500
G3 X15.3630 Y118.7624 I-4.7308 J-7.8945
G3 X24.8815 Y107.4016 I8.9426 J-2.1754
G1 X34.3956 Y107.5605 Z-0.2500
G1 X34.4207 Y106.0612 Z-0.2500
G1 X24.8733 Y105.9013 Z-0.2500
G2 X13.9031 Y119.1177 I-0.5716 J10.6867
G2 X29.7185 Y125.8178 I10.3986 J-2.5297
G1 X38.2086 Y121.2421 Z-0.2500
G1 X47.1338 Y116.7216 Z-0.2500
G1 X56.1705 Y112.4308 Z-0.2500
G1 X65.3112 Y108.3704 Z-0.2500
G1 X74.5489 Y104.5409 Z-0.2500
G1 X75.7881 Y104.0624 Z-0.2500
G1 X74.6535 Y104.1872 Z-0.2500
G1 X64.6913 Y105.0340 Z-0.2500
G1 X54.7091 Y105.6313 Z-0.2500
G1 X44.7132 Y105.9762 Z-0.2500
G1 X34.7100 Y106.0661 Z-0.2500
G1 X34.4207 Y106.0612 Z-0.2500
G1 X34.4459 Y104.5619 Z-0.2500
G1 X34.6966 Y104.5661 Z-0.2500
G1 X44.6615 Y104.4771 Z-0.2500
G1 X54.6196 Y104.1339 Z-0.2500
G1 X64.5643 Y103.5394 Z-0.2500
G1 X74.4895 Y102.6962 Z-0.2500
G1 X84.3894 Y101.6075 Z-0.2500
G1 X87.7247 Y101.1578 Z-0.2500
G1 X84.4169 Y102.3417 Z-0.2500
G1 X75.1233 Y105.9266 Z-0.2500
G1 X65.9200 Y109.7413 Z-0.2500
G1 X56.8138 Y113.7858 Z-0.2500
G1 X47.8115 Y118.0598 Z-0.2500
G1 X38.9203 Y122.5625 Z-0.2500
G1 X30.4006 Y127.1541 Z-0.2500
G3 X12.4432 Y119.4730 I-6.1022 J-10.5653
G3 X24.8651 Y104.4010 I11.8552 J-2.8842
G1 X34.4459 Y104.5619 Z-0.2500
G1 X34.4712 Y103.0626 Z-0.2500
G1 X24.8570 Y102.9006 Z-0.2500
G2 X10.9833 Y119.8282 I-0.5616 J13.6889
G2 X31.0828 Y128.4905 I13.3121 J-3.2387
G1 X39.6319 Y123.8830 Z-0.2500
G1 X48.4891 Y119.3980 Z-0.2500
G1 X57.4571 Y115.1409 Z-0.2500
G1 X66.5288 Y111.1122 Z-0.2500
G1 X75.6976 Y107.3123 Z-0.2500
G1 X84.9566 Y103.7412 Z-0.2500
G1 X94.2995 Y100.3988 Z-0.2500
G1 X103.7196 Y97.2845 Z-0.2500
G1 X104.0061 Y97.1969 Z-0.2500
G1 X94.0216 Y98.7953 Z-0.2500
G1 X84.1890 Y100.1210 Z-0.2500
G1 X74.3257 Y101.2052 Z-0.2500
G1 X64.4374 Y102.0447 Z-0.2500
G1 X54.5301 Y102.6366 Z-0.2500
G1 X44.6099 Y102.9780 Z-0.2500
G3 X34.4712 Y103.0626 I-6.7137 J-196.8603
G1 X34.4532 Y104.1231 Z0.8107 F3000.
G1 X34.4532 Y104.1231 Z1.4107
G0 Z10.0000
G0 X34.4532 Y104.1231
G0 Z10.0000
G0 X178.9085 Y78.6741
G1 X178.9085 Y78.6741 Z0.9500 F3000.
G1 X178.9085 Y78.6741 Z0.3500
G1 X180.7511 Y78.0156 Z0.0050
G1 X180.7806 Y78.0060 Z-0.0005
G1 X180.8106 Y77.9978 Z-0.0060
G1 X180.8409 Y77.9913 Z-0.0114
G1 X180.8716 Y77.9864 Z-0.0169
G1 X180.9024 Y77.9831 Z-0.0224
G1 X180.9334 Y77.9815 Z-0.0279
G1 X180.9645 Y77.9815 Z-0.0333
G1 X180.9955 Y77.9832 Z-0.0388
G1 X181.0264 Y77.9864 Z-0.0443
G1 X181.0570 Y77.9913 Z-0.0498
G1 X181.0874 Y77.9979 Z-0.0552
G1 X181.1174 Y78.0060 Z-0.0607
G1 X181.1469 Y78.0157 Z-0.0662
G1 X181.1758 Y78.0269 Z-0.0717
G1 X181.2041 Y78.0396 Z-0.0771
G1 X181.3896 Y78.2195 Z-0.1227
G1 X181.3990 Y78.2366 Z-0.1261
G1 X181.4078 Y78.2541 Z-0.1296
G1 X181.4160 Y78.2719 Z-0.1330
G1 X181.4234 Y78.2901 Z-0.1365
G1 X181.4302 Y78.3084 Z-0.1400
G1 X181.4363 Y78.3271 Z-0.1434
G1 X181.4417 Y78.3459 Z-0.1469
G1 X181.4464 Y78.3649 Z-0.1503
G1 X181.4503 Y78.3841 Z-0.1538
G1 X181.4535 Y78.4034 Z-0.1572
G1 X181.4560 Y78.4229 Z-0.1607
G1 X181.4578 Y78.4424 Z-0.1641
G1 X181.4588 Y78.4619 Z-0.1676
G1 X181.4591 Y78.4815 Z-0.1710
G1 X181.4586 Y78.5011 Z-0.1745
G1 X181.3583 Y78.7968 Z-0.2296
G1 X181.3536 Y78.8030 Z-0.2309
G1 X181.3489 Y78.8091 Z-0.2323
G1 X181.3441 Y78.8152 Z-0.2336
G1 X181.3393 Y78.8212 Z-0.2350
G1 X181.3343 Y78.8271 Z-0.2364
G1 X181.3293 Y78.8330 Z-0.2377
G1 X181.3242 Y78.8388 Z-0.2391
G1 X181.3191 Y78.8446 Z-0.2405
G1 X181.3138 Y78.8503 Z-0.2418
G1 X181.3085 Y78.8559 Z-0.2432
G1 X181.3032 Y78.8615 Z-0.2445
G1 X181.2977 Y78.8669 Z-0.2459
G1 X181.2922 Y78.8724 Z-0.2473
G1 X181.2866 Y78.8777 Z-0.2486
G1 X181.2810 Y78.8830 Z-0.2500
G3 X181.1890 Y78.9533 I-0.4204 J-0.4549 F6000.
G1 X176.2736 Y79.6157 Z-0.2500
G1 X180.7511 Y78.0156 Z-0.2500
G3 X181.2041 Y78.0396 I0.1978 J0.5529
G1 X181.3896 Y78.2195 Z-0.2500
G3 X181.4586 Y78.5011 I-0.4504 J0.2597
G1 X181.3583 Y78.7968 Z-0.2500
G3 X181.2810 Y78.8830 I-0.4977 J-0.3687
G1 X182.2990 Y79.9847 Z-0.2500
G2 X182.7261 Y79.4339 I-1.4384 J-1.5566
G1 X182.9254 Y78.8466 Z-0.2500
G2 X182.5346 Y77.2404 I-1.9862 J-0.3674
G1 X182.1284 Y76.8465 Z-0.2500
G2 X180.2457 Y76.6033 I-1.1795 J1.7220
G1 X170.9592 Y79.9219 Z-0.2500
G1 X161.5533 Y83.0499 Z-0.2500
G1 X159.3008 Y83.7434 Z-0.2500
G1 X161.5203 Y83.3420 Z-0.2500
G1 X171.3127 Y81.7970 Z-0.2500
G1 X181.4722 Y80.4294 Z-0.2500
G1 X181.7212 Y80.3649 Z-0.2500
G2 X182.2990 Y79.9847 I-0.8606 J-1.9368
G1 X183.2975 Y81.0653 Z-0.2500
G3 X181.7614 Y81.9040 I-2.4369 J-2.6372
G1 X171.5464 Y83.2787 Z-0.2500
G1 X161.7873 Y84.8181 Z-0.2500
G1 X152.0644 Y86.5766 Z-0.2500
G1 X142.3834 Y88.5559 Z-0.2500
G1 X132.7496 Y90.7576 Z-0.2500
G1 X123.1690 Y93.1828 Z-0.2500
G1 X113.6472 Y95.8329 Z-0.2500
G1 X104.1904 Y98.7087 Z-0.2500
G1 X94.8047 Y101.8111 Z-0.2500
G1 X85.4963 Y105.1408 Z-0.2500
G1 X76.2718 Y108.6981 Z-0.2500
G1 X67.1376 Y112.4831 Z-0.2500
G1 X58.1003 Y116.4960 Z-0.2500
G1 X49.1667 Y120.7363 Z-0.2500
G1 X40.3436 Y125.2034 Z-0.2500
G1 X31.7649 Y129.8268 Z-0.2500
G3 X9.5234 Y120.1834 I-7.4722 J-13.2366
G3 X24.8489 Y101.4003 I14.7693 J-3.5932
G1 X34.6700 Y101.5663 Z-0.2500
G1 X44.5584 Y101.4788 Z-0.2500
G1 X54.4407 Y101.1393 Z-0.2500
G1 X64.3106 Y100.5501 Z-0.2500
G1 X74.1618 Y99.7141 Z-0.2500
G1 X83.9886 Y98.6344 Z-0.2500
G1 X93.7852 Y97.3141 Z-0.2500
G1 X103.5461 Y95.7564 Z-0.2500
G1 X113.2660 Y93.9648 Z-0.2500
G1 X122.9399 Y91.9430 Z-0.2500
G1 X132.5628 Y89.6944 Z-0.2500
G1 X142.1300 Y87.2229 Z-0.2500
G1 X151.6372 Y84.5323 Z-0.2500
G1 X161.0800 Y81.6265 Z-0.2500
G1 X170.4544 Y78.5094 Z-0.2500
G1 X179.7255 Y75.1964 Z-0.2500
G3 X183.3758 Y75.9667 I1.2137 J3.2828
G3 X184.2577 Y79.5915 I-2.4366 J2.5125
G3 X183.2975 Y81.0653 I-3.3971 J-1.1634
G1 X182.4082 Y80.4873 Z0.8107 F3000.
G1 X182.4082 Y80.4873 Z1.4107
G0 Z10.0000
G0 X182.4082 Y80.4873
G0 Z10.0000
G0 X299.4845 Y67.9760
G1 X299.4845 Y67.9760 Z0.9500 F3000.
G1 X299.4845 Y67.9760 Z0.3500
G1 X299.4283 Y68.0738 Z0.3301
G1 X299.3359 Y68.3412 Z0.2802
G1 X299.2954 Y68.6212 Z0.2303
G1 X299.3081 Y68.9038 Z0.1805
G1 X299.3737 Y69.1790 Z0.1306
G1 X299.4898 Y69.4369 Z0.0807
G1 X299.6523 Y69.6685 Z0.0308
G1 X299.8554 Y69.8655 Z-0.0191
G1 X300.0918 Y70.0208 Z-0.0689
G1 X300.3532 Y70.1290 Z-0.1188
G1 X301.0643 Y70.3474 Z-0.2500
G1 X301.5047 Y68.9135 Z-0.2500
G1 X302.2158 Y69.1319 Z-0.2500 F6000.
G3 X302.2813 Y68.6795 I8.9371 J1.0626
G1 X300.7936 Y68.6951 Z-0.2500
G1 X301.5047 Y68.9135 Z-0.2500
G1 X301.0643 Y70.3474 Z-0.2500
G1 X298.7754 Y69.6445 Z-0.2500
G1 X289.5772 Y67.0702 Z-0.2500
G1 X299.3533 Y67.2101 Z-0.2500
G1 X304.2368 Y67.1590 Z-0.2500
G1 X303.9767 Y68.0144 Z-0.2500
G2 X303.6531 Y70.2490 I7.1762 J2.1801
G1 X303.6610 Y71.1448 Z-0.2500
G1 X301.0643 Y70.3474 Z-0.2500
G1 X300.6239 Y71.7810 Z-0.2500
G1 X305.2952 Y73.2161 Z-0.2500
G3 X305.1530 Y70.2381 I11.2354 J-2.0288
G3 X305.4119 Y68.4504 I5.9999 J-0.0436
G3 X306.4047 Y65.6362 I8.2542 J1.3296
G1 X299.3376 Y65.7102 Z-0.2500
G1 X289.4027 Y65.5676 Z-0.2500
G1 X279.4763 Y65.1813 Z-0.2500
G1 X274.2730 Y64.8524 Z-0.2500
G1 X279.1775 Y65.9703 Z-0.2500
G1 X288.8049 Y68.4117 Z-0.2500
G3 X300.6239 Y71.7810 I-61.0029 J236.4038
G1 X300.9351 Y70.7671 Z0.8107 F3000.
G1 X300.9351 Y70.7671 Z1.4107
G0 Z10.0000
G0 X300.9351 Y70.7671
G0 Z10.0000
G0 X190.6636 Y54.3541
G1 X190.6636 Y54.3541 Z0.9500 F3000.
G1 X190.6636 Y54.3541 Z0.3500
G1 X190.6572 Y54.3531 Z0.3489
G1 X190.6496 Y54.3517 Z0.3475
G1 X190.6039 Y54.3428 Z0.3393
G1 X190.5964 Y54.3412 Z0.3379
G1 X190.5510 Y54.3308 Z0.3297
G1 X190.5435 Y54.3290 Z0.3284
G1 X190.4985 Y54.3172 Z0.3201
G1 X190.4910 Y54.3151 Z0.3188
G1 X190.4464 Y54.3020 Z0.3106
G1 X190.4390 Y54.2997 Z0.3092
G1 X190.3948 Y54.2851 Z0.3010
G1 X190.3875 Y54.2826 Z0.2996
G1 X190.3437 Y54.2667 Z0.2914
G1 X190.3365 Y54.2639 Z0.2901
G1 X190.2933 Y54.2467 Z0.2819
G1 X190.2861 Y54.2437 Z0.2805
G1 X190.2435 Y54.2251 Z0.2723
G1 X190.2364 Y54.2219 Z0.2709
G1 X190.1943 Y54.2020 Z0.2627
G1 X190.1874 Y54.1986 Z0.2614
G1 X190.1460 Y54.1774 Z0.2532
G1 X190.1392 Y54.1738 Z0.2518
G1 X190.0812 Y54.1413 Z0.2401
G1 X190.0248 Y54.1063 Z0.2284
G1 X189.9699 Y54.0689 Z0.2167
G1 X189.9168 Y54.0291 Z0.2050
G1 X189.8655 Y53.9869 Z0.1932
G1 X189.8161 Y53.9425 Z0.1815
G1 X189.7687 Y53.8960 Z0.1698
G1 X189.7234 Y53.8474 Z0.1581
G1 X189.6803 Y53.7969 Z0.1464
G1 X189.6395 Y53.7445 Z0.1347
G1 X189.6011 Y53.6904 Z0.1230
G1 X189.5651 Y53.6346 Z0.1113
G1 X189.5315 Y53.5772 Z0.0996
G1 X189.5006 Y53.5185 Z0.0879
G1 X189.4723 Y53.4584 Z0.0762
G1 X189.4340 Y53.3722 Z0.0595
G1 X189.3921 Y53.2676 Z0.0397
G1 X189.3583 Y53.1602 Z0.0198
G1 X189.3325 Y53.0506 Z-0.0001
G1 X189.3151 Y52.9394 Z-0.0199
G1 X189.3061 Y52.8271 Z-0.0398
G1 X189.3055 Y52.7145 Z-0.0596
G1 X189.3133 Y52.6022 Z-0.0795
G1 X189.3296 Y52.4908 Z-0.0993
G1 X189.3542 Y52.3809 Z-0.1192
G1 X189.3869 Y52.2731 Z-0.1390
G1 X189.4276 Y52.1682 Z-0.1589
G1 X189.4761 Y52.0665 Z-0.1787
G1 X189.5321 Y51.9688 Z-0.1986
G1 X189.5953 Y51.8756 Z-0.2185
G1 X189.6653 Y51.7874 Z-0.2383
G1 X189.7084 Y51.7371 Z-0.2500
G1 X190.8478 Y52.7126 Z-0.2500
G1 X190.8909 Y52.6623 Z-0.2500 F6000.
G1 X191.8926 Y52.9168 Z-0.2500
G1 X190.9535 Y52.8799 Z-0.2500
G3 X190.8430 Y52.8492 I0.0095 J-0.2484
G1 X190.8047 Y52.7629 Z-0.2500
G1 X190.8478 Y52.7126 Z-0.2500
G1 X191.5441 Y53.5127 Z0.8107 F3000.
G1 X191.5441 Y53.5127 Z1.4107
G0 Z10.0000
G0 X191.5441 Y53.5127
G0 Z10.0000
G0 X191.9261 Y53.6917
G1 X191.9261 Y53.6917 Z0.9500 F3000.
G1 X191.9261 Y53.6917 Z0.3500
G1 X191.8906 Y53.7499 Z0.3380
G1 X191.8188 Y53.8172 Z0.3206
G1 X191.7069 Y53.8788 Z0.2981
G1 X191.6640 Y53.9277 Z0.2866
G1 X191.4560 Y54.0169 Z0.2467
G1 X191.1689 Y54.1750 Z0.1889
G1 X191.0869 Y54.1753 Z0.1745
G1 X191.0555 Y54.1888 Z0.1684
G1 X190.7466 Y54.1765 Z0.1140
G1 X190.4271 Y54.1776 Z0.0576
G1 X190.3995 Y54.1627 Z0.0521
G1 X190.3938 Y54.1624 Z0.0511
G1 X189.8080 Y53.8538 Z-0.0657
G1 X189.7938 Y53.8348 Z-0.0699
G1 X189.7747 Y53.8245 Z-0.0737
G1 X189.6994 Y53.7082 Z-0.0981
G1 X189.4121 Y53.3230 Z-0.1829
G1 X189.3926 Y53.2791 Z-0.1913
G1 X189.3731 Y53.2353 Z-0.1998
G1 X189.3178 Y52.9559 Z-0.2500
G1 X190.7633 Y52.6699 Z-0.2500
G1 X190.7438 Y52.6260 Z-0.2500 F6000.
G1 X190.8646 Y52.6556 Z-0.2500
G1 X190.7928 Y52.7229 Z-0.2500
G1 X190.8103 Y52.6633 Z-0.2500
G1 X190.7828 Y52.7138 Z-0.2500
G1 X190.7633 Y52.6699 Z-0.2500
G1 X189.6937 Y51.7541 Z-0.2500
G1 X189.4744 Y52.0103 Z-0.2500
G1 X189.4299 Y52.0763 Z-0.2500
G2 X189.3274 Y53.1325 I1.6239 J0.6906
G1 X189.5807 Y53.7023 Z-0.2500
G2 X190.8960 Y54.3788 I1.3823 J-1.0708
G1 X200.7001 Y54.7641 Z-0.2500
G1 X207.5214 Y55.1831 Z-0.2500
G1 X201.0241 Y53.6893 Z-0.2500
G1 X191.0312 Y51.1503 Z-0.2500
G1 X190.9210 Y51.1332 Z-0.2500
G1 X190.7660 Y51.1252 Z-0.2500
G1 X190.5938 Y51.1465 Z-0.2500
G2 X189.8873 Y51.5280 I0.9220 J2.5521
G1 X189.6937 Y51.7541 Z-0.2500
G1 X188.5543 Y50.7786 Z-0.2500
G1 X188.8171 Y50.4716 Z-0.2500
G3 X190.7124 Y49.6203 I2.3290 J2.6497
G1 X191.0750 Y49.6392 Z-0.2500
G1 X191.3312 Y49.6788 Z-0.2500
G1 X201.3602 Y52.2274 Z-0.2500
G1 X210.9937 Y54.4423 Z-0.2500
G1 X220.6759 Y56.4405 Z-0.2500
G1 X230.4027 Y58.2184 Z-0.2500
G1 X240.1692 Y59.7723 Z-0.2500
G1 X249.9708 Y61.0990 Z-0.2500
G1 X259.8024 Y62.1950 Z-0.2500
G1 X269.6588 Y63.0572 Z-0.2500
G1 X279.5347 Y63.6825 Z-0.2500
G1 X289.4243 Y64.0677 Z-0.2500
G1 X299.3219 Y64.2103 Z-0.2500
G1 X309.2531 Y64.1063 Z-0.2500
G2 X306.8472 Y68.8865 I7.1646 J6.6015
G2 X306.6530 Y70.2272 I4.3057 J1.3080
G1 X306.6657 Y71.9719 Z-0.2500
G2 X306.8946 Y73.3567 I4.4999 J-0.0327
G1 X307.6042 Y75.4948 Z-0.2500
G1 X297.9668 Y72.5334 Z-0.2500
G1 X288.4361 Y69.8657 Z-0.2500
G1 X278.8441 Y67.4328 Z-0.2500
G1 X269.1976 Y65.2339 Z-0.2500
G1 X259.5025 Y63.2677 Z-0.2500
G1 X249.7649 Y61.5326 Z-0.2500
G1 X239.9907 Y60.0270 Z-0.2500
G1 X230.1858 Y58.7493 Z-0.2500
G1 X220.3556 Y57.6975 Z-0.2500
G1 X210.5056 Y56.8694 Z-0.2500
G1 X200.6411 Y56.2630 Z-0.2500
G1 X190.8429 Y55.8778 Z-0.2500
G3 X188.2595 Y54.4230 I0.1142 J-3.2239
G1 X187.9117 Y53.6405 Z-0.2500
G3 X188.1295 Y51.3217 I3.1480 J-0.8740
G1 X188.2790 Y51.1001 Z-0.2500
G1 X188.5543 Y50.7786 Z-0.2500
G1 X187.4149 Y49.8030 Z-0.2500
G1 X187.0837 Y50.1899 Z-0.2500
G2 X186.5068 Y54.1726 I3.8374 J2.5890
G1 X186.9286 Y55.1217 Z-0.2500
G2 X190.7906 Y57.3769 I4.0267 J-2.4612
G1 X200.5822 Y57.7618 Z-0.2500
G1 X210.4135 Y58.3666 Z-0.2500
G1 X220.2299 Y59.1922 Z-0.2500
G1 X230.0261 Y60.2408 Z-0.2500
G1 X239.7969 Y61.5145 Z-0.2500
G1 X249.5365 Y63.0151 Z-0.2500
G1 X259.2393 Y64.7444 Z-0.2500
G1 X268.8993 Y66.7040 Z-0.2500
G1 X278.5107 Y68.8953 Z-0.2500
G1 X288.0672 Y71.3196 Z-0.2500
G1 X297.5624 Y73.9779 Z-0.2500
G1 X306.9899 Y76.8710 Z-0.2500
G1 X312.8758 Y78.8396 Z-0.2500
G1 X312.7413 Y78.7532 Z-0.2500
G1 X311.2170 Y77.7151 Z-0.2500
G3 X310.5136 Y77.0459 I1.6888 J-2.4796
G1 X309.3626 Y75.5250 Z-0.2500
G3 X308.9075 Y74.6596 I2.3922 J-1.8104
G1 X308.3183 Y72.8842 Z-0.2500
G3 X308.1656 Y71.9610 I2.8473 J-0.9450
G1 X308.1530 Y70.2163 Z-0.2500
G3 X308.2824 Y69.3225 I2.9999 J-0.0218
G1 X308.7896 Y67.6529 Z-0.2500
G3 X309.1979 Y66.8109 I2.8705 J0.8720
G1 X310.2668 Y65.2756 Z-0.2500
G3 X310.9488 Y64.5748 I2.4621 J1.7140
G1 X312.4841 Y63.4430 Z-0.2500
G3 X313.3486 Y63.0009 I1.7801 J2.4147
G1 X315.2683 Y62.3927 Z-0.2500
G1 X309.1684 Y62.6083 Z-0.2500
G1 X299.3064 Y62.7103 Z-0.2500
G1 X289.4460 Y62.5679 Z-0.2500
G1 X279.5931 Y62.1836 Z-0.2500
G1 X269.7537 Y61.5602 Z-0.2500
G1 X259.9332 Y60.7008 Z-0.2500
G1 X250.1371 Y59.6082 Z-0.2500
G1 X240.3705 Y58.2859 Z-0.2500
G1 X230.6384 Y56.7370 Z-0.2500
G1 X220.9457 Y54.9650 Z-0.2500
G1 X211.2969 Y52.9733 Z-0.2500
G1 X201.6964 Y50.7656 Z-0.2500
G1 X191.6312 Y48.2074 Z-0.2500
G1 X191.2290 Y48.1452 Z-0.2500
G2 X187.7283 Y49.4369 I-0.2460 J4.7229
G1 X187.4149 Y49.8030 Z-0.2500
G1 X186.2705 Y48.8317 Z-0.2500
G1 X186.2790 Y48.8216 Z-0.2500
G3 X191.9313 Y46.7360 I4.7040 J4.0465
G1 X202.0326 Y49.3037 Z-0.2500
G1 X211.6002 Y51.5043 Z-0.2500
G1 X221.2155 Y53.4894 Z-0.2500
G1 X230.8742 Y55.2557 Z-0.2500
G1 X240.5718 Y56.7995 Z-0.2500
G1 X250.3034 Y58.1175 Z-0.2500
G1 X260.0640 Y59.2065 Z-0.2500
G1 X269.8486 Y60.0632 Z-0.2500
G1 X279.6517 Y60.6847 Z-0.2500
G1 X289.4677 Y61.0681 Z-0.2500
G1 X299.2909 Y61.2104 Z-0.2500
G1 X309.1154 Y61.1093 Z-0.2500
G1 X318.9350 Y60.7621 Z-0.2500
G1 X328.7434 Y60.1667 Z-0.2500
G1 X338.5341 Y59.3212 Z-0.2500
G1 X348.1565 Y58.2408 Z-0.2500
G3 X368.0879 Y78.4414 I2.3152 J17.6489
G3 X343.2438 Y92.1562 I-17.6162 J-2.5517
G1 X334.2519 Y88.3609 Z-0.2500
G1 X325.1035 Y84.7741 Z-0.2500
G1 X315.8672 Y81.4221 Z-0.2500
G1 X306.5497 Y78.3050 Z-0.2500
G1 X297.1580 Y75.4223 Z-0.2500
G1 X287.6983 Y72.7735 Z-0.2500
G1 X278.1772 Y70.3577 Z-0.2500
G1 X268.6011 Y68.1740 Z-0.2500
G1 X258.9760 Y66.2211 Z-0.2500
G1 X249.3080 Y64.4976 Z-0.2500
G1 X239.6029 Y63.0019 Z-0.2500
G1 X229.8664 Y61.7323 Z-0.2500
G1 X220.1041 Y60.6869 Z-0.2500
G1 X210.3214 Y59.8638 Z-0.2500
G1 X200.5233 Y59.2607 Z-0.2500
G1 X190.7480 Y58.8763 Z-0.2500
G3 X185.3470 Y55.2564 I0.1731 J-6.0974
G3 X186.2705 Y48.8317 I5.5741 J-2.4775
G1 X187.3212 Y48.6866 Z0.8107 F3000.
G1 X187.3212 Y48.6866 Z1.4107
G0 Z10.0000
G0 X187.3212 Y48.6866
G0 Z10.0000
G0 X29.6466 Y23.0806
G1 X29.6466 Y23.0806 Z0.9500 F3000.
G1 X29.6466 Y23.0806 Z0.3500
G1 X29.6461 Y23.0806 Z0.3499
G1 X29.5896 Y23.0849 Z0.3399
G1 X29.5330 Y23.0893 Z0.3299
G1 X29.4765 Y23.0939 Z0.3199
G1 X29.4200 Y23.0986 Z0.3099
G1 X29.3635 Y23.1035 Z0.2999
G1 X29.3070 Y23.1085 Z0.2899
G1 X29.2505 Y23.1137 Z0.2799
G1 X29.1940 Y23.1190 Z0.2699
G1 X29.1376 Y23.1245 Z0.2599
G1 X29.0812 Y23.1301 Z0.2499
G1 X29.0247 Y23.1358 Z0.2399
G1 X28.9683 Y23.1417 Z0.2299
G1 X28.9120 Y23.1478 Z0.2199
G1 X28.8556 Y23.1540 Z0.2099
G1 X28.7992 Y23.1603 Z0.1999
G1 X30.4954 Y23.0342 Z-0.1000
G1 X30.4388 Y23.0362 Z-0.1100
G1 X30.3821 Y23.0385 Z-0.1200
G1 X30.3254 Y23.0408 Z-0.1300
G1 X30.2688 Y23.0433 Z-0.1400
G1 X30.2121 Y23.0460 Z-0.1500
G1 X30.1555 Y23.0488 Z-0.1600
G1 X30.0989 Y23.0517 Z-0.1700
G1 X30.0422 Y23.0548 Z-0.1800
G1 X29.9856 Y23.0580 Z-0.1900
G1 X29.9290 Y23.0614 Z-0.2000
G1 X29.8724 Y23.0650 Z-0.2100
G1 X29.8158 Y23.0687 Z-0.2200
G1 X29.7592 Y23.0725 Z-0.2300
G1 X29.7027 Y23.0765 Z-0.2400
G1 X29.6461 Y23.0806 Z-0.2500
G2 X28.7992 Y23.1603 I1.6076 J21.6170 F6000.
G1 X30.4954 Y23.0342 Z-0.2500
G2 X29.6461 Y23.0806 I0.7583 J21.6634
G1 X29.6461 Y23.0806 Z0.3500 F3000.
G0 Z10.0000
G0 X29.6461 Y23.0806
G0 Z10.0000
G0 X27.1555 Y23.4194
G1 X27.1555 Y23.4194 Z0.3500 F3000.
G1 X27.7194 Y23.3110 Z0.2487
G1 X27.6822 Y23.3172 Z0.2421
G1 X27.6450 Y23.3234 Z0.2354
G1 X27.6078 Y23.3297 Z0.2288
G1 X27.5707 Y23.3361 Z0.2221
G1 X27.5335 Y23.3425 Z0.2155
G1 X27.4963 Y23.3490 Z0.2088
G1 X27.4592 Y23.3556 Z0.2022
G1 X27.4221 Y23.3623 Z0.1955
G1 X27.3850 Y23.3690 Z0.1889
G1 X27.3479 Y23.3757 Z0.1822
G1 X27.3108 Y23.3825 Z0.1756
G1 X27.2737 Y23.3894 Z0.1689
G1 X27.2366 Y23.3964 Z0.1623
G1 X27.1996 Y23.4034 Z0.1556
G1 X27.1625 Y23.4105 Z0.1490
G1 X27.1255 Y23.4177 Z0.1423
G1 X27.0885 Y23.4249 Z0.1357
G1 X27.0515 Y23.4321 Z0.1290
G1 X27.0145 Y23.4395 Z0.1224
G1 X26.9775 Y23.4469 Z0.1157
G1 X26.9405 Y23.4544 Z0.1091
G1 X26.9036 Y23.4619 Z0.1024
G1 X26.8666 Y23.4695 Z0.0958
G1 X26.8297 Y23.4772 Z0.0891
G1 X26.7928 Y23.4849 Z0.0825
G1 X26.7559 Y23.4927 Z0.0758
G1 X26.7190 Y23.5006 Z0.0692
G1 X26.6821 Y23.5085 Z0.0625
G1 X26.6453 Y23.5165 Z0.0559
G1 X26.6084 Y23.5245 Z0.0492
G1 X27.7194 Y23.3110 Z-0.1502
G1 X27.6822 Y23.3172 Z-0.1569
G1 X27.6450 Y23.3234 Z-0.1635
G1 X27.6078 Y23.3297 Z-0.1702
G1 X27.5707 Y23.3361 Z-0.1768
G1 X27.5335 Y23.3425 Z-0.1835
G1 X27.4963 Y23.3490 Z-0.1901
G1 X27.4592 Y23.3556 Z-0.1968
G1 X27.4221 Y23.3623 Z-0.2034
G1 X27.3850 Y23.3690 Z-0.2101
G1 X27.3479 Y23.3757 Z-0.2167
G1 X27.3108 Y23.3825 Z-0.2234
G1 X27.2737 Y23.3894 Z-0.2300
G1 X27.2366 Y23.3964 Z-0.2367
G1 X27.1996 Y23.4034 Z-0.2433
G1 X27.1625 Y23.4105 Z-0.2500
G2 X26.6084 Y23.5245 I4.0912 J21.2871 F6000.
G1 X27.7194 Y23.3110 Z-0.2500
G2 X27.1625 Y23.4105 I3.5343 J21.3866
G0 Z10.0000
G0 X27.1625 Y23.4105
G0 Z10.0000
G0 X182.6232 Y19.3339
G1 X182.6232 Y19.3339 Z0.9500 F3000.
G1 X182.6232 Y19.3339 Z0.3500
G1 X186.0197 Y19.1261 Z-0.2500
G2 X190.5036 Y18.7171 I0.5908 J-18.3068 F6000.
G2 X190.1239 Y17.3485 I-0.3289 J-0.6457
G1 X189.1952 Y17.5132 Z-0.2500
G1 X182.6108 Y19.3346 Z-0.2500
G1 X186.0197 Y19.1261 Z-0.2500
G1 X186.1113 Y20.6233 Z-0.2500
G1 X180.2822 Y20.9799 Z-0.2500
G1 X170.4219 Y21.8032 Z-0.2500
G1 X163.2539 Y22.5639 Z-0.2500
G1 X170.5454 Y20.8910 Z-0.2500
G1 X180.1330 Y18.4637 Z-0.2500
G1 X188.8636 Y16.0486 Z-0.2500
G3 X192.0341 Y16.8349 I1.1214 J2.2635
G3 X190.7499 Y20.2291 I-1.8595 J1.2365
G3 X186.1113 Y20.6233 I-4.4085 J-24.3875
G1 X186.0467 Y19.5646 Z0.8107 F3000.
G1 X186.0467 Y19.5646 Z1.4107
G0 Z10.0000
G0 X186.0467 Y19.5646
G0 Z10.0000
G0 X97.5931 Y32.9202
G1 X97.5931 Y32.9202 Z0.9500 F3000.
G1 X97.5931 Y32.9202 Z0.3500
G1 X97.5340 Y32.6292 Z0.2976
G1 X97.3468 Y31.9475 Z0.1730
G1 X99.7412 Y31.8009 Z-0.2500
G1 X102.1356 Y31.6543 Z-0.2500 F6000.
G1 X112.0128 Y30.8093 Z-0.2500
G1 X117.3291 Y30.2258 Z-0.2500
G1 X111.8274 Y31.4678 Z-0.2500
G1 X102.2098 Y33.8830 Z-0.2500
G1 X97.8756 Y35.0834 Z-0.2500
G2 X97.3468 Y31.9475 I-13.1912 J0.6115
G1 X99.7412 Y31.8009 Z-0.2500
G1 X99.6497 Y30.3039 Z-0.2500
G1 X95.3793 Y30.5649 Z-0.2500
G3 X96.4322 Y37.0396 I-15.6634 J5.8701
G1 X102.6101 Y35.3286 Z-0.2500
G1 X112.1926 Y32.9227 Z-0.2500
G1 X121.8277 Y30.7483 Z-0.2500
G1 X131.5090 Y28.8041 Z-0.2500
G1 X141.2306 Y27.0885 Z-0.2500
G1 X150.9868 Y25.5996 Z-0.2500
G1 X160.7718 Y24.3358 Z-0.2500
G1 X170.5802 Y23.2948 Z-0.2500
G1 X180.4070 Y22.4747 Z-0.2500
G1 X189.7526 Y21.9033 Z-0.2500
G2 X193.6545 Y16.6971 I0.2832 J-3.8531
G2 X188.5319 Y14.5840 I-3.6079 J1.4806
G1 X179.7331 Y17.0180 Z-0.2500
G1 X170.1773 Y19.4369 Z-0.2500
G1 X160.5662 Y21.6415 Z-0.2500
G1 X150.9047 Y23.6278 Z-0.2500
G1 X141.1975 Y25.3922 Z-0.2500
G1 X131.4491 Y26.9311 Z-0.2500
G1 X121.6647 Y28.2409 Z-0.2500
G1 X111.8491 Y29.3182 Z-0.2500
G1 X102.0078 Y30.1598 Z-0.2500
G1 X99.6497 Y30.3039 Z-0.2500
G1 X99.5583 Y28.8070 Z-0.2500
G1 X101.8801 Y28.6652 Z-0.2500
G1 X111.6856 Y27.8272 Z-0.2500
G1 X121.4657 Y26.7542 Z-0.2500
G1 X131.2153 Y25.4494 Z-0.2500
G1 X140.9293 Y23.9164 Z-0.2500
G1 X150.6027 Y22.1585 Z-0.2500
G1 X160.2309 Y20.1794 Z-0.2500
G1 X169.8093 Y17.9827 Z-0.2500
G1 X179.3332 Y15.5723 Z-0.2500
G1 X188.2003 Y13.1194 Z-0.2500
G3 X195.3529 Y17.2077 I1.9079 J4.9632
G3 X189.9146 Y23.3962 I-5.2447 J0.8749
G1 X180.5317 Y23.9695 Z-0.2500
G1 X170.7385 Y24.7864 Z-0.2500
G1 X160.9639 Y25.8234 Z-0.2500
G1 X151.2130 Y27.0825 Z-0.2500
G1 X141.4912 Y28.5656 Z-0.2500
G1 X131.8043 Y30.2747 Z-0.2500
G1 X122.1578 Y32.2115 Z-0.2500
G1 X112.5579 Y34.3775 Z-0.2500
G1 X103.0105 Y36.7742 Z-0.2500
G1 X94.7803 Y39.0536 Z-0.2500
G2 X93.1256 Y29.1997 I-15.7189 J-2.4263
G1 X99.5583 Y28.8070 Z-0.2500
G1 X99.4670 Y27.3101 Z-0.2500
G1 X91.9634 Y27.7678 Z-0.2500
G1 X90.4724 Y27.8226 Z-0.2500
G3 X92.7213 Y41.2131 I-11.4350 J8.8046
G1 X93.9577 Y40.8379 Z-0.2500
G1 X103.4109 Y38.2198 Z-0.2500
G1 X112.9230 Y35.8324 Z-0.2500
G1 X122.4879 Y33.6747 Z-0.2500
G1 X132.0995 Y31.7454 Z-0.2500
G1 X141.7518 Y30.0428 Z-0.2500
G1 X151.4391 Y28.5653 Z-0.2500
G1 X161.1559 Y27.3111 Z-0.2500
G1 X170.8967 Y26.2781 Z-0.2500
G1 X180.6563 Y25.4643 Z-0.2500
G1 X190.0766 Y24.8891 Z-0.2500
G2 X196.8407 Y16.9593 I0.0475 J-6.8092
G2 X187.8687 Y11.6548 I-6.7166 J1.1206
G1 X178.9333 Y14.1266 Z-0.2500
G1 X169.4413 Y16.5286 Z-0.2500
G1 X159.8956 Y18.7174 Z-0.2500
G1 X150.3007 Y20.6892 Z-0.2500
G1 X140.6612 Y22.4406 Z-0.2500
G1 X130.9815 Y23.9678 Z-0.2500
G1 X121.2668 Y25.2674 Z-0.2500
G1 X111.5220 Y26.3361 Z-0.2500
G1 X101.7524 Y27.1706 Z-0.2500
G1 X99.4670 Y27.3101 Z-0.2500
G1 X99.3758 Y25.8132 Z-0.2500
G1 X101.6248 Y25.6761 Z-0.2500
G1 X111.3586 Y24.8451 Z-0.2500
G1 X121.0680 Y23.7806 Z-0.2500
G1 X130.7478 Y22.4861 Z-0.2500
G1 X140.3931 Y20.9647 Z-0.2500
G1 X149.9988 Y19.2199 Z-0.2500
G1 X159.5604 Y17.2553 Z-0.2500
G1 X169.0734 Y15.0744 Z-0.2500
G1 X178.5333 Y12.6809 Z-0.2500
G1 X187.5370 Y10.1903 Z-0.2500
G3 X198.3285 Y16.7110 I2.5998 J7.8874
G3 X190.2385 Y26.3820 I-8.1917 J1.3667
G1 X180.7809 Y26.9591 Z-0.2500
G1 X171.0548 Y27.7697 Z-0.2500
G1 X161.3479 Y28.7987 Z-0.2500
G1 X151.6652 Y30.0482 Z-0.2500
G1 X142.0123 Y31.5200 Z-0.2500
G1 X132.3946 Y33.2161 Z-0.2500
G1 X122.8179 Y35.1380 Z-0.2500
G1 X113.2881 Y37.2873 Z-0.2500
G1 X103.8112 Y39.6654 Z-0.2500
G1 X94.3933 Y42.2732 Z-0.2500
G1 X89.8795 Y43.6430 Z-0.2500
G2 X87.0292 Y26.4470 I-10.8324 J-7.0387
G1 X91.8721 Y26.2706 Z-0.2500
G1 X99.3758 Y25.8132 Z-0.2500
G1 X99.2846 Y24.3163 Z-0.2500
G1 X91.7809 Y24.7734 Z-0.2500
G1 X82.0519 Y25.1268 Z-0.2500
G1 X79.9497 Y25.1513 Z-0.2500
G3 X83.7200 Y47.1286 I-1.0043 J11.4844
G1 X85.5118 Y46.5360 Z-0.2500
G1 X94.8289 Y43.7086 Z-0.2500
G1 X104.2114 Y41.1110 Z-0.2500
G1 X113.6531 Y38.7422 Z-0.2500
G1 X123.1479 Y36.6012 Z-0.2500
G1 X132.6897 Y34.6867 Z-0.2500
G1 X142.2727 Y32.9973 Z-0.2500
G1 X151.8913 Y31.5311 Z-0.2500
G1 X161.5398 Y30.2864 Z-0.2500
G1 X171.2129 Y29.2614 Z-0.2500
G1 X180.9054 Y28.4539 Z-0.2500
G1 X190.4004 Y27.8749 Z-0.2500
G2 X199.8163 Y16.4627 I-0.2527 J-9.7990
G2 X187.2054 Y8.7257 I-9.6686 J1.6132
G1 X178.1334 Y11.2352 Z-0.2500
G1 X168.7055 Y13.6202 Z-0.2500
G1 X159.2253 Y15.7932 Z-0.2500
G1 X149.6970 Y17.7506 Z-0.2500
G1 X140.1251 Y19.4889 Z-0.2500
G1 X130.5142 Y21.0044 Z-0.2500
G1 X120.8692 Y22.2939 Z-0.2500
G1 X111.1952 Y23.3540 Z-0.2500
G1 X101.4973 Y24.1815 Z-0.2500
G1 X99.2846 Y24.3163 Z-0.2500
G1 X99.1935 Y22.8194 Z-0.2500
G1 X101.3698 Y22.6869 Z-0.2500
G1 X111.0318 Y21.8629 Z-0.2500
G1 X120.6705 Y20.8071 Z-0.2500
G1 X130.2806 Y19.5227 Z-0.2500
G1 X139.8571 Y18.0130 Z-0.2500
G1 X149.3952 Y16.2813 Z-0.2500
G1 X158.8902 Y14.3311 Z-0.2500
G1 X168.3377 Y12.1660 Z-0.2500
G1 X177.7335 Y9.7895 Z-0.2500
G1 X186.8737 Y7.2611 Z-0.2500
G3 X201.3041 Y16.2144 I3.2837 J10.8132
G3 X190.5623 Y29.3679 I-11.1467 J1.8599
G1 X181.0299 Y29.9488 Z-0.2500
G1 X171.3709 Y30.7530 Z-0.2500
G1 X161.7316 Y31.7741 Z-0.2500
G1 X152.1173 Y33.0140 Z-0.2500
G1 X142.5331 Y34.4745 Z-0.2500
G1 X132.9847 Y36.1574 Z-0.2500
G1 X123.4778 Y38.0645 Z-0.2500
G1 X114.0180 Y40.1971 Z-0.2500
G1 X104.6116 Y42.5566 Z-0.2500
G1 X95.2644 Y45.1440 Z-0.2500
G1 X85.9828 Y47.9602 Z-0.2500
G1 X76.7731 Y51.0059 Z-0.2500
G1 X67.6420 Y54.2817 Z-0.2500
G1 X58.5961 Y57.7877 Z-0.2500
G1 X49.6419 Y61.5239 Z-0.2500
G1 X40.8219 Y65.4732 Z-0.2500
G3 X14.7761 Y60.7550 I-9.6700 J-20.8683
G3 X10.4198 Y34.6463 I16.3758 J-16.1501
G3 X32.1183 Y21.5820 I20.8339 J10.0513
G1 X43.2243 Y22.6053 Z-0.2500
G1 X52.9058 Y23.2299 Z-0.2500
G1 X62.5994 Y23.6071 Z-0.2500
G1 X72.2988 Y23.7390 Z-0.2500
G1 X81.9975 Y23.6278 Z-0.2500
G1 X91.6898 Y23.2762 Z-0.2500
G1 X99.1935 Y22.8194 Z-0.2500
G1 X99.2579 Y23.8781 Z0.8107 F3000.
G1 X99.2579 Y23.8781 Z1.4107
G0 Z10.0000
G0 X99.2579 Y23.8781
G0 Z10.0000
G0 X75.5424 Y31.1100
G1 X75.5424 Y31.1100 Z-2.0000 F3000.
G1 X79.1959 Y31.0837 Z-2.0000 F6000.
G3 X80.9859 Y41.7938 I-0.2849 J5.5523
G1 X75.2373 Y43.7091 Z-2.0000
G1 X68.9210 Y45.9294 Z-2.0000
G1 X67.7773 Y46.3535 Z-2.0000
G1 X67.7773 Y46.3535 Z0.0000
G1 X62.6429 Y48.2574 Z0.0000
G1 X58.3807 Y49.9222 Z0.0000
G1 X58.3807 Y49.9222 Z-2.0000
G1 X56.3360 Y50.7208 Z-2.0000
G1 X50.0727 Y53.2942 Z-2.0000
G1 X43.8554 Y55.9774 Z-2.0000
G1 X37.7995 Y58.7186 Z-2.0000
G3 X16.7750 Y50.6573 I-6.6464 J-14.1131
G3 X25.7065 Y29.9874 I14.3781 J-6.0518
G1 X25.7065 Y29.9874 Z0.0000
G3 X34.2236 Y29.2284 I5.6673 J15.4282
G1 X34.2236 Y29.2284 Z-2.0000
G1 X38.6403 Y29.6515 Z-2.0000
G1 X44.5054 Y30.1223 Z-2.0000
G1 X50.3768 Y30.5033 Z-2.0000
G1 X56.2601 Y30.7951 Z-2.0000
G1 X63.9638 Y31.0424 Z-2.0000
G1 X71.6707 Y31.1379 Z-2.0000
G1 X75.5424 Y31.1100 Z-2.0000
G1 X75.5424 Y31.1100 Z-4.0000
G1 X71.6707 Y31.1379 Z-4.0000
G1 X63.9638 Y31.0424 Z-4.0000
G1 X56.2601 Y30.7951 Z-4.0000
G1 X50.3768 Y30.5033 Z-4.0000
G1 X44.5054 Y30.1223 Z-4.0000
G1 X38.6403 Y29.6515 Z-4.0000
G1 X34.2236 Y29.2284 Z-4.0000
G1 X34.2236 Y29.2284 Z0.0000
G2 X25.7065 Y29.9874 I-2.8337 J16.3675
G1 X25.7065 Y29.9874 Z-4.0000
G2 X16.7750 Y50.6573 I5.4466 J14.6181
G2 X37.7995 Y58.7186 I14.3781 J-6.0518
G1 X43.8554 Y55.9774 Z-4.0000
G1 X50.0727 Y53.2942 Z-4.0000
G1 X56.3360 Y50.7208 Z-4.0000
G1 X58.3807 Y49.9222 Z-4.0000
G1 X58.3807 Y49.9222 Z0.0000
G1 X62.6429 Y48.2574 Z0.0000
G1 X67.7773 Y46.3535 Z0.0000
G1 X67.7773 Y46.3535 Z-4.0000
G1 X68.9210 Y45.9294 Z-4.0000
G1 X75.2373 Y43.7091 Z-4.0000
G1 X80.9859 Y41.7938 Z-4.0000
G2 X79.1959 Y31.0837 I-2.0749 J-5.1578
G1 X75.5424 Y31.1100 Z-4.0000
G0 Z10.0000
G0 X75.5424 Y31.1100
G0 Z10.0000
G0 X24.5241 Y117.5630
G1 X24.5241 Y117.5630 Z-2.0000 F3000.
G1 X24.3610 Y117.5887 Z-2.0000 F6000.
G1 X24.1958 Y117.5871 Z-2.0000
G1 X24.1958 Y117.5871 Z0.0000
G3 X23.7487 Y115.7491 I0.0919 J-0.9957
G1 X23.7487 Y115.7491 Z-2.0000
G1 X23.8946 Y115.6719 Z-2.0000
G1 X24.0513 Y115.6197 Z-2.0000
G1 X24.2145 Y115.5941 Z-2.0000
G1 X24.3796 Y115.5956 Z-2.0000
G1 X24.3796 Y115.5956 Z0.0000
G3 X24.8268 Y117.4336 I-0.0919 J0.9958
G1 X24.8268 Y117.4336 Z-2.0000
G1 X24.6808 Y117.5109 Z-2.0000
G1 X24.5241 Y117.5630 Z-2.0000
G1 X24.5241 Y117.5630 Z-4.0000
G1 X24.6808 Y117.5109 Z-4.0000
G1 X24.8268 Y117.4336 Z-4.0000
G1 X24.8268 Y117.4336 Z0.0000
G2 X24.3796 Y115.5956 I-0.5391 J-0.8422
G1 X24.3796 Y115.5956 Z-4.0000
G1 X24.2145 Y115.5941 Z-4.0000
G1 X24.0513 Y115.6197 Z-4.0000
G1 X23.8946 Y115.6719 Z-4.0000
G1 X23.7487 Y115.7491 Z-4.0000
G1 X23.7487 Y115.7491 Z0.0000
G2 X24.1958 Y117.5871 I0.5390 J0.8423
G1 X24.1958 Y117.5871 Z-4.0000
G1 X24.3610 Y117.5887 Z-4.0000
G1 X24.5241 Y117.5630 Z-4.0000
G0 Z10.0000
G0 X24.5241 Y117.5630
G0 Z10.0000
G0 X196.1873 Y185.2209
G1 X196.1873 Y185.2209 Z-2.0000 F3000.
G1 X195.6546 Y190.3398 Z-2.0000 F6000.
G1 X194.8362 Y200.5239 Z-2.0000
G1 X194.3409 Y209.0058 Z-2.0000
G1 X194.0158 Y217.4951 Z-2.0000
G1 X193.8660 Y225.5877 Z-2.0000
G1 X193.8740 Y233.6857 Z-2.0000
G1 X194.0705 Y242.7032 Z-2.0000
G1 X194.4668 Y251.7160 Z-2.0000
G1 X195.0901 Y261.0424 Z-2.0000
G1 X195.9313 Y270.3482 Z-2.0000
G1 X196.8562 Y278.5400 Z-2.0000
G1 X197.9535 Y286.7104 Z-2.0000
G1 X199.1948 Y294.6788 Z-2.0000
G1 X199.8372 Y298.3015 Z-2.0000
G1 X199.8372 Y298.3015 Z0.0000
G1 X200.6028 Y302.6188 Z0.0000
G1 X201.7100 Y308.1874 Z0.0000
G1 X201.7100 Y308.1874 Z-2.0000
G1 X202.1153 Y310.2259 Z-2.0000
G1 X203.7835 Y317.8009 Z-2.0000
G1 X205.6079 Y325.3402 Z-2.0000
G3 X208.1944 Y335.6619 I-112.9752 J33.7954
G3 X181.0245 Y365.6664 I-25.6825 J4.0476
G3 X157.4599 Y332.7547 I1.4874 J-25.9569
G1 X159.3640 Y325.5520 Z-2.0000
G1 X161.1294 Y318.2867 Z-2.0000
G1 X162.7497 Y310.9881 Z-2.0000
G1 X164.2256 Y303.6575 Z-2.0000
G1 X165.6347 Y295.8447 Z-2.0000
G1 X166.8805 Y288.0152 Z-2.0000
G1 X167.6185 Y282.8049 Z-2.0000
G1 X168.2861 Y277.5854 Z-2.0000
G1 X168.8835 Y272.3575 Z-2.0000
G1 X169.4111 Y267.1202 Z-2.0000
G1 X169.9158 Y261.2927 Z-2.0000
G1 X170.3349 Y255.4587 Z-2.0000
G1 X170.6689 Y249.6194 Z-2.0000
G1 X170.9184 Y243.7769 Z-2.0000
G1 X171.0337 Y239.7344 Z-2.0000
G1 X171.0337 Y239.7344 Z0.0000
G1 X171.0800 Y238.1104 Z0.0000
G1 X171.1631 Y232.4424 Z0.0000
G1 X171.1656 Y229.6528 Z0.0000
G1 X171.1656 Y229.6528 Z-2.0000
G1 X171.1682 Y226.7741 Z-2.0000
G1 X171.0960 Y221.1076 Z-2.0000
G1 X170.9570 Y215.7515 Z-2.0000
G1 X170.7497 Y210.3977 Z-2.0000
G1 X170.4746 Y205.0473 Z-2.0000
G1 X170.1310 Y199.6855 Z-2.0000
G1 X169.3286 Y189.8841 Z-2.0000
G1 X168.3182 Y180.2317 Z-2.0000
G3 X182.5131 Y164.1926 I14.1945 J-1.7384
G3 X196.7072 Y180.2323 I-0.0004 J14.3007
G1 X196.1873 Y185.2209 Z-2.0000
G1 X196.1873 Y185.2209 Z-4.0000
G2 X196.7470 Y177.1640 I-43.9146 J-7.0987
G2 X180.9763 Y164.2757 I-14.2367 J1.3276
G2 X168.3182 Y180.2317 I1.5340 J14.2159
G1 X169.3286 Y189.8841 Z-4.0000
G1 X170.1310 Y199.6855 Z-4.0000
G1 X170.4746 Y205.0473 Z-4.0000
G1 X170.7497 Y210.3977 Z-4.0000
G1 X170.9570 Y215.7515 Z-4.0000
G1 X171.0960 Y221.1076 Z-4.0000
G1 X171.1682 Y226.7741 Z-4.0000
G1 X171.1656 Y229.6528 Z-4.0000
G1 X171.1656 Y229.6528 Z0.0000
G1 X171.1631 Y232.4424 Z0.0000
G1 X171.0800 Y238.1104 Z0.0000
G1 X171.0337 Y239.7344 Z0.0000
G1 X171.0337 Y239.7344 Z-4.0000
G1 X170.9184 Y243.7769 Z-4.0000
G1 X170.6689 Y249.6194 Z-4.0000
G1 X170.3349 Y255.4587 Z-4.0000
G1 X169.9158 Y261.2927 Z-4.0000
G1 X169.4111 Y267.1202 Z-4.0000
G1 X168.8835 Y272.3575 Z-4.0000
G1 X168.2861 Y277.5854 Z-4.0000
G1 X167.6185 Y282.8049 Z-4.0000
G1 X166.8805 Y288.0152 Z-4.0000
G1 X165.6347 Y295.8447 Z-4.0000
G1 X164.2256 Y303.6575 Z-4.0000
G1 X162.7497 Y310.9881 Z-4.0000
G1 X161.1294 Y318.2867 Z-4.0000
G1 X159.3640 Y325.5520 Z-4.0000
G2 X156.8311 Y335.6619 I109.9129 J32.9093
G2 X184.0012 Y365.6664 I25.6825 J4.0476
G2 X207.5654 Y332.7542 I-1.4876 J-25.9569
G1 X205.6079 Y325.3402 Z-4.0000
G1 X203.7835 Y317.8009 Z-4.0000
G1 X202.1153 Y310.2259 Z-4.0000
G1 X201.7100 Y308.1874 Z-4.0000
G1 X201.7100 Y308.1874 Z0.0000
G1 X200.6028 Y302.6188 Z0.0000
G1 X199.8372 Y298.3015 Z0.0000
G1 X199.8372 Y298.3015 Z-4.0000
G1 X199.1948 Y294.6788 Z-4.0000
G1 X197.9535 Y286.7104 Z-4.0000
G1 X196.8562 Y278.5400 Z-4.0000
G1 X195.9313 Y270.3482 Z-4.0000
G1 X195.0901 Y261.0424 Z-4.0000
G1 X194.4668 Y251.7160 Z-4.0000
G1 X194.0705 Y242.7032 Z-4.0000
G1 X193.8740 Y233.6857 Z-4.0000
G1 X193.8660 Y225.5877 Z-4.0000
G1 X194.0158 Y217.4951 Z-4.0000
G1 X194.3409 Y209.0058 Z-4.0000
G1 X194.8362 Y200.5239 Z-4.0000
G1 X195.6546 Y190.3398 Z-4.0000
G1 X196.1873 Y185.2209 Z-4.0000
G0 Z10.0000
G0 X196.1873 Y185.2209
G0 Z10.0000
G0 X235.7200 Y119.9918
G1 X235.7200 Y119.9918 Z-2.0000 F3000.
G3 X231.6985 Y124.1381 I-4.2257 J-0.0751 F6000.
G1 X222.9272 Y125.5643 Z-2.0000
G1 X214.2040 Y127.1855 Z-2.0000
G1 X209.1945 Y128.2098 Z-2.0000
G1 X208.5052 Y128.3602 Z-2.0000
G1 X208.5052 Y128.3602 Z0.0000
G1 X204.1987 Y129.3000 Z0.0000
G1 X199.2176 Y130.4562 Z0.0000
G1 X198.6757 Y130.5896 Z0.0000
G1 X198.6757 Y130.5896 Z-2.0000
G3 X191.3566 Y132.0634 I-10.6506 J-33.9821
G3 X178.2094 Y117.2822 I-0.2728 J-12.9948
G3 X194.8843 Y106.6390 I12.8744 J1.7864
G1 X199.1623 Y107.8640 Z-2.0000
G1 X199.1623 Y107.8640 Z0.0000
G1 X202.3781 Y108.7849 Z0.0000
G1 X208.8711 Y110.5018 Z0.0000
G1 X208.8711 Y110.5018 Z-2.0000
G1 X209.9805 Y110.7952 Z-2.0000
G1 X217.6216 Y112.6510 Z-2.0000
G1 X225.2941 Y114.3521 Z-2.0000
G3 X232.7443 Y115.8675 I-32.9442 J181.0329
G3 X235.7200 Y119.9918 I-1.2452 J4.0340
G1 X235.7200 Y119.9918 Z-4.0000
G2 X232.0680 Y115.7166 I-4.2255 J-0.0878
G1 X225.2941 Y114.3521 Z-4.0000
G1 X217.6216 Y112.6510 Z-4.0000
G1 X209.9805 Y110.7952 Z-4.0000
G1 X208.8711 Y110.5018 Z-4.0000
G1 X208.8711 Y110.5018 Z0.0000
G1 X202.3781 Y108.7849 Z0.0000
G1 X199.1623 Y107.8640 Z0.0000
G1 X199.1623 Y107.8640 Z-4.0000
G2 X191.8919 Y106.1017 I-12.3074 J34.8961
G2 X178.1463 Y120.3255 I-0.8084 J12.9724
G2 X194.3633 Y131.6510 I12.9372 J-1.2514
G1 X198.6757 Y130.5896 Z-4.0000
G1 X198.6757 Y130.5896 Z0.0000
G1 X199.2176 Y130.4562 Z0.0000
G1 X204.1987 Y129.3000 Z0.0000
G1 X208.5052 Y128.3602 Z0.0000
G1 X208.5052 Y128.3602 Z-4.0000
G1 X209.1945 Y128.2098 Z-4.0000
G1 X214.2040 Y127.1855 Z-4.0000
G1 X222.9272 Y125.5643 Z-4.0000
G1 X231.6985 Y124.1381 Z-4.0000
G2 X235.7200 Y119.9918 I-0.2042 J-4.2214
G0 Z10.0000
G0 X235.7200 Y119.9918
G0 Z10.0000
G0 X320.5424 Y75.2434
G1 X320.5424 Y75.2434 Z-2.0000 F3000.
G1 X315.6675 Y73.5263 Z-2.0000 F6000.
G3 X316.4365 Y68.2783 I1.2157 J-2.5022
G1 X322.4433 Y67.9898 Z-2.0000
G1 X323.4739 Y67.9239 Z-2.0000
G1 X323.4739 Y67.9239 Z0.0000
G1 X328.7126 Y67.5887 Z0.0000
G1 X333.4921 Y67.2130 Z0.0000
G1 X333.4921 Y67.2130 Z-2.0000
G1 X333.8444 Y67.1853 Z-2.0000
G1 X338.9705 Y66.7143 Z-2.0000
G1 X344.0902 Y66.1755 Z-2.0000
G3 X351.5348 Y65.5494 I6.7042 J35.1437
G3 X353.8449 Y85.7068 I-1.0481 J10.3312
G1 X353.8449 Y85.7068 Z0.0000
G3 X346.2159 Y85.3790 I-3.4048 J-9.6973
G1 X346.2159 Y85.3790 Z-2.0000
G1 X338.9943 Y82.3076 Z-2.0000
G1 X331.6478 Y79.3584 Z-2.0000
G1 X324.2435 Y76.5587 Z-2.0000
G1 X320.5424 Y75.2434 Z-2.0000
G1 X320.5424 Y75.2434 Z-4.0000
G1 X324.2435 Y76.5587 Z-4.0000
G1 X331.6478 Y79.3584 Z-4.0000
G1 X338.9943 Y82.3076 Z-4.0000
G1 X346.2159 Y85.3790 Z-4.0000
G1 X346.2159 Y85.3790 Z0.0000
G2 X353.8449 Y85.7068 I4.2268 J-9.4312
G1 X353.8449 Y85.7068 Z-4.0000
G2 X349.0887 Y65.5824 I-3.3649 J-9.8289
G1 X344.0902 Y66.1755 Z-4.0000
G1 X338.9705 Y66.7143 Z-4.0000
G1 X333.8444 Y67.1853 Z-4.0000
G1 X333.4921 Y67.2130 Z-4.0000
G1 X333.4921 Y67.2130 Z0.0000
G1 X328.7126 Y67.5887 Z0.0000
G1 X323.4739 Y67.9239 Z0.0000
G1 X323.4739 Y67.9239 Z-4.0000
G1 X322.4433 Y67.9898 Z-4.0000
G1 X316.4365 Y68.2783 Z-4.0000
G2 X315.6675 Y73.5263 I0.4467 J2.7458
G1 X320.5424 Y75.2434 Z-4.0000
G0 Z10.0000
G0 X320.5424 Y75.2434
G0 Z10.0000
G0 X350.3937 Y181.1090
G1 X350.3937 Y181.1090 Z-2.0000 F3000.
G1 X349.8610 Y186.2279 Z-2.0000 F6000.
G1 X349.0426 Y196.4120 Z-2.0000
G1 X348.5473 Y204.8939 Z-2.0000
G1 X348.2222 Y213.3832 Z-2.0000
G1 X348.0724 Y221.4758 Z-2.0000
G1 X348.0804 Y229.5738 Z-2.0000
G1 X348.2769 Y238.5913 Z-2.0000
G1 X348.6732 Y247.6041 Z-2.0000
G1 X349.2965 Y256.9305 Z-2.0000
G1 X350.1377 Y266.2363 Z-2.0000
G1 X351.0626 Y274.4281 Z-2.0000
G1 X352.1598 Y282.5985 Z-2.0000
G1 X353.4012 Y290.5669 Z-2.0000
G1 X354.0436 Y294.1896 Z-2.0000
G1 X354.0436 Y294.1896 Z0.0000
G1 X354.8092 Y298.5069 Z0.0000
G1 X355.9164 Y304.0755 Z0.0000
G1 X355.9164 Y304.0755 Z-2.0000
G1 X356.3217 Y306.1140 Z-2.0000
G1 X357.9899 Y313.6890 Z-2.0000
G1 X359.8143 Y321.2283 Z-2.0000
G3 X362.4008 Y331.5500 I-112.9749 J33.7953
G3 X335.2309 Y361.5545 I-25.6825 J4.0476
G3 X311.6663 Y328.6428 I1.4874 J-25.9569
G1 X313.5703 Y321.4401 Z-2.0000
G1 X315.3358 Y314.1748 Z-2.0000
G1 X316.9561 Y306.8762 Z-2.0000
G1 X318.4320 Y299.5456 Z-2.0000
G1 X319.8411 Y291.7328 Z-2.0000
G1 X321.0868 Y283.9033 Z-2.0000
G1 X321.8249 Y278.6930 Z-2.0000
G1 X322.4925 Y273.4735 Z-2.0000
G1 X323.0899 Y268.2456 Z-2.0000
G1 X323.6175 Y263.0083 Z-2.0000
G1 X324.1222 Y257.1808 Z-2.0000
G1 X324.5413 Y251.3468 Z-2.0000
G1 X324.8753 Y245.5075 Z-2.0000
G1 X325.1248 Y239.6650 Z-2.0000
G1 X325.2401 Y235.6225 Z-2.0000
G1 X325.2401 Y235.6225 Z0.0000
G1 X325.2864 Y233.9985 Z0.0000
G1 X325.3695 Y228.3305 Z0.0000
G1 X325.3720 Y225.5409 Z0.0000
G1 X325.3720 Y225.5409 Z-2.0000
G1 X325.3746 Y222.6622 Z-2.0000
G1 X325.3024 Y216.9957 Z-2.0000
G1 X325.1634 Y211.6396 Z-2.0000
G1 X324.9561 Y206.2858 Z-2.0000
G1 X324.6810 Y200.9354 Z-2.0000
G1 X324.3374 Y195.5736 Z-2.0000
G1 X323.5350 Y185.7722 Z-2.0000
G1 X322.5245 Y176.1198 Z-2.0000
G3 X336.7195 Y160.0807 I14.1946 J-1.7384
G3 X350.9136 Y176.1204 I-0.0004 J14.3007
G1 X350.3937 Y181.1090 Z-2.0000
G1 X350.3937 Y181.1090 Z-4.0000
G2 X350.9534 Y173.0521 I-43.9145 J-7.0987
G2 X335.1827 Y160.1638 I-14.2367 J1.3276
G2 X322.5245 Y176.1198 I1.5340 J14.2159
G1 X323.5350 Y185.7722 Z-4.0000
G1 X324.3374 Y195.5736 Z-4.0000
G1 X324.6810 Y200.9354 Z-4.0000
G1 X324.9561 Y206.2858 Z-4.0000
G1 X325.1634 Y211.6396 Z-4.0000
G1 X325.3024 Y216.9957 Z-4.0000
G1 X325.3746 Y222.6622 Z-4.0000
G1 X325.3720 Y225.5409 Z-4.0000
G1 X325.3720 Y225.5409 Z0.0000
G1 X325.3695 Y228.3305 Z0.0000
G1 X325.2864 Y233.9985 Z0.0000
G1 X325.2401 Y235.6225 Z0.0000
G1 X325.2401 Y235.6225 Z-4.0000
G1 X325.1248 Y239.6650 Z-4.0000
G1 X324.8753 Y245.5075 Z-4.0000
G1 X324.5413 Y251.3468 Z-4.0000
G1 X324.1222 Y257.1808 Z-4.0000
G1 X323.6175 Y263.0083 Z-4.0000
G1 X323.0899 Y268.2456 Z-4.0000
G1 X322.4925 Y273.4735 Z-4.0000
G1 X321.8249 Y278.6930 Z-4.0000
G1 X321.0868 Y283.9033 Z-4.0000
G1 X319.8411 Y291.7328 Z-4.0000
G1 X318.4320 Y299.5456 Z-4.0000
G1 X316.9561 Y306.8762 Z-4.0000
G1 X315.3358 Y314.1748 Z-4.0000
G1 X313.5703 Y321.4401 Z-4.0000
G2 X311.0375 Y331.5500 I109.9133 J32.9094
G2 X338.2076 Y361.5545 I25.6825 J4.0476
G2 X361.7718 Y328.6423 I-1.4876 J-25.9569
G1 X359.8143 Y321.2283 Z-4.0000
G1 X357.9899 Y313.6890 Z-4.0000
G1 X356.3217 Y306.1140 Z-4.0000
G1 X355.9164 Y304.0755 Z-4.0000
G1 X355.9164 Y304.0755 Z0.0000
G1 X354.8092 Y298.5069 Z0.0000
G1 X354.0436 Y294.1896 Z0.0000
G1 X354.0436 Y294.1896 Z-4.0000
G1 X353.4012 Y290.5669 Z-4.0000
G1 X352.1598 Y282.5985 Z-4.0000
G1 X351.0626 Y274.4281 Z-4.0000
G1 X350.1377 Y266.2363 Z-4.0000
G1 X349.2965 Y256.9305 Z-4.0000
G1 X348.6732 Y247.6041 Z-4.0000
G1 X348.2769 Y238.5913 Z-4.0000
G1 X348.0804 Y229.5738 Z-4.0000
G1 X348.0724 Y221.4758 Z-4.0000
G1 X348.2222 Y213.3832 Z-4.0000
G1 X348.5473 Y204.8939 Z-4.0000
G1 X349.0426 Y196.4120 Z-4.0000
G1 X349.8610 Y186.2279 Z-4.0000
G1 X350.3937 Y181.1090 Z-4.0000
G0 Z10.0000
G0 X350.3937 Y181.1090
G0 Z10.0000
G0 X244.8031 Y342.0870
G1 X244.8031 Y342.0870 Z-2.0000 F3000.
G1 X245.3326 Y336.9987 Z-2.0000 F6000.
G1 X246.1460 Y326.8757 Z-2.0000
G1 X246.6383 Y318.4459 Z-2.0000
G1 X246.9615 Y310.0087 Z-2.0000
G1 X247.1103 Y301.9667 Z-2.0000
G1 X247.1024 Y293.9193 Z-2.0000
G1 X246.9071 Y284.9594 Z-2.0000
G1 X246.5133 Y276.0041 Z-2.0000
G1 X245.8941 Y266.7385 Z-2.0000
G1 X245.0584 Y257.4934 Z-2.0000
G1 X244.1396 Y249.3561 Z-2.0000
G1 X243.0497 Y241.2400 Z-2.0000
G1 X241.8168 Y233.3254 Z-2.0000
G1 X240.4182 Y225.4391 Z-2.0000
G1 X240.3180 Y224.9353 Z-2.0000
G1 X240.3180 Y224.9353 Z0.0000
G1 X238.9162 Y217.8847 Z0.0000
G1 X238.2983 Y215.0790 Z0.0000
G1 X238.2983 Y215.0790 Z-2.0000
G1 X237.2596 Y210.3622 Z-2.0000
G1 X235.4479 Y202.8751 Z-2.0000
G3 X232.8135 Y192.3201 I115.4085 J-34.4100
G3 X262.6950 Y159.3147 I28.2507 J-4.4525
G3 X288.6243 Y195.5076 I-1.6308 J28.5529
G1 X287.3518 Y200.2560 Z-2.0000
G1 X286.1353 Y205.0518 Z-2.0000
G1 X284.9829 Y209.8632 Z-2.0000
G1 X283.8931 Y214.6958 Z-2.0000
G1 X282.5395 Y221.1614 Z-2.0000
G1 X281.3005 Y227.6430 Z-2.0000
G1 X280.4392 Y232.5549 Z-2.0000
G1 X279.6422 Y237.4774 Z-2.0000
G1 X278.9093 Y242.4097 Z-2.0000
G1 X278.2395 Y247.3575 Z-2.0000
G1 X277.4391 Y254.0235 Z-2.0000
G1 X276.7536 Y260.7020 Z-2.0000
G1 X276.1820 Y267.3908 Z-2.0000
G1 X275.7238 Y274.0873 Z-2.0000
G1 X275.3854 Y280.6241 Z-2.0000
G1 X275.1534 Y287.1651 Z-2.0000
G1 X275.0556 Y292.2206 Z-2.0000
G1 X275.0556 Y292.2206 Z0.0000
G1 X275.0268 Y293.7087 Z0.0000
G1 X275.0051 Y300.2518 Z0.0000
G1 X275.0301 Y302.3145 Z0.0000
G1 X275.0301 Y302.3145 Z-2.0000
G1 X275.0798 Y306.4207 Z-2.0000
G1 X275.2461 Y312.5874 Z-2.0000
G1 X275.5034 Y318.7508 Z-2.0000
G1 X275.8508 Y324.9073 Z-2.0000
G1 X276.2427 Y330.4799 Z-2.0000
G1 X276.7074 Y336.0466 Z-2.0000
G1 X277.2444 Y341.6066 Z-2.0000
G3 X277.8866 Y350.6543 I-46.3931 J7.8395
G3 X259.2563 Y365.8874 I-16.8255 J-1.5687
G3 X244.2863 Y347.0451 I1.8048 J-16.8018
G1 X244.8031 Y342.0870 Z-2.0000
G1 X244.8031 Y342.0870 Z-4.0000
G2 X244.2404 Y350.6543 I46.5880 J7.3619
G2 X262.8665 Y365.8878 I16.8253 J-1.5685
G2 X277.8412 Y347.0530 I-1.8008 J-16.8020
G1 X277.2444 Y341.6066 Z-4.0000
G1 X276.7074 Y336.0466 Z-4.0000
G1 X276.2427 Y330.4799 Z-4.0000
G1 X275.8508 Y324.9073 Z-4.0000
G1 X275.5034 Y318.7508 Z-4.0000
G1 X275.2461 Y312.5874 Z-4.0000
G1 X275.0798 Y306.4207 Z-4.0000
G1 X275.0301 Y302.3145 Z-4.0000
G1 X275.0301 Y302.3145 Z0.0000
G1 X275.0051 Y300.2518 Z0.0000
G1 X275.0268 Y293.7087 Z0.0000
G1 X275.0556 Y292.2206 Z0.0000
G1 X275.0556 Y292.2206 Z-4.0000
G1 X275.1534 Y287.1651 Z-4.0000
G1 X275.3854 Y280.6241 Z-4.0000
G1 X275.7238 Y274.0873 Z-4.0000
G1 X276.1820 Y267.3908 Z-4.0000
G1 X276.7536 Y260.7020 Z-4.0000
G1 X277.4391 Y254.0235 Z-4.0000
G1 X278.2395 Y247.3575 Z-4.0000
G1 X278.9093 Y242.4097 Z-4.0000
G1 X279.6422 Y237.4774 Z-4.0000
G1 X280.4392 Y232.5549 Z-4.0000
G1 X281.3005 Y227.6430 Z-4.0000
G1 X282.5395 Y221.1614 Z-4.0000
G1 X283.8931 Y214.6958 Z-4.0000
G1 X284.9829 Y209.8632 Z-4.0000
G1 X286.1353 Y205.0518 Z-4.0000
G1 X287.3518 Y200.2560 Z-4.0000
G2 X289.5221 Y190.6948 I-46.2168 J-15.5175
G2 X258.6118 Y159.3734 I-28.4595 J-2.8271
G2 X233.5040 Y195.5131 I2.4508 J28.4943
G1 X235.4479 Y202.8751 Z-4.0000
G1 X237.2596 Y210.3622 Z-4.0000
G1 X238.2983 Y215.0790 Z-4.0000
G1 X238.2983 Y215.0790 Z0.0000
G1 X238.9162 Y217.8847 Z0.0000
G1 X240.3180 Y224.9353 Z0.0000
G1 X240.3180 Y224.9353 Z-4.0000
G1 X240.4182 Y225.4391 Z-4.0000
G1 X241.8168 Y233.3254 Z-4.0000
G1 X243.0497 Y241.2400 Z-4.0000
G1 X244.1396 Y249.3561 Z-4.0000
G1 X245.0584 Y257.4934 Z-4.0000
G1 X245.8941 Y266.7385 Z-4.0000
G1 X246.5133 Y276.0041 Z-4.0000
G1 X246.9071 Y284.9594 Z-4.0000
G1 X247.1024 Y293.9193 Z-4.0000
G1 X247.1103 Y301.9667 Z-4.0000
G1 X246.9615 Y310.0087 Z-4.0000
G1 X246.6383 Y318.4459 Z-4.0000
G1 X246.1460 Y326.8757 Z-4.0000
G1 X245.3326 Y336.9987 Z-4.0000
G1 X244.8031 Y342.0870 Z-4.0000
G0 Z10.0000
G0 X244.8031 Y342.0870
G0 Z10.0000
G0 X117.8138 Y267.0156
G1 X117.8138 Y267.0156 Z-2.0000 F3000.
G1 X117.4350 Y271.9496 Z-2.0000 F6000.
G1 X117.1397 Y277.0237 Z-2.0000
G1 X116.9079 Y282.1010 Z-2.0000
G1 X116.7392 Y287.1805 Z-2.0000
G1 X116.6333 Y292.2787 Z-2.0000
G1 X116.6060 Y302.1039 Z-2.0000
G1 X116.8094 Y311.9245 Z-2.0000
G1 X117.2135 Y321.2378 Z-2.0000
G1 X117.8202 Y330.5372 Z-2.0000
G1 X118.5633 Y339.1614 Z-2.0000
G1 X119.4638 Y347.6475 Z-2.0000
G3 X105.1423 Y360.4537 I-11.5989 J1.4398
G1 X105.1423 Y360.4537 Z0.0000
G3 X98.5071 Y356.1053 I2.6041 J-11.2100
G1 X98.5071 Y356.1053 Z-2.0000
G3 X96.2395 Y347.6498 I9.2958 J-7.0247
G1 X97.0115 Y340.4783 Z-2.0000
G1 X97.6699 Y333.2295 Z-2.0000
G1 X98.2066 Y325.9703 Z-2.0000
G1 X98.6204 Y318.6980 Z-2.0000
G1 X98.9485 Y310.1259 Z-2.0000
G1 X99.1022 Y301.5559 Z-2.0000
G1 X99.1019 Y295.0969 Z-2.0000
G1 X99.0010 Y288.6385 Z-2.0000
G1 X98.7988 Y282.1820 Z-2.0000
G1 X98.4944 Y275.7286 Z-2.0000
G1 X98.0747 Y269.1032 Z-2.0000
G1 X97.5457 Y262.4853 Z-2.0000
G1 X96.9069 Y255.8767 Z-2.0000
G1 X96.1567 Y249.2724 Z-2.0000
G1 X95.0369 Y240.8587 Z-2.0000
G1 X93.7347 Y232.4728 Z-2.0000
G1 X92.3456 Y224.6312 Z-2.0000
G1 X90.7960 Y216.8277 Z-2.0000
G1 X89.5509 Y211.1034 Z-2.0000
G1 X88.2175 Y205.3987 Z-2.0000
G1 X86.7954 Y199.7152 Z-2.0000
G3 X84.7384 Y191.5105 I84.8655 J-25.6369
G3 X110.9406 Y164.6818 I23.1018 J-3.6472
G1 X110.9406 Y164.6818 Z0.0000
G3 X119.3801 Y167.5076 I-2.9641 J22.8680
G1 X119.3801 Y167.5076 Z-2.0000
G3 X130.3983 Y194.1306 I-11.5260 J20.3617
G1 X128.7138 Y200.4700 Z-2.0000
G1 X127.1342 Y206.8657 Z-2.0000
G1 X125.6665 Y213.2877 Z-2.0000
G1 X124.3096 Y219.7388 Z-2.0000
G1 X122.8346 Y227.4757 Z-2.0000
G1 X121.5179 Y235.2435 Z-2.0000
G1 X120.2581 Y243.7707 Z-2.0000
G1 X119.1858 Y252.3277 Z-2.0000
G1 X118.1887 Y262.1370 Z-2.0000
G1 X117.8138 Y267.0156 Z-2.0000
G1 X117.8138 Y267.0156 Z-4.0000
G1 X118.1887 Y262.1370 Z-4.0000
G1 X119.1858 Y252.3277 Z-4.0000
G1 X120.2581 Y243.7707 Z-4.0000
G1 X121.5179 Y235.2435 Z-4.0000
G1 X122.8346 Y227.4757 Z-4.0000
G1 X124.3096 Y219.7388 Z-4.0000
G1 X125.6665 Y213.2877 Z-4.0000
G1 X127.1342 Y206.8657 Z-4.0000
G1 X128.7138 Y200.4700 Z-4.0000
G2 X130.9651 Y191.5105 I-94.8036 J-28.5843
G2 X119.3801 Y167.5076 I-23.1072 J-3.6445
G1 X119.3801 Y167.5076 Z0.0000
G2 X110.9406 Y164.6818 I-11.4245 J20.1046
G1 X110.9406 Y164.6818 Z-4.0000
G2 X85.3048 Y194.1292 I-3.0995 J23.1841
G1 X86.7954 Y199.7152 Z-4.0000
G1 X88.2175 Y205.3987 Z-4.0000
G1 X89.5509 Y211.1034 Z-4.0000
G1 X90.7960 Y216.8277 Z-4.0000
G1 X92.3456 Y224.6312 Z-4.0000
G1 X93.7347 Y232.4728 Z-4.0000
G1 X95.0369 Y240.8587 Z-4.0000
G1 X96.1567 Y249.2724 Z-4.0000
G1 X96.9069 Y255.8767 Z-4.0000
G1 X97.5457 Y262.4853 Z-4.0000
G1 X98.0747 Y269.1032 Z-4.0000
G1 X98.4944 Y275.7286 Z-4.0000
G1 X98.7988 Y282.1820 Z-4.0000
G1 X99.0010 Y288.6385 Z-4.0000
G1 X99.1019 Y295.0969 Z-4.0000
G1 X99.1022 Y301.5559 Z-4.0000
G1 X98.9485 Y310.1259 Z-4.0000
G1 X98.6204 Y318.6980 Z-4.0000
G1 X98.2066 Y325.9703 Z-4.0000
G1 X97.6699 Y333.2295 Z-4.0000
G1 X97.0115 Y340.4783 Z-4.0000
G1 X96.2395 Y347.6498 Z-4.0000
G2 X98.5071 Y356.1053 I11.5634 J1.4308
G1 X98.5071 Y356.1053 Z0.0000
G2 X105.1423 Y360.4537 I9.2401 J-6.8629
G1 X105.1423 Y360.4537 Z-4.0000
G2 X119.4638 Y347.6475 I2.7243 J-11.3645
G1 X118.5633 Y339.1614 Z-4.0000
G1 X117.8202 Y330.5372 Z-4.0000
G1 X117.2135 Y321.2378 Z-4.0000
G1 X116.8094 Y311.9245 Z-4.0000
G1 X116.6060 Y302.1039 Z-4.0000
G1 X116.6333 Y292.2787 Z-4.0000
G1 X116.7392 Y287.1805 Z-4.0000
G1 X116.9079 Y282.1010 Z-4.0000
G1 X117.1397 Y277.0237 Z-4.0000
G1 X117.4350 Y271.9496 Z-4.0000
G1 X117.8138 Y267.0156 Z-4.0000
G0 Z10.0000
G0 X117.8138 Y267.0156
G0 Z10.0000
G0 X36.4826 Y322.6870
G1 X36.4826 Y322.6870 Z-2.0000 F3000.
G3 X52.9063 Y328.7617 I4.1489 J14.0221 F6000.
G1 X52.9063 Y328.7617 Z0.0000
G3 X55.2523 Y336.6402 I-12.2325 J7.9310
G1 X55.2523 Y336.6402 Z-2.0000
G3 X28.3222 Y344.6006 I-14.6196 J0.0742
G1 X28.3222 Y344.6006 Z0.0000
G3 X26.0077 Y336.7128 I12.2662 J-7.8828
G1 X26.0077 Y336.7128 Z-2.0000
G3 X36.4826 Y322.6870 I14.6232 J-0.0032
G1 X36.4826 Y322.6870 Z-4.0000
G2 X26.0077 Y336.7128 I4.1484 J14.0226
G1 X26.0077 Y336.7128 Z0.0000
G2 X28.3222 Y344.6006 I14.5807 J0.0050
G1 X28.3222 Y344.6006 Z-4.0000
G2 X55.2523 Y336.6402 I12.3105 J-7.8862
G1 X55.2523 Y336.6402 Z0.0000
G2 X52.9063 Y328.7617 I-14.5785 J0.0525
G1 X52.9063 Y328.7617 Z-4.0000
G2 X36.4826 Y322.6870 I-12.2748 J7.9473
G0 Z10.0000
G0 X36.4826 Y322.6870
G0 Z10.0000
G0 X1.1623 Y122.2176
G1 X1.1623 Y122.2176 Z-2.0000 F3000.
G2 X35.2062 Y137.7519 I23.1367 J-5.6335 F6000.
G1 X43.4531 Y133.2833 Z-2.0000
G1 X51.1497 Y129.3481 Z-2.0000
G1 X58.9348 Y125.5894 Z-2.0000
G1 X66.8042 Y122.0076 Z-2.0000
G1 X74.4187 Y118.7422 Z-2.0000
G1 X82.1032 Y115.6393 Z-2.0000
G1 X89.3780 Y112.8741 Z-2.0000
G1 X91.3738 Y112.1602 Z-2.0000
G1 X91.3738 Y112.1602 Z0.0000
G1 X96.7119 Y110.2507 Z0.0000
G1 X100.7666 Y108.8740 Z0.0000
G1 X100.7666 Y108.8740 Z-2.0000
G1 X101.5338 Y108.6135 Z-2.0000
G1 X106.3811 Y107.0361 Z-2.0000
G1 X111.2483 Y105.5202 Z-2.0000
G1 X116.1322 Y104.0663 Z-2.0000
G1 X122.2450 Y102.3396 Z-2.0000
G1 X128.3820 Y100.7083 Z-2.0000
G1 X134.5436 Y99.1713 Z-2.0000
G1 X140.7218 Y97.7300 Z-2.0000
G1 X150.6193 Y95.6247 Z-2.0000
G1 X160.5661 Y93.7555 Z-2.0000
G1 X166.0086 Y92.8352 Z-2.0000
G1 X171.4705 Y91.9833 Z-2.0000
G1 X176.9432 Y91.2008 Z-2.0000
G2 X183.5988 Y90.2833 I-7.2527 J-77.2059
G2 X192.6102 Y75.2841 I-2.6656 J-11.8081
G2 X177.2230 Y66.9526 I-11.6770 J3.1911
G1 X169.5019 Y69.7361 Z-2.0000
G1 X162.2167 Y72.2138 Z-2.0000
G1 X154.8890 Y74.5615 Z-2.0000
G1 X147.5243 Y76.7762 Z-2.0000
G1 X138.1537 Y79.3858 Z-2.0000
G1 X128.7263 Y81.7777 Z-2.0000
G1 X121.0506 Y83.5531 Z-2.0000
G1 X113.3433 Y85.1810 Z-2.0000
G1 X103.6473 Y87.0096 Z-2.0000
G1 X95.7182 Y88.3052 Z-2.0000
G1 X95.7182 Y88.3052 Z0.0000
G3 X85.9446 Y89.7163 I-35.8282 J-213.5917
G1 X85.9446 Y89.7163 Z-2.0000
G1 X78.5925 Y90.6060 Z-2.0000
G1 X70.9060 Y91.3830 Z-2.0000
G1 X63.2059 Y92.0073 Z-2.0000
G1 X55.5730 Y92.4735 Z-2.0000
G1 X47.9287 Y92.7874 Z-2.0000
G1 X42.1999 Y92.9218 Z-2.0000
G1 X36.4661 Y92.9694 Z-2.0000
G1 X30.7326 Y92.9296 Z-2.0000
G2 X21.7529 Y92.9268 I-4.5084 J58.4281
G2 X1.1623 Y122.2176 I2.5359 J23.6653
G1 X1.1623 Y122.2176 Z-4.0000
G3 X24.9891 Y92.8017 I23.1254 J-5.6262
G1 X30.7326 Y92.9296 Z-4.0000
G1 X36.4661 Y92.9694 Z-4.0000
G1 X42.1999 Y92.9218 Z-4.0000
G1 X47.9287 Y92.7874 Z-4.0000
G1 X55.5730 Y92.4735 Z-4.0000
G1 X63.2059 Y92.0073 Z-4.0000
G1 X70.9060 Y91.3830 Z-4.0000
G1 X78.5925 Y90.6060 Z-4.0000
G1 X85.9446 Y89.7163 Z-4.0000
G1 X85.9446 Y89.7163 Z0.0000
G2 X95.7182 Y88.3052 I-24.8263 J-206.4952
G1 X95.7182 Y88.3052 Z-4.0000
G1 X103.6473 Y87.0096 Z-4.0000
G1 X113.3433 Y85.1810 Z-4.0000
G1 X121.0506 Y83.5531 Z-4.0000
G1 X128.7263 Y81.7777 Z-4.0000
G1 X138.1537 Y79.3858 Z-4.0000
G1 X147.5243 Y76.7762 Z-4.0000
G1 X154.8890 Y74.5615 Z-4.0000
G1 X162.2167 Y72.2138 Z-4.0000
G1 X169.5019 Y69.7361 Z-4.0000
G1 X177.2230 Y66.9526 Z-4.0000
G3 X189.3632 Y69.7925 I3.6979 J11.5611
G3 X182.4348 Y90.4863 I-8.4234 J8.6865
G1 X176.9432 Y91.2008 Z-4.0000
G1 X171.4705 Y91.9833 Z-4.0000
G1 X166.0086 Y92.8352 Z-4.0000
G1 X160.5661 Y93.7555 Z-4.0000
G1 X150.6193 Y95.6247 Z-4.0000
G1 X140.7218 Y97.7300 Z-4.0000
G1 X134.5436 Y99.1713 Z-4.0000
G1 X128.3820 Y100.7083 Z-4.0000
G1 X122.2450 Y102.3396 Z-4.0000
G1 X116.1322 Y104.0663 Z-4.0000
G1 X111.2483 Y105.5202 Z-4.0000
G1 X106.3811 Y107.0361 Z-4.0000
G1 X101.5338 Y108.6135 Z-4.0000
G1 X100.7666 Y108.8740 Z-4.0000
G1 X100.7666 Y108.8740 Z0.0000
G1 X96.7119 Y110.2507 Z0.0000
G1 X91.3738 Y112.1602 Z0.0000
G1 X91.3738 Y112.1602 Z-4.0000
G1 X89.3780 Y112.8741 Z-4.0000
G1 X82.1032 Y115.6393 Z-4.0000
G1 X74.4187 Y118.7422 Z-4.0000
G1 X66.8042 Y122.0076 Z-4.0000
G1 X58.9348 Y125.5894 Z-4.0000
G1 X51.1497 Y129.3481 Z-4.0000
G1 X43.4531 Y133.2833 Z-4.0000
G1 X35.2062 Y137.7519 Z-4.0000
G3 X1.1623 Y122.2176 I-10.9056 J-21.1714
G0 Z10.0000
G0 X1.1623 Y122.2176
G0 Z10.0000
G0 X40.6315 Y373.5103
G1 X40.6315 Y373.5103 Z-2.0000 F3000.
G2 X76.3697 Y327.8806 I-0.0084 J-36.8169 F6000.
G1 X74.6554 Y321.4851 Z-2.0000
G1 X73.2843 Y316.0041 Z-2.0000
G1 X71.9986 Y310.5021 Z-2.0000
G1 X70.7990 Y304.9847 Z-2.0000
G1 X69.3016 Y297.4422 Z-2.0000
G1 X67.9618 Y289.8749 Z-2.0000
G1 X66.7046 Y281.7747 Z-2.0000
G1 X65.6234 Y273.6460 Z-2.0000
G1 X65.2605 Y270.4483 Z-2.0000
G1 X65.2605 Y270.4483 Z0.0000
G1 X64.9002 Y267.2745 Z0.0000
G1 X64.2833 Y260.8879 Z0.0000
G1 X64.2603 Y260.5993 Z0.0000
G1 X64.2603 Y260.5993 Z-2.0000
G1 X63.7725 Y254.4915 Z-2.0000
G1 X63.3671 Y248.0869 Z-2.0000
G1 X63.0732 Y241.8457 Z-2.0000
G1 X62.8780 Y235.6000 Z-2.0000
G1 X62.7807 Y229.3515 Z-2.0000
G1 X62.7808 Y223.1058 Z-2.0000
G1 X62.9303 Y214.7976 Z-2.0000
G1 X63.2486 Y206.4951 Z-2.0000
G1 X63.6498 Y199.4558 Z-2.0000
G1 X64.1702 Y192.4216 Z-2.0000
G1 X64.8087 Y185.3967 Z-2.0000
G2 X65.7283 Y175.8882 I-82.2752 J-12.7555
G2 X39.7630 Y150.4036 I-25.1026 J-0.3937
G2 X15.6093 Y177.6114 I0.8627 J25.0909
G1 X16.5842 Y186.7267 Z-2.0000
G1 X17.3038 Y195.0848 Z-2.0000
G1 X17.8911 Y204.0971 Z-2.0000
G1 X18.2818 Y213.1173 Z-2.0000
G1 X18.4780 Y222.6270 Z-2.0000
G1 X18.4508 Y232.1363 Z-2.0000
G1 X18.1846 Y241.9746 Z-2.0000
G1 X17.9606 Y246.8760 Z-2.0000
G1 X17.6753 Y251.7743 Z-2.0000
G1 X16.9958 Y260.6155 Z-2.0000
G1 X16.9958 Y260.6155 Z0.0000
G1 X16.9443 Y261.2847 Z0.0000
G1 X16.0076 Y270.4920 Z0.0000
G1 X16.0076 Y270.4920 Z-2.0000
G3 X13.7265 Y287.2617 I-245.0037 J-24.7868
G1 X12.4555 Y294.7556 Z-2.0000
G1 X11.0308 Y302.2253 Z-2.0000
G1 X9.7229 Y308.4410 Z-2.0000
G1 X8.3069 Y314.6353 Z-2.0000
G1 X6.7830 Y320.8035 Z-2.0000
G2 X4.3021 Y330.8439 I84.5561 J26.2203
G2 X40.6315 Y373.5103 I36.3302 J5.8657
G1 X40.6315 Y373.5103 Z-4.0000
G3 X11.3599 Y359.0131 I-0.0009 J-36.7982
G3 X5.1476 Y326.9565 I29.2716 J-22.3028
G1 X6.7830 Y320.8035 Z-4.0000
G1 X8.3069 Y314.6353 Z-4.0000
G1 X9.7229 Y308.4410 Z-4.0000
G1 X11.0308 Y302.2253 Z-4.0000
G1 X12.4555 Y294.7556 Z-4.0000
G1 X13.7265 Y287.2617 Z-4.0000
G1 X14.9440 Y279.0251 Z-4.0000
G1 X15.9796 Y270.7669 Z-4.0000
G1 X16.0076 Y270.4920 Z-4.0000
G1 X16.0076 Y270.4920 Z0.0000
G1 X16.9443 Y261.2847 Z0.0000
G1 X16.9958 Y260.6155 Z0.0000
G1 X16.9958 Y260.6155 Z-4.0000
G1 X17.6753 Y251.7743 Z-4.0000
G1 X17.9606 Y246.8760 Z-4.0000
G1 X18.1846 Y241.9746 Z-4.0000
G1 X18.4508 Y232.1363 Z-4.0000
G1 X18.4780 Y222.6270 Z-4.0000
G1 X18.2818 Y213.1173 Z-4.0000
G1 X17.8911 Y204.0971 Z-4.0000
G1 X17.3038 Y195.0848 Z-4.0000
G1 X16.5842 Y186.7267 Z-4.0000
G1 X15.6093 Y177.6114 Z-4.0000
G3 X41.0069 Y150.3915 I25.0161 J-2.1173
G3 X65.5655 Y178.3706 I-0.3815 J25.1026
G1 X64.8087 Y185.3967 Z-4.0000
G1 X64.1702 Y192.4216 Z-4.0000
G1 X63.6498 Y199.4558 Z-4.0000
G1 X63.2486 Y206.4951 Z-4.0000
G1 X62.9303 Y214.7976 Z-4.0000
G1 X62.7808 Y223.1058 Z-4.0000
G1 X62.7807 Y229.3515 Z-4.0000
G1 X62.8780 Y235.6000 Z-4.0000
G1 X63.0732 Y241.8457 Z-4.0000
G1 X63.3671 Y248.0869 Z-4.0000
G1 X63.7725 Y254.4915 Z-4.0000
G1 X64.2603 Y260.5993 Z-4.0000
G1 X64.2603 Y260.5993 Z0.0000
G2 X65.2605 Y270.4483 I222.6583 J-17.6366
G1 X65.2605 Y270.4483 Z-4.0000
G1 X65.6234 Y273.6460 Z-4.0000
G1 X66.7046 Y281.7747 Z-4.0000
G1 X67.9618 Y289.8749 Z-4.0000
G1 X69.3016 Y297.4422 Z-4.0000
G1 X70.7990 Y304.9847 Z-4.0000
G1 X71.9986 Y310.5021 Z-4.0000
G1 X73.2843 Y316.0041 Z-4.0000
G1 X74.6554 Y321.4851 Z-4.0000
G3 X77.1103 Y331.7941 I-60.0771 J19.7534
G3 X69.9030 Y359.0131 I-36.5399 J4.8883
G3 X40.6315 Y373.5103 I-29.2161 J-22.1908
G0 Z10.0000
G0 X40.6315 Y373.5103
G0 Z10.0000
G0 X107.8517 Y148.4669
G1 X107.8517 Y148.4669 Z-2.0000 F3000.
G2 X76.5121 Y163.9884 I-0.0539 J39.2910 F6000.
G2 X69.6032 Y197.3739 I31.3981 J23.9052
G1 X71.7737 Y205.5547 Z-2.0000
G1 X73.5322 Y212.8244 Z-2.0000
G1 X75.1402 Y220.1294 Z-2.0000
G1 X76.5983 Y227.4658 Z-2.0000
G1 X77.9568 Y235.1301 Z-2.0000
G1 X79.1540 Y242.8198 Z-2.0000
G1 X80.2784 Y251.2427 Z-2.0000
G1 X80.5972 Y254.1229 Z-2.0000
G1 X80.5972 Y254.1229 Z0.0000
G1 X81.2131 Y259.6881 Z0.0000
G1 X81.5940 Y264.0055 Z0.0000
G1 X81.5940 Y264.0055 Z-2.0000
G1 X81.9598 Y268.1530 Z-2.0000
G1 X82.5200 Y276.6334 Z-2.0000
G1 X82.8875 Y284.9016 Z-2.0000
G1 X83.0811 Y293.1769 Z-2.0000
G1 X83.1024 Y301.4551 Z-2.0000
G1 X82.9532 Y309.7328 Z-2.0000
G1 X82.6377 Y317.9540 Z-2.0000
G1 X82.1576 Y326.1649 Z-2.0000
G1 X81.3633 Y336.0416 Z-2.0000
G1 X80.3345 Y345.9119 Z-2.0000
G2 X107.8521 Y376.7886 I27.5172 J3.1767
G2 X135.3689 Y345.9112 I-0.0004 J-27.7000
G1 X134.3749 Y336.4160 Z-2.0000
G1 X133.5974 Y326.9103 Z-2.0000
G1 X133.2666 Y321.7403 Z-2.0000
G1 X133.0004 Y316.5590 Z-2.0000
G1 X132.7999 Y311.3750 Z-2.0000
G1 X132.6656 Y306.1896 Z-2.0000
G1 X132.5959 Y300.7048 Z-2.0000
G1 X132.6011 Y295.2204 Z-2.0000
G1 X132.6818 Y289.7369 Z-2.0000
G1 X132.8383 Y284.2556 Z-2.0000
G1 X133.0798 Y278.6062 Z-2.0000
G1 X133.4030 Y272.9615 Z-2.0000
G1 X133.8084 Y267.3225 Z-2.0000
G1 X134.0971 Y263.9913 Z-2.0000
G1 X134.0971 Y263.9913 Z0.0000
G1 X134.2966 Y261.6891 Z0.0000
G1 X134.8062 Y256.6335 Z0.0000
G1 X135.0931 Y254.1241 Z0.0000
G1 X135.0931 Y254.1241 Z-2.0000
G1 X135.3834 Y251.5842 Z-2.0000
G1 X136.0284 Y246.5435 Z-2.0000
G1 X136.7406 Y241.5173 Z-2.0000
G1 X137.9458 Y233.9454 Z-2.0000
G1 X139.3064 Y226.4047 Z-2.0000
G1 X140.7300 Y219.3371 Z-2.0000
G1 X142.2931 Y212.2986 Z-2.0000
G1 X143.9960 Y205.2931 Z-2.0000
G1 X145.8429 Y198.3089 Z-2.0000
G2 X139.1914 Y163.9884 I-37.9912 J-10.4420
G2 X107.8517 Y148.4669 I-31.3397 J23.8785
G1 X107.8517 Y148.4669 Z-4.0000
G3 X145.8429 Y198.3089 I0.0000 J39.4000
G1 X143.9960 Y205.2931 Z-4.0000
G1 X142.2931 Y212.2986 Z-4.0000
G1 X140.7300 Y219.3371 Z-4.0000
G1 X139.3064 Y226.4047 Z-4.0000
G1 X137.9458 Y233.9454 Z-4.0000
G1 X136.7406 Y241.5173 Z-4.0000
G1 X136.0284 Y246.5435 Z-4.0000
G1 X135.3834 Y251.5842 Z-4.0000
G1 X135.0931 Y254.1241 Z-4.0000
G1 X135.0931 Y254.1241 Z0.0000
G1 X134.8062 Y256.6335 Z0.0000
G1 X134.2966 Y261.6891 Z0.0000
G1 X134.0971 Y263.9913 Z0.0000
G1 X134.0971 Y263.9913 Z-4.0000
G1 X133.8084 Y267.3225 Z-4.0000
G1 X133.4030 Y272.9615 Z-4.0000
G1 X133.0798 Y278.6062 Z-4.0000
G1 X132.8383 Y284.2556 Z-4.0000
G1 X132.6818 Y289.7369 Z-4.0000
G1 X132.6011 Y295.2204 Z-4.0000
G1 X132.5959 Y300.7048 Z-4.0000
G1 X132.6656 Y306.1896 Z-4.0000
G1 X132.7999 Y311.3750 Z-4.0000
G1 X133.0004 Y316.5590 Z-4.0000
G1 X133.2666 Y321.7403 Z-4.0000
G1 X133.5974 Y326.9103 Z-4.0000
G1 X134.3749 Y336.4160 Z-4.0000
G1 X135.3689 Y345.9112 Z-4.0000
G3 X107.8521 Y376.7886 I-27.5172 J3.1774
G3 X80.3345 Y345.9119 I-0.0004 J-27.7000
G1 X81.3633 Y336.0416 Z-4.0000
G1 X82.1576 Y326.1649 Z-4.0000
G1 X82.6377 Y317.9540 Z-4.0000
G1 X82.9532 Y309.7328 Z-4.0000
G1 X83.1024 Y301.4551 Z-4.0000
G1 X83.0811 Y293.1769 Z-4.0000
G1 X82.8875 Y284.9016 Z-4.0000
G1 X82.5200 Y276.6334 Z-4.0000
G1 X81.9598 Y268.1530 Z-4.0000
G1 X81.5940 Y264.0055 Z-4.0000
G1 X81.5940 Y264.0055 Z0.0000
G1 X81.2131 Y259.6881 Z0.0000
G1 X80.5972 Y254.1229 Z0.0000
G1 X80.5972 Y254.1229 Z-4.0000
G1 X80.2784 Y251.2427 Z-4.0000
G1 X79.1540 Y242.8198 Z-4.0000
G1 X77.9568 Y235.1301 Z-4.0000
G1 X76.5983 Y227.4658 Z-4.0000
G1 X75.1402 Y220.1294 Z-4.0000
G1 X73.5322 Y212.8244 Z-4.0000
G1 X71.7737 Y205.5547 Z-4.0000
G3 X69.1582 Y195.3488 I117.2674 J-35.4916
G3 X76.5121 Y163.9884 I38.7520 J-7.4552
G3 X107.8517 Y148.4669 I31.2872 J23.7726
G0 Z10.0000
G0 X107.8517 Y148.4669
G0 Z10.0000
G0 X182.5127 Y381.7103
G1 X182.5127 Y381.7103 Z-2.0000 F3000.
G2 X215.9205 Y365.1646 I0.0573 J-41.8844 F6000.
G2 X223.2866 Y329.5811 I-33.4707 J-25.4830
G1 X221.1112 Y321.3845 Z-2.0000
G1 X219.3654 Y314.1669 Z-2.0000
G1 X217.7689 Y306.9143 Z-2.0000
G1 X216.3213 Y299.6306 Z-2.0000
G1 X214.9723 Y292.0201 Z-2.0000
G1 X213.7833 Y284.3833 Z-2.0000
G1 X212.7316 Y276.5468 Z-2.0000
G1 X212.3818 Y273.4468 Z-2.0000
G1 X212.3818 Y273.4468 Z0.0000
G1 X211.8454 Y268.6917 Z0.0000
G1 X211.3823 Y263.5647 Z0.0000
G1 X211.3823 Y263.5647 Z-2.0000
G1 X211.0382 Y259.7541 Z-2.0000
G1 X210.4406 Y250.8008 Z-2.0000
G1 X210.0608 Y242.1448 Z-2.0000
G1 X209.8727 Y233.4796 Z-2.0000
G1 X209.8656 Y225.6993 Z-2.0000
G1 X210.0102 Y217.9187 Z-2.0000
G1 X210.3237 Y209.7488 Z-2.0000
G1 X210.8007 Y201.5899 Z-2.0000
G1 X211.5902 Y191.7744 Z-2.0000
G1 X212.6126 Y181.9651 Z-2.0000
G2 X182.9479 Y148.1915 I-30.1067 J-3.4707
G2 X152.3107 Y181.0856 I-0.4420 J30.3029
G1 X153.0043 Y187.3627 Z-2.0000
G1 X153.5244 Y192.7498 Z-2.0000
G1 X153.9744 Y198.1429 Z-2.0000
G1 X154.3537 Y203.5401 Z-2.0000
G1 X154.6899 Y209.5035 Z-2.0000
G1 X154.9387 Y215.4699 Z-2.0000
G1 X155.0994 Y221.4389 Z-2.0000
G1 X155.1714 Y227.4085 Z-2.0000
G1 X155.1500 Y233.7387 Z-2.0000
G1 X155.0273 Y240.0667 Z-2.0000
G1 X154.8025 Y246.3915 Z-2.0000
G1 X154.4750 Y252.7111 Z-2.0000
G1 X154.0319 Y259.1818 Z-2.0000
G1 X153.6551 Y263.5887 Z-2.0000
G1 X153.6551 Y263.5887 Z0.0000
G3 X152.6557 Y273.4349 I-246.3883 J-20.0338
G1 X152.6557 Y273.4349 Z-2.0000
G1 X152.0430 Y278.5357 Z-2.0000
G1 X151.3974 Y283.3015 Z-2.0000
G1 X150.6898 Y288.0618 Z-2.0000
G1 X149.9205 Y292.8122 Z-2.0000
G1 X149.0897 Y297.5488 Z-2.0000
G1 X147.8926 Y303.8096 Z-2.0000
G1 X146.5860 Y310.0483 Z-2.0000
G1 X145.5372 Y314.6974 Z-2.0000
G1 X144.4262 Y319.3352 Z-2.0000
G1 X143.2534 Y323.9576 Z-2.0000
G2 X140.5988 Y337.0221 I52.3133 J17.4314
G2 X182.5127 Y381.7103 I41.9167 J2.6856
G1 X182.5127 Y381.7103 Z-4.0000
G3 X142.0162 Y328.5734 I0.0000 J-42.0000
G1 X143.2534 Y323.9576 Z-4.0000
G1 X144.4262 Y319.3352 Z-4.0000
G1 X145.5372 Y314.6974 Z-4.0000
G1 X146.5860 Y310.0483 Z-4.0000
G1 X147.8926 Y303.8096 Z-4.0000
G1 X149.0897 Y297.5488 Z-4.0000
G1 X149.9205 Y292.8122 Z-4.0000
G1 X150.6898 Y288.0618 Z-4.0000
G1 X151.3974 Y283.3015 Z-4.0000
G1 X152.0430 Y278.5357 Z-4.0000
G1 X152.6557 Y273.4349 Z-4.0000
G1 X152.6557 Y273.4349 Z0.0000
G2 X153.6551 Y263.5887 I-230.5318 J-28.3720
G1 X153.6551 Y263.5887 Z-4.0000
G1 X154.0319 Y259.1818 Z-4.0000
G1 X154.4750 Y252.7111 Z-4.0000
G1 X154.8025 Y246.3915 Z-4.0000
G1 X155.0273 Y240.0667 Z-4.0000
G1 X155.1500 Y233.7387 Z-4.0000
G1 X155.1714 Y227.4085 Z-4.0000
G1 X155.0994 Y221.4389 Z-4.0000
G1 X154.9387 Y215.4699 Z-4.0000
G1 X154.6899 Y209.5035 Z-4.0000
G1 X154.3537 Y203.5401 Z-4.0000
G1 X153.9744 Y198.1429 Z-4.0000
G1 X153.5244 Y192.7498 Z-4.0000
G1 X153.0043 Y187.3627 Z-4.0000
G3 X152.2028 Y178.3249 I55.2804 J-9.4573
G3 X184.3300 Y148.2431 I30.3044 J0.1682
G3 X212.6126 Y181.9651 I-1.8228 J30.2500
G1 X211.5902 Y191.7744 Z-4.0000
G1 X210.8007 Y201.5899 Z-4.0000
G1 X210.3237 Y209.7488 Z-4.0000
G1 X210.0102 Y217.9187 Z-4.0000
