(1-screws-6o-2mm.nc)
(----------------------------------------------------------------)
( Generated for RhinoCam to export for CNC-STEP models Raptor X-SL3000s20 / T-Rex1215 )
( Postprocessor written at FabLab BCN/IaaC by eduardo.chamorro@iaac.net )
( Last edit : 22 January - 2019 )
(----------------------------------------------------------------)
(Stock Size X = 380.0000, Y =  380.0000, Z = 4.0000)
(Home Origin X =  0, Y = 0, Z = 0)
(Units = MM, Spindle Speed = 18000)
(Max cut depth = Z-4.0000)
(Tool dia= 6.0 mm, Tool length= 35.0 mm)(WARNING!-CHECK YOUR TOOL)
(-------------------------------------------------------------)
%
G90
G64
M7
M8
T1
S18000
M3
G0 Z10.0000
G0 X8.9314 Y370.4615
G1 X8.9314 Y370.4615 Z-2.0000 F3000.
G0 Z10.0000
G0 X8.9314 Y370.4615
G0 Z10.0000
G0 X181.6914 Y368.8073
G1 X181.6914 Y368.8073 Z-2.0000 F3000.
G0 Z10.0000
G0 X181.6914 Y368.8073
G0 Z10.0000
G0 X366.5927 Y368.8020
G1 X366.5927 Y368.8020 Z-2.0000 F3000.
G0 Z10.0000
G0 X366.5927 Y368.8020
G0 Z10.0000
G0 X369.3598 Y118.6255
G1 X369.3598 Y118.6255 Z-2.0000 F3000.
G0 Z10.0000
G0 X369.3598 Y118.6255
G0 Z10.0000
G0 X361.3538 Y13.2176
G1 X361.3538 Y13.2176 Z-2.0000 F3000.
G0 Z10.0000
G0 X361.3538 Y13.2176
G0 Z10.0000
G0 X182.8567 Y126.9181
G1 X182.8567 Y126.9181 Z-2.0000 F3000.
G0 Z10.0000
G0 X182.8567 Y126.9181
G0 Z10.0000
G0 X11.5162 Y124.9410
G1 X11.5162 Y124.9410 Z-2.0000 F3000.
G0 Z10.0000
G0 X11.5162 Y124.9410
G0 Z10.0000
G0 X3.8080 Y3.1368
G1 X3.8080 Y3.1368 Z-2.0000 F3000.
G0 Z10.0000
G0 X3.8080 Y3.1368
M9
M5
M30
(--THE END - THANK YOU FOR USING THIS AWESOME POSTPROCESSOR---)
