(2-rest-6o.nc)
(----------------------------------------------------------------)
( Generated for RhinoCam to export for CNC-STEP models Raptor X-SL3000s20 / T-Rex1215 )
( Postprocessor written at FabLab BCN/IaaC by eduardo.chamorro@iaac.net )
( Last edit : 22 January - 2019 )
(----------------------------------------------------------------)
(Stock Size X = 380.0000, Y =  380.0000, Z = 4.0000)
(Home Origin X =  0, Y = 0, Z = 0)
(Units = MM, Spindle Speed = 18000)
(Max cut depth = Z-4.0000)
(Tool dia= 6.0 mm, Tool length= 35.0 mm)(WARNING!-CHECK YOUR TOOL)
(-------------------------------------------------------------)
%
G90
G64
M7
M8
T1
S18000
M3
G0 Z10.0000
G0 X13.6759 Y342.2969
G1 X13.6759 Y342.2969 Z0.9500 F3000.
G1 X13.6759 Y342.2969 Z0.3500
G1 X13.8758 Y342.9944 Z0.2221
G1 X14.2906 Y344.2671 Z-0.0140
G1 X14.7509 Y345.5241 Z-0.2500
G2 X26.5713 Y361.4559 I34.7639 J-13.4417 F6000.
G1 X29.4935 Y363.5142 Z-0.2500
G2 X69.3259 Y363.5142 I19.9162 J-31.3497
G1 X72.1902 Y361.4990 Z-0.2500
G2 X85.1793 Y322.3191 I-22.9087 J-29.3379
G1 X82.8254 Y313.3127 Z-0.2500
G1 X80.6909 Y304.1924 Z-0.2500
G1 X78.7909 Y295.0215 Z-0.2500
G1 X77.1241 Y285.8065 Z-0.2500
G1 X75.6893 Y276.5537 Z-0.2500
G1 X74.4849 Y267.2693 Z-0.2500
G1 X73.5090 Y257.9593 Z-0.2500
G1 X72.7597 Y248.6296 Z-0.2500
G1 X72.2347 Y239.2857 Z-0.2500
G1 X71.9318 Y229.9333 Z-0.2500
G1 X71.8486 Y220.5775 Z-0.2500
G1 X71.9826 Y211.2235 Z-0.2500
G1 X72.3309 Y201.8763 Z-0.2500
G1 X72.8910 Y192.5406 Z-0.2500
G1 X73.6599 Y183.2210 Z-0.2500
G1 X74.6250 Y174.0154 Z-0.2500
G2 X49.4097 Y145.5499 I-25.2153 J-3.0647
G2 X24.1944 Y174.0153 I0.0000 J25.4008
G1 X25.1502 Y183.1217 Z-0.2500
G1 X25.9213 Y192.4398 Z-0.2500
G1 X26.4835 Y201.7742 Z-0.2500
G1 X26.8341 Y211.1202 Z-0.2500
G1 X26.9704 Y220.4729 Z-0.2500
G1 X26.8898 Y229.8273 Z-0.2500
G1 X26.5895 Y239.1786 Z-0.2500
G1 X26.0671 Y248.5215 Z-0.2500
G1 X25.3204 Y257.8502 Z-0.2500
G1 X24.3474 Y267.1592 Z-0.2500
G1 X23.1459 Y276.4428 Z-0.2500
G1 X21.7140 Y285.6949 Z-0.2500
G1 X20.0503 Y294.9092 Z-0.2500
G1 X18.1534 Y304.0796 Z-0.2500
G1 X16.0220 Y313.1996 Z-0.2500
G1 X13.6477 Y322.2907 Z-0.2500
G1 X13.1666 Y324.0395 Z-0.2500
G1 X12.7787 Y325.7843 Z-0.2500
G2 X14.7509 Y345.5241 I36.7361 J6.2981
G1 X13.3935 Y346.0489 Z-0.2500
G3 X11.7104 Y323.6775 I36.1213 J-13.9665
G1 X12.1990 Y321.9022 Z-0.2500
G1 X14.5614 Y312.8581 Z-0.2500
G1 X16.6845 Y303.7757 Z-0.2500
G1 X18.5742 Y294.6426 Z-0.2500
G1 X20.2317 Y285.4654 Z-0.2500
G1 X21.6583 Y276.2502 Z-0.2500
G1 X22.8555 Y267.0032 Z-0.2500
G1 X23.8252 Y257.7305 Z-0.2500
G1 X24.5694 Y248.4377 Z-0.2500
G1 X25.0903 Y239.1304 Z-0.2500
G1 X25.3898 Y229.8143 Z-0.2500
G1 X25.4706 Y220.4947 Z-0.2500
G1 X25.3352 Y211.1763 Z-0.2500
G1 X24.9862 Y201.8643 Z-0.2500
G1 X24.4264 Y192.5635 Z-0.2500
G1 X23.6584 Y183.2783 Z-0.2500
G1 X22.6993 Y174.1407 Z-0.2500
G3 X49.4097 Y144.0478 I26.7104 J-3.1924
G3 X76.1201 Y174.1407 I0.0000 J26.9005
G1 X75.1548 Y183.3444 Z-0.2500
G1 X74.3883 Y192.6305 Z-0.2500
G1 X73.8299 Y201.9322 Z-0.2500
G1 X73.4824 Y211.2451 Z-0.2500
G1 X73.3486 Y220.5642 Z-0.2500
G1 X73.4310 Y229.8848 Z-0.2500
G1 X73.7323 Y239.2017 Z-0.2500
G1 X74.2549 Y248.5095 Z-0.2500
G1 X75.0009 Y257.8030 Z-0.2500
G1 X75.9725 Y267.0764 Z-0.2500
G1 X77.1716 Y276.3239 Z-0.2500
G1 X78.6002 Y285.5396 Z-0.2500
G1 X80.2597 Y294.7173 Z-0.2500
G1 X82.1515 Y303.8507 Z-0.2500
G1 X84.2767 Y312.9334 Z-0.2500
G1 X86.6255 Y321.9210 Z-0.2500
G3 X71.6212 Y363.7334 I-37.2158 J10.2435
G3 X27.1982 Y363.7334 I-22.2115 J-31.5689
G3 X13.3935 Y346.0489 I22.3166 J-31.6510
G1 X14.2295 Y345.3962 Z0.8107 F3000.
G1 X14.2295 Y345.3962 Z1.4107
G0 Z10.0000
G0 X14.2295 Y345.3962
G0 Z10.0000
G0 X174.5557 Y165.2554
G1 X174.5557 Y165.2554 Z0.9500 F3000.
G1 X174.5557 Y165.2554 Z0.3500
G1 X174.4075 Y164.7383 Z0.2551
G1 X173.9636 Y163.3764 Z0.0026
G1 X173.4711 Y162.0313 Z-0.2500
G2 X160.8224 Y144.9831 I-37.1999 J14.3836 F6000.
G1 X157.6954 Y142.7805 Z-0.2500
G2 X115.0714 Y142.7805 I-21.3120 J33.5468
G1 X112.0064 Y144.9370 Z-0.2500
G2 X98.1071 Y186.8627 I24.5141 J31.3939
G1 X100.4451 Y195.8087 Z-0.2500
G1 X102.5652 Y204.8682 Z-0.2500
G1 X104.4523 Y213.9781 Z-0.2500
G1 X106.1076 Y223.1318 Z-0.2500
G1 X107.5324 Y232.3230 Z-0.2500
G1 X108.7282 Y241.5456 Z-0.2500
G1 X109.6971 Y250.7936 Z-0.2500
G1 X110.4409 Y260.0612 Z-0.2500
G1 X110.9619 Y269.3427 Z-0.2500
G1 X111.2623 Y278.6327 Z-0.2500
G1 X111.3444 Y287.9261 Z-0.2500
G1 X111.2110 Y297.2176 Z-0.2500
G1 X110.8646 Y306.5024 Z-0.2500
G1 X110.3080 Y315.7757 Z-0.2500
G1 X108.5870 Y334.1517 Z-0.2500
G2 X136.3833 Y365.5418 I27.7964 J3.3880
G2 X164.1798 Y334.1517 I0.0001 J-28.0021
G1 X162.4703 Y315.9259 Z-0.2500
G1 X161.9072 Y306.6046 Z-0.2500
G1 X161.5585 Y297.3210 Z-0.2500
G1 X161.4227 Y288.0308 Z-0.2500
G1 X161.5023 Y278.7386 Z-0.2500
G1 X161.8001 Y269.4497 Z-0.2500
G1 X162.3185 Y260.1693 Z-0.2500
G1 X163.0596 Y250.9027 Z-0.2500
G1 X164.0256 Y241.6557 Z-0.2500
G1 X165.2186 Y232.4340 Z-0.2500
G1 X166.6405 Y223.2435 Z-0.2500
G1 X168.2927 Y214.0905 Z-0.2500
G1 X170.1767 Y204.9811 Z-0.2500
G1 X172.2937 Y195.9219 Z-0.2500
G1 X174.6521 Y186.8910 Z-0.2500
G1 X175.1658 Y185.0239 Z-0.2500
G1 X175.5815 Y183.1543 Z-0.2500
G2 X173.4711 Y162.0313 I-39.3103 J-6.7394
G1 X174.8256 Y161.5076 Z-0.2500
G3 X176.6220 Y185.3859 I-38.5544 J14.9073
G1 X176.1009 Y187.2796 Z-0.2500
G1 X173.7543 Y196.2633 Z-0.2500
G1 X171.6456 Y205.2850 Z-0.2500
G1 X169.7688 Y214.3570 Z-0.2500
G1 X168.1228 Y223.4729 Z-0.2500
G1 X166.7062 Y232.6265 Z-0.2500
G1 X165.5175 Y241.8117 Z-0.2500
G1 X164.5548 Y251.0224 Z-0.2500
G1 X163.8161 Y260.2530 Z-0.2500
G1 X163.2994 Y269.4979 Z-0.2500
G1 X163.0023 Y278.7516 Z-0.2500
G1 X162.9225 Y288.0089 Z-0.2500
G1 X163.0574 Y297.2648 Z-0.2500
G1 X163.4045 Y306.5143 Z-0.2500
G1 X163.9637 Y315.7859 Z-0.2500
G1 X165.6754 Y334.0346 Z-0.2500
G3 X136.3834 Y367.0439 I-29.2920 J3.5080
G3 X107.0914 Y334.0346 I0.0000 J-29.5013
G1 X108.8107 Y315.6857 Z-0.2500
G1 X109.3656 Y306.4464 Z-0.2500
G1 X109.7111 Y297.1960 Z-0.2500
G1 X109.8445 Y287.9393 Z-0.2500
G1 X109.7631 Y278.6811 Z-0.2500
G1 X109.4642 Y269.4267 Z-0.2500
G1 X108.9457 Y260.1811 Z-0.2500
G1 X108.2053 Y250.9499 Z-0.2500
G1 X107.2407 Y241.7385 Z-0.2500
G1 X106.0501 Y232.5527 Z-0.2500
G1 X104.6315 Y223.3987 Z-0.2500
G1 X102.9835 Y214.2823 Z-0.2500
G1 X101.1046 Y205.2100 Z-0.2500
G1 X98.9938 Y196.1879 Z-0.2500
G1 X96.6608 Y187.2607 Z-0.2500
G3 X112.6758 Y142.6320 I39.7226 J-10.9334
G3 X160.0910 Y142.6320 I23.7076 J33.6953
G3 X174.8256 Y161.5076 I-23.8198 J33.7829
G1 X173.9895 Y162.1604 Z0.8107 F3000.
G1 X173.9895 Y162.1604 Z1.4107
G0 Z10.0000
G0 X173.9895 Y162.1604
G0 Z10.0000
G0 X328.8929 Y129.0144
G1 X328.8929 Y129.0144 Z0.9500 F3000.
G1 X328.8929 Y129.0144 Z0.3500
G1 X328.6864 Y128.9949 Z0.3134
G1 X327.0913 Y128.9045 Z0.0317
G1 X325.4939 Y128.8744 Z-0.2500
G2 X302.7862 Y135.4775 I0.0000 J42.3468 F6000.
G1 X299.5205 Y137.7752 Z-0.2500
G2 X284.7108 Y182.4466 I26.1195 J33.4498
G1 X287.0330 Y191.3323 Z-0.2500
G1 X289.1387 Y200.3311 Z-0.2500
G1 X291.0129 Y209.3800 Z-0.2500
G1 X292.6567 Y218.4724 Z-0.2500
G1 X294.0715 Y227.6020 Z-0.2500
G1 X295.2588 Y236.7628 Z-0.2500
G1 X296.2207 Y245.9487 Z-0.2500
G1 X296.9590 Y255.1541 Z-0.2500
G1 X297.4759 Y264.3733 Z-0.2500
G1 X297.7737 Y273.6010 Z-0.2500
G1 X297.8549 Y282.8319 Z-0.2500
G1 X297.7219 Y292.0610 Z-0.2500
G1 X297.3775 Y301.2833 Z-0.2500
G1 X296.8245 Y310.4943 Z-0.2500
G1 X295.1015 Y328.8805 Z-0.2500
G1 X294.9176 Y330.4680 Z-0.2500
G2 X307.8605 Y357.4988 I30.5763 J1.9735
G1 X310.5090 Y359.1671 Z-0.2500
G2 X340.4787 Y359.1671 I14.9849 J-26.7256
G1 X343.1272 Y357.4988 Z-0.2500
G2 X355.8898 Y328.9134 I-17.7798 J-25.0799
G1 X355.8837 Y328.8559 Z-0.2500
G1 X354.1749 Y310.6443 Z-0.2500
G1 X353.6153 Y301.3854 Z-0.2500
G1 X353.2686 Y292.1644 Z-0.2500
G1 X353.1332 Y282.9366 Z-0.2500
G1 X353.2119 Y273.7069 Z-0.2500
G1 X353.5071 Y264.4803 Z-0.2500
G1 X354.0215 Y255.2622 Z-0.2500
G1 X354.7570 Y246.0579 Z-0.2500
G1 X355.7160 Y236.8729 Z-0.2500
G1 X356.9005 Y227.7130 Z-0.2500
G1 X358.3124 Y218.5841 Z-0.2500
G1 X359.9531 Y209.4924 Z-0.2500
G1 X361.8242 Y200.4441 Z-0.2500
G1 X363.9268 Y191.4455 Z-0.2500
G1 X366.7754 Y180.6372 Z-0.2500
G1 X367.1945 Y178.7849 Z-0.2500
G2 X351.4073 Y137.7350 I-41.8029 J-7.4839
G1 X348.2016 Y135.4775 Z-0.2500
G2 X325.4939 Y128.8744 I-22.7077 J35.7437
G1 X325.4939 Y127.4214 Z-0.2500
G3 X350.6976 Y135.3995 I0.0000 J43.7998
G3 X368.2326 Y180.9940 I-25.3060 J35.9015
G1 X365.3874 Y191.7869 Z-0.2500
G1 X363.2931 Y200.7479 Z-0.2500
G1 X361.4293 Y209.7589 Z-0.2500
G1 X359.7947 Y218.8134 Z-0.2500
G1 X358.3881 Y227.9054 Z-0.2500
G1 X357.2079 Y237.0287 Z-0.2500
G1 X356.2523 Y246.1774 Z-0.2500
G1 X355.5191 Y255.3458 Z-0.2500
G1 X355.0064 Y264.5283 Z-0.2500
G1 X354.7118 Y273.7197 Z-0.2500
G1 X354.6330 Y282.9147 Z-0.2500
G1 X354.7675 Y292.1081 Z-0.2500
G1 X355.1125 Y301.2951 Z-0.2500
G1 X355.6683 Y310.5042 Z-0.2500
G1 X357.3763 Y328.7076 Z-0.2500
G1 X357.3798 Y328.7404 Z-0.2500
G3 X342.6025 Y359.6021 I-31.8859 J3.7011
G3 X308.3853 Y359.6021 I-17.1086 J-27.1606
G3 X293.6080 Y328.7404 I17.1086 J-27.1606
G1 X295.3272 Y310.4043 Z-0.2500
G1 X295.8786 Y301.2272 Z-0.2500
G1 X296.2220 Y292.0393 Z-0.2500
G1 X296.3549 Y282.8450 Z-0.2500
G1 X296.2745 Y273.6493 Z-0.2500
G1 X295.9783 Y264.4572 Z-0.2500
G1 X295.4638 Y255.2739 Z-0.2500
G1 X294.7288 Y246.1049 Z-0.2500
G1 X293.7713 Y236.9555 Z-0.2500
G1 X292.5892 Y227.8316 Z-0.2500
G1 X291.1806 Y218.7391 Z-0.2500
G1 X289.5440 Y209.6841 Z-0.2500
G1 X287.6781 Y200.6728 Z-0.2500
G1 X285.5817 Y191.7115 Z-0.2500
G1 X283.2646 Y182.8447 Z-0.2500
G3 X300.2902 Y135.3995 I42.2293 J-11.6235
G3 X325.4939 Y127.4214 I25.2037 J35.8217
G1 X325.8140 Y128.4326 Z0.8107 F3000.
G1 X325.8140 Y128.4326 Z1.4107
G0 Z10.0000
G0 X325.8140 Y128.4326
G0 Z10.0000
G0 X36.4332 Y9.4015
G1 X36.4332 Y9.4015 Z0.3500 F3000.
G1 X38.6522 Y9.5299 Z-0.0419
G1 X38.5739 Y9.5220 Z-0.0558
G1 X38.4956 Y9.5144 Z-0.0697
G1 X38.4173 Y9.5070 Z-0.0835
G1 X38.3389 Y9.4998 Z-0.0974
G1 X38.2606 Y9.4928 Z-0.1113
G1 X38.1822 Y9.4861 Z-0.1252
G1 X38.1038 Y9.4796 Z-0.1390
G1 X38.0254 Y9.4733 Z-0.1529
G1 X37.9469 Y9.4673 Z-0.1668
G1 X37.8685 Y9.4615 Z-0.1806
G1 X37.7900 Y9.4559 Z-0.1945
G1 X37.7115 Y9.4505 Z-0.2084
G1 X37.6330 Y9.4454 Z-0.2223
G1 X37.5545 Y9.4405 Z-0.2361
G1 X37.4760 Y9.4359 Z-0.2500
G2 X36.2967 Y9.3936 I-1.5533 J26.8328 F6000.
G1 X38.6522 Y9.5299 Z-0.2500
G2 X37.4760 Y9.4359 I-2.7295 J26.7388
G1 X37.4760 Y9.4359 Z0.3500 F3000.
G0 Z10.0000
G0 X37.4760 Y9.4359
G0 Z10.0000
G0 X33.9757 Y9.4616
G1 X33.9757 Y9.4616 Z0.9500 F3000.
G1 X33.9757 Y9.4616 Z0.3500
G1 X33.9337 Y9.4647 Z0.3426
G1 X33.8705 Y9.4694 Z0.3314
G1 X33.8072 Y9.4743 Z0.3202
G1 X33.7440 Y9.4794 Z0.3090
G1 X33.6808 Y9.4846 Z0.2978
G1 X33.6176 Y9.4900 Z0.2867
G1 X33.5544 Y9.4955 Z0.2755
G1 X33.4913 Y9.5012 Z0.2643
G1 X33.4281 Y9.5070 Z0.2531
G1 X35.3271 Y9.3976 Z-0.0823
G1 X35.2637 Y9.3990 Z-0.0935
G1 X35.2003 Y9.4007 Z-0.1046
G1 X35.1369 Y9.4024 Z-0.1158
G1 X35.0735 Y9.4044 Z-0.1270
G1 X35.0101 Y9.4065 Z-0.1382
G1 X34.9467 Y9.4087 Z-0.1494
G1 X34.8834 Y9.4111 Z-0.1605
G1 X34.8200 Y9.4136 Z-0.1717
G1 X34.7566 Y9.4163 Z-0.1829
G1 X34.6933 Y9.4191 Z-0.1941
G1 X34.6299 Y9.4221 Z-0.2053
G1 X34.5666 Y9.4252 Z-0.2165
G1 X34.5033 Y9.4285 Z-0.2276
G1 X34.4400 Y9.4319 Z-0.2388
G1 X34.3766 Y9.4355 Z-0.2500
G2 X33.4281 Y9.5070 I1.5461 J26.8332 F6000.
G1 X35.3271 Y9.3976 Z-0.2500
G2 X34.3766 Y9.4355 I0.5956 J26.8711
G1 X34.3766 Y9.4355 Z0.3500 F3000.
G0 Z10.0000
G0 X34.3766 Y9.4355
G0 Z10.0000
G0 X31.9149 Y9.6920
G1 X31.9149 Y9.6920 Z0.3500 F3000.
G1 X31.9355 Y9.6883 Z0.3463
G1 X31.8909 Y9.6951 Z0.3384
G1 X31.8464 Y9.7019 Z0.3304
G1 X31.8018 Y9.7087 Z0.3224
G1 X31.7572 Y9.7157 Z0.3145
G1 X31.7127 Y9.7227 Z0.3065
G1 X31.6682 Y9.7298 Z0.2986
G1 X31.6237 Y9.7370 Z0.2906
G1 X31.5791 Y9.7442 Z0.2827
G1 X31.5347 Y9.7516 Z0.2747
G1 X31.4902 Y9.7590 Z0.2668
G1 X31.4457 Y9.7664 Z0.2588
G1 X31.4013 Y9.7740 Z0.2509
G1 X31.3568 Y9.7816 Z0.2429
G1 X31.3124 Y9.7893 Z0.2350
G1 X31.2680 Y9.7971 Z0.2270
G1 X31.2236 Y9.8049 Z0.2191
G1 X31.1792 Y9.8128 Z0.2111
G1 X31.1348 Y9.8208 Z0.2032
G1 X31.0904 Y9.8289 Z0.1952
G1 X31.0461 Y9.8371 Z0.1873
G1 X31.0017 Y9.8453 Z0.1793
G1 X30.9574 Y9.8536 Z0.1714
G1 X30.9131 Y9.8619 Z0.1634
G1 X30.8688 Y9.8704 Z0.1555
G1 X30.8245 Y9.8789 Z0.1475
G1 X30.7803 Y9.8875 Z0.1396
G1 X30.7360 Y9.8962 Z0.1316
G1 X30.6918 Y9.9049 Z0.1237
G1 X30.6475 Y9.9137 Z0.1157
G1 X30.6033 Y9.9226 Z0.1078
G1 X31.9355 Y9.6883 Z-0.1307
G1 X31.8909 Y9.6951 Z-0.1387
G1 X31.8464 Y9.7019 Z-0.1466
G1 X31.8018 Y9.7087 Z-0.1546
G1 X31.7572 Y9.7157 Z-0.1625
G1 X31.7127 Y9.7227 Z-0.1705
G1 X31.6682 Y9.7298 Z-0.1784
G1 X31.6237 Y9.7370 Z-0.1864
G1 X31.5791 Y9.7442 Z-0.1943
G1 X31.5347 Y9.7516 Z-0.2023
G1 X31.4902 Y9.7590 Z-0.2102
G1 X31.4457 Y9.7664 Z-0.2182
G1 X31.4013 Y9.7740 Z-0.2261
G1 X31.3568 Y9.7816 Z-0.2341
G1 X31.3124 Y9.7893 Z-0.2420
G1 X31.2680 Y9.7971 Z-0.2500
G2 X30.6033 Y9.9226 I4.6547 J26.4716 F6000.
G1 X31.9355 Y9.6883 Z-0.2500
G2 X31.2680 Y9.7971 I3.9872 J26.5804
G0 Z10.0000
G0 X31.2680 Y9.7971
G0 Z10.0000
G0 X181.9232 Y31.1304
G1 X181.9232 Y31.1304 Z0.9500 F3000.
G1 X181.9232 Y31.1304 Z0.3500
G1 X181.4035 Y31.1059 Z0.2583
G1 X184.2661 Y30.7677 Z-0.2500
G1 X187.1286 Y30.4296 Z-0.2500 F6000.
G1 X196.1641 Y29.1629 Z-0.2500
G3 X197.8583 Y31.7330 I0.7017 J1.3809
G3 X196.2614 Y32.0190 I-1.0982 J-1.5303
G1 X186.7592 Y31.3589 Z-0.2500
G1 X181.4035 Y31.1059 Z-0.2500
G1 X184.2661 Y30.7677 Z-0.2500
G1 X184.0902 Y29.2783 Z-0.2500
G1 X177.1251 Y30.1005 Z-0.2500
G1 X167.2994 Y31.0376 Z-0.2500
G1 X157.4506 Y31.7519 Z-0.2500
G1 X147.5837 Y32.2402 Z-0.2500
G1 X146.0884 Y32.2800 Z-0.2500
G1 X146.0855 Y32.3821 Z-0.2500
G1 X147.1973 Y32.3332 Z-0.2500
G1 X157.0781 Y32.1266 Z-0.2500
G1 X166.9572 Y32.1469 Z-0.2500
G1 X176.8289 Y32.3914 Z-0.2500
G1 X186.6884 Y32.8572 Z-0.2500
G1 X196.1883 Y33.5176 Z-0.2500
G2 X199.9328 Y30.4628 I0.7115 J-2.9503
G2 X195.9869 Y27.6731 I-3.0330 J0.1045
G1 X186.9204 Y28.9442 Z-0.2500
G1 X184.0902 Y29.2783 Z-0.2500
G1 X183.9144 Y27.7888 Z-0.2500
G1 X186.7121 Y27.4587 Z-0.2500
G1 X195.8097 Y26.1833 Z-0.2500
G3 X201.4340 Y30.4104 I1.1061 J4.3834
G3 X196.1153 Y35.0161 I-4.5182 J0.1563
G1 X186.6175 Y34.3555 Z-0.2500
G1 X176.7917 Y33.8909 Z-0.2500
G1 X166.9541 Y33.6469 Z-0.2500
G1 X157.1094 Y33.6262 Z-0.2500
G1 X147.2632 Y33.8318 Z-0.2500
G1 X144.5342 Y33.9518 Z-0.2500
G2 X144.4690 Y30.8222 I-13.6165 J-1.2816
G1 X147.5096 Y30.7420 Z-0.2500
G1 X157.3422 Y30.2558 Z-0.2500
G1 X167.1570 Y29.5444 Z-0.2500
G1 X176.9493 Y28.6108 Z-0.2500
G1 X183.9144 Y27.7888 Z-0.2500
G1 X183.7387 Y26.2994 Z-0.2500
G1 X176.7736 Y27.1212 Z-0.2500
G1 X167.0147 Y28.0512 Z-0.2500
G1 X157.2338 Y28.7597 Z-0.2500
G1 X147.4356 Y29.2438 Z-0.2500
G1 X142.7117 Y29.3677 Z-0.2500
G3 X142.9722 Y35.5219 I-17.5895 J3.8274
G1 X147.3291 Y35.3303 Z-0.2500
G1 X157.1406 Y35.1259 Z-0.2500
G1 X166.9509 Y35.1469 Z-0.2500
G1 X176.7544 Y35.3905 Z-0.2500
G1 X186.5466 Y35.8539 Z-0.2500
G1 X196.0422 Y36.5146 Z-0.2500
G2 X202.9351 Y30.3581 I0.8831 J-5.9483
G2 X195.6325 Y24.6934 I-6.0098 J0.2082
G1 X186.5038 Y25.9732 Z-0.2500
G1 X183.7387 Y26.2994 Z-0.2500
G1 X183.5631 Y24.8100 Z-0.2500
G1 X186.2956 Y24.4877 Z-0.2500
G1 X195.4553 Y23.2036 Z-0.2500
G3 X204.4363 Y30.3058 I1.4765 J7.3625
G3 X195.9690 Y38.0132 I-7.5045 J0.2603
G1 X186.4757 Y37.3522 Z-0.2500
G1 X176.7171 Y36.8900 Z-0.2500
G1 X166.9476 Y36.6469 Z-0.2500
G1 X157.1718 Y36.6256 Z-0.2500
G1 X147.3950 Y36.8289 Z-0.2500
G1 X141.1880 Y37.1018 Z-0.2500
G2 X140.9160 Y27.9142 I-19.3201 J-4.0260
G1 X147.3617 Y27.7457 Z-0.2500
G1 X157.1255 Y27.2637 Z-0.2500
G1 X166.8725 Y26.5579 Z-0.2500
G1 X176.5979 Y25.6315 Z-0.2500
G1 X183.5631 Y24.8100 Z-0.2500
G1 X183.3874 Y23.3206 Z-0.2500
G1 X176.4223 Y24.1418 Z-0.2500
G1 X166.7303 Y25.0647 Z-0.2500
G1 X157.0172 Y25.7676 Z-0.2500
G1 X147.2878 Y26.2475 Z-0.2500
G1 X138.8056 Y26.4687 Z-0.2500
G3 X139.2616 Y38.6880 I-16.6705 J6.7403
G1 X147.4609 Y38.3274 Z-0.2500
G1 X157.2029 Y38.1253 Z-0.2500
G1 X166.9443 Y38.1469 Z-0.2500
G1 X176.6797 Y38.3895 Z-0.2500
G1 X186.4046 Y38.8505 Z-0.2500
G1 X195.8959 Y39.5117 Z-0.2500
G2 X205.9375 Y30.2535 I1.0409 J-8.9458
G2 X195.2781 Y21.7138 I-9.0007 J0.3124
G1 X186.0873 Y23.0023 Z-0.2500
G1 X183.3874 Y23.3206 Z-0.2500
G1 X183.2119 Y21.8312 Z-0.2500
G1 X185.8791 Y21.5168 Z-0.2500
G1 X195.1009 Y20.2239 Z-0.2500
G3 X207.4387 Y30.2012 I1.8399 J10.3418
G3 X195.8227 Y41.0103 I-10.4979 J0.3645
G1 X186.3336 Y40.3488 Z-0.2500
G1 X176.6423 Y39.8891 Z-0.2500
G1 X166.9409 Y39.6469 Z-0.2500
G1 X157.2340 Y39.6249 Z-0.2500
G1 X147.5268 Y39.8260 Z-0.2500
G1 X137.8247 Y40.2526 Z-0.2500
G1 X137.0294 Y40.3062 Z-0.2500
G2 X136.5440 Y25.0049 I-15.4680 J-7.1677
G1 X137.5080 Y25.0020 Z-0.2500
G1 X147.2139 Y24.7493 Z-0.2500
G1 X156.9090 Y24.2715 Z-0.2500
G1 X166.5882 Y23.5714 Z-0.2500
G1 X176.2467 Y22.6521 Z-0.2500
G1 X183.2119 Y21.8312 Z-0.2500
G1 X183.0364 Y20.3417 Z-0.2500
G1 X176.0711 Y21.1624 Z-0.2500
G1 X166.4461 Y22.0782 Z-0.2500
G1 X156.8008 Y22.7754 Z-0.2500
G1 X147.1402 Y23.2511 Z-0.2500
G1 X137.4690 Y23.5025 Z-0.2500
G1 X133.8293 Y23.5119 Z-0.2500
G3 X134.4223 Y41.9854 I-12.5480 J9.6491
G1 X137.9256 Y41.7492 Z-0.2500
G1 X147.5926 Y41.3245 Z-0.2500
G1 X157.2650 Y41.1246 Z-0.2500
G1 X166.9374 Y41.1469 Z-0.2500
G1 X176.6048 Y41.3886 Z-0.2500
G1 X186.2624 Y41.8471 Z-0.2500
G1 X195.7495 Y42.5088 Z-0.2500
G2 X208.9399 Y30.1490 I1.1948 J-11.9432
G2 X194.9237 Y18.7341 I-11.9956 J0.4166
G1 X185.6708 Y20.0313 Z-0.2500
G1 X183.0364 Y20.3417 Z-0.2500
G1 X182.8610 Y18.8523 Z-0.2500
G1 X185.4626 Y18.5458 Z-0.2500
G1 X194.7466 Y17.2443 Z-0.2500
G3 X210.4411 Y30.0968 I2.2008 J13.3212
G3 X195.6762 Y44.0073 I-13.4937 J0.4687
G1 X186.1912 Y43.3454 Z-0.2500
G1 X176.5673 Y42.8881 Z-0.2500
G1 X166.9339 Y42.6469 Z-0.2500
G1 X157.2959 Y42.6243 Z-0.2500
G1 X147.6584 Y42.8231 Z-0.2500
G1 X138.0265 Y43.2458 Z-0.2500
G1 X131.0013 Y43.7194 Z-0.2500
G2 X130.2755 Y22.0206 I-9.7170 J-10.5365
G1 X137.4301 Y22.0030 Z-0.2500
G1 X147.0664 Y21.7529 Z-0.2500
G1 X156.6928 Y21.2793 Z-0.2500
G1 X166.3041 Y20.5849 Z-0.2500
G1 X175.8957 Y19.6727 Z-0.2500
G1 X182.8610 Y18.8523 Z-0.2500
G1 X182.6856 Y17.3628 Z-0.2500
G1 X175.7202 Y18.1830 Z-0.2500
G1 X166.1621 Y19.0916 Z-0.2500
G1 X156.5847 Y19.7832 Z-0.2500
G1 X146.9928 Y20.2547 Z-0.2500
G1 X137.3913 Y20.5035 Z-0.2500
G1 X127.7854 Y20.5266 Z-0.2500
G1 X123.1086 Y20.4270 Z-0.2500
G3 X123.9767 Y45.8053 I-1.8999 J12.7690
G1 X128.5420 Y45.3886 Z-0.2500
G1 X138.1274 Y44.7424 Z-0.2500
G1 X147.7241 Y44.3217 Z-0.2500
G1 X157.3268 Y44.1240 Z-0.2500
G1 X166.9303 Y44.1469 Z-0.2500
G1 X176.5296 Y44.3877 Z-0.2500
G1 X186.1200 Y44.8437 Z-0.2500
G1 X195.6030 Y45.5059 Z-0.2500
G2 X211.9423 Y30.0446 I1.3472 J-14.9405
G2 X194.5694 Y15.7545 I-14.9921 J0.5208
G1 X185.2543 Y17.0604 Z-0.2500
G1 X182.6856 Y17.3628 Z-0.2500
G1 X182.5102 Y15.8734 Z-0.2500
G1 X185.0461 Y15.5749 Z-0.2500
G1 X194.3922 Y14.2646 Z-0.2500
G3 X213.4435 Y29.9924 I2.5606 J16.3007
G3 X195.5296 Y47.0044 I-16.4907 J0.5729
G1 X186.0487 Y46.3420 Z-0.2500
G1 X176.4920 Y45.8872 Z-0.2500
G1 X166.9267 Y45.6469 Z-0.2500
G1 X157.3576 Y45.6237 Z-0.2500
G1 X147.7897 Y45.8202 Z-0.2500
G1 X138.2282 Y46.2390 Z-0.2500
G1 X128.6784 Y46.8824 Z-0.2500
G1 X119.1458 Y47.7526 Z-0.2500
G1 X109.6360 Y48.8515 Z-0.2500
G1 X100.1550 Y50.1812 Z-0.2500
G1 X90.7086 Y51.7434 Z-0.2500
G1 X81.3032 Y53.5395 Z-0.2500
G1 X71.9451 Y55.5711 Z-0.2500
G1 X62.6407 Y57.8391 Z-0.2500
G1 X53.3966 Y60.3444 Z-0.2500
G1 X44.2568 Y63.0755 Z-0.2500
G3 X13.3478 Y53.1811 I-8.4231 J-26.9125
G3 X12.2209 Y20.7466 I22.4859 J-17.0181
G3 X40.8381 Y8.3662 I23.7018 J15.5221
G1 X51.7517 Y10.8371 Z-0.2500
G1 X61.1471 Y12.6927 Z-0.2500
G1 X70.5861 Y14.3075 Z-0.2500
G1 X80.0622 Y15.6826 Z-0.2500
G1 X89.5690 Y16.8198 Z-0.2500
G1 X99.1004 Y17.7207 Z-0.2500
G1 X108.6502 Y18.3873 Z-0.2500
G1 X118.2126 Y18.8219 Z-0.2500
G1 X127.7818 Y19.0266 Z-0.2500
G1 X137.3525 Y19.0040 Z-0.2500
G1 X146.9192 Y18.7566 Z-0.2500
G1 X156.4768 Y18.2871 Z-0.2500
G1 X166.0202 Y17.5984 Z-0.2500
G1 X175.5449 Y16.6933 Z-0.2500
G1 X182.5102 Y15.8734 Z-0.2500
G1 X182.6342 Y16.9268 Z0.8107 F3000.
G1 X182.6342 Y16.9268 Z1.4107
G0 Z10.0000
G0 X182.6342 Y16.9268
G0 Z10.0000
G0 X242.9028 Y110.1305
G1 X242.9028 Y110.1305 Z0.9500 F3000.
G1 X242.9028 Y110.1305 Z0.3500
G1 X242.9094 Y110.1311 Z0.3488
G1 X242.9649 Y110.1354 Z0.3390
G1 X243.0204 Y110.1397 Z0.3292
G1 X243.0760 Y110.1438 Z0.3194
G1 X243.1315 Y110.1478 Z0.3096
G1 X243.1871 Y110.1516 Z0.2997
G1 X243.2426 Y110.1554 Z0.2899
G1 X243.2982 Y110.1590 Z0.2801
G1 X243.3537 Y110.1624 Z0.2703
G1 X243.4093 Y110.1658 Z0.2605
G1 X243.4649 Y110.1690 Z0.2507
G1 X243.5205 Y110.1721 Z0.2408
G1 X243.5761 Y110.1751 Z0.2310
G1 X243.6317 Y110.1779 Z0.2212
G1 X243.6873 Y110.1806 Z0.2114
G1 X243.7429 Y110.1832 Z0.2016
G1 X243.7986 Y110.1856 Z0.1918
G1 X242.1335 Y110.0566 Z-0.1027
G1 X242.1888 Y110.0627 Z-0.1125
G1 X242.2442 Y110.0687 Z-0.1224
G1 X242.2995 Y110.0746 Z-0.1322
G1 X242.3549 Y110.0804 Z-0.1420
G1 X242.4103 Y110.0860 Z-0.1518
G1 X242.4657 Y110.0915 Z-0.1616
G1 X242.5211 Y110.0969 Z-0.1715
G1 X242.5766 Y110.1022 Z-0.1813
G1 X242.6320 Y110.1073 Z-0.1911
G1 X242.6875 Y110.1123 Z-0.2009
G1 X242.7429 Y110.1172 Z-0.2107
G1 X242.7984 Y110.1219 Z-0.2205
G1 X242.8539 Y110.1266 Z-0.2304
G1 X242.9094 Y110.1311 Z-0.2402
G1 X242.9649 Y110.1354 Z-0.2500
G2 X243.7986 Y110.1856 I1.8751 J-24.1886 F6000.
G1 X242.1335 Y110.0566 Z-0.2500
G2 X242.9649 Y110.1354 I2.7065 J-24.1098
G1 X242.9649 Y110.1354 Z0.3500 F3000.
G0 Z10.0000
G0 X242.9649 Y110.1354
G0 Z10.0000
G0 X245.9051 Y110.1789
G1 X245.9051 Y110.1789 Z0.3500 F3000.
G1 X245.2244 Y110.2050 Z0.2299
G1 X245.2607 Y110.2043 Z0.2235
G1 X245.2970 Y110.2037 Z0.2171
G1 X245.3333 Y110.2030 Z0.2107
G1 X245.3696 Y110.2022 Z0.2043
G1 X245.4058 Y110.2014 Z0.1979
G1 X245.4421 Y110.2005 Z0.1915
G1 X245.4784 Y110.1996 Z0.1851
G1 X245.5147 Y110.1986 Z0.1787
G1 X245.5509 Y110.1976 Z0.1723
G1 X245.5872 Y110.1965 Z0.1659
G1 X245.6235 Y110.1953 Z0.1595
G1 X245.6598 Y110.1941 Z0.1531
G1 X245.6960 Y110.1929 Z0.1467
G1 X245.7323 Y110.1916 Z0.1403
G1 X245.7686 Y110.1902 Z0.1339
G1 X245.8048 Y110.1888 Z0.1275
G1 X245.8411 Y110.1873 Z0.1211
G1 X245.8773 Y110.1858 Z0.1147
G1 X245.9136 Y110.1842 Z0.1083
G1 X245.9498 Y110.1826 Z0.1019
G1 X245.9861 Y110.1809 Z0.0955
G1 X246.0223 Y110.1792 Z0.0891
G1 X246.0586 Y110.1774 Z0.0827
G1 X246.0948 Y110.1755 Z0.0763
G1 X246.1311 Y110.1736 Z0.0699
G1 X246.1673 Y110.1717 Z0.0635
G1 X246.2035 Y110.1696 Z0.0571
G1 X246.2398 Y110.1676 Z0.0507
G1 X246.2760 Y110.1655 Z0.0443
G1 X246.3122 Y110.1633 Z0.0379
G1 X245.2244 Y110.2050 Z-0.1540
G1 X245.2607 Y110.2043 Z-0.1604
G1 X245.2970 Y110.2037 Z-0.1668
G1 X245.3333 Y110.2030 Z-0.1732
G1 X245.3696 Y110.2022 Z-0.1796
G1 X245.4058 Y110.2014 Z-0.1860
G1 X245.4421 Y110.2005 Z-0.1924
G1 X245.4784 Y110.1996 Z-0.1988
G1 X245.5147 Y110.1986 Z-0.2052
G1 X245.5509 Y110.1976 Z-0.2116
G1 X245.5872 Y110.1965 Z-0.2180
G1 X245.6235 Y110.1953 Z-0.2244
G1 X245.6598 Y110.1941 Z-0.2308
G1 X245.6960 Y110.1929 Z-0.2372
G1 X245.7323 Y110.1916 Z-0.2436
G1 X245.7686 Y110.1902 Z-0.2500
G2 X246.3122 Y110.1633 I-0.9286 J-24.2434 F6000.
G1 X245.2244 Y110.2050 Z-0.2500
G2 X245.7686 Y110.1902 I-0.3844 J-24.2582
G0 Z10.0000
G0 X245.7686 Y110.1902
G0 Z10.0000
G0 X85.5755 Y88.5780
G1 X85.5755 Y88.5780 Z0.9500 F3000.
G1 X85.5755 Y88.5780 Z0.3500
G1 X87.5437 Y88.3424 Z0.0005
G1 X86.1288 Y88.2153 Z-0.2500
G2 X83.6178 Y88.1067 I-1.7642 J11.7056 F6000.
G1 X83.5588 Y88.1335 Z-0.2500
G1 X83.5068 Y88.1720 Z-0.2500
G1 X83.4639 Y88.2206 Z-0.2500
G1 X83.4321 Y88.2771 Z-0.2500
G1 X83.4129 Y88.3389 Z-0.2500
G1 X83.4070 Y88.4035 Z-0.2500
G1 X83.4148 Y88.4678 Z-0.2500
G1 X83.4358 Y88.5290 Z-0.2500
G1 X83.4692 Y88.5846 Z-0.2500
G1 X83.5135 Y88.6319 Z-0.2500
G1 X83.5667 Y88.6688 Z-0.2500
G1 X83.6264 Y88.6939 Z-0.2500
G1 X83.6901 Y88.7059 Z-0.2500
G1 X84.7209 Y88.6803 Z-0.2500
G1 X87.5437 Y88.3424 Z-0.2500
G1 X86.1288 Y88.2153 Z-0.2500
G1 X86.2629 Y86.7214 Z-0.2500
G1 X93.9295 Y87.4097 Z-0.2500
G1 X103.8064 Y88.0760 Z-0.2500
G1 X104.3260 Y88.0994 Z-0.2500
G1 X103.4667 Y88.1642 Z-0.2500
G1 X93.6204 Y89.1256 Z-0.2500
G1 X84.8289 Y90.1781 Z-0.2500
G3 X82.5268 Y89.7728 I-0.7600 J-2.4239
G3 X83.5158 Y86.5936 I1.1881 J-1.3738
G1 X84.7778 Y86.5880 Z-0.2500
G1 X86.2629 Y86.7214 Z-0.2500
G1 X86.3971 Y85.2274 Z-0.2500
G2 X82.6671 Y85.2437 I-1.8149 J11.4765
G2 X83.4472 Y91.7128 I1.0478 J3.1553
G1 X84.9369 Y91.6759 Z-0.2500
G1 X93.7987 Y90.6149 Z-0.2500
G1 X103.6124 Y89.6571 Z-0.2500
G1 X113.4504 Y88.9193 Z-0.2500
G1 X123.3061 Y88.4048 Z-0.2500
G1 X133.1745 Y88.1165 Z-0.2500
G1 X143.0506 Y88.0575 Z-0.2500
G1 X152.9288 Y88.2306 Z-0.2500
G1 X156.7029 Y88.3859 Z-0.2500
G3 X156.7189 Y86.2781 I8.7583 J-0.9873
G1 X153.2286 Y86.5267 Z-0.2500
G1 X143.3567 Y86.9959 Z-0.2500
G1 X133.4797 Y87.2329 Z-0.2500
G1 X123.6033 Y87.2403 Z-0.2500
G1 X113.7330 Y87.0209 Z-0.2500
G1 X103.8738 Y86.5775 Z-0.2500
G1 X94.0305 Y85.9131 Z-0.2500
G1 X86.3971 Y85.2274 Z-0.2500
G1 X86.5314 Y83.7335 Z-0.2500
G1 X94.1316 Y84.4165 Z-0.2500
G1 X103.9413 Y85.0790 Z-0.2500
G1 X113.7664 Y85.5213 Z-0.2500
G1 X123.6023 Y85.7403 Z-0.2500
G1 X133.4437 Y85.7334 Z-0.2500
G1 X143.2856 Y85.4976 Z-0.2500
G1 X153.1221 Y85.0305 Z-0.2500
G1 X158.3115 Y84.6609 Z-0.2500
G2 X158.4308 Y89.9586 I15.1990 J2.3081
G1 X152.9024 Y89.7303 Z-0.2500
G1 X143.0595 Y89.5575 Z-0.2500
G1 X133.2182 Y89.6159 Z-0.2500
G1 X123.3842 Y89.9027 Z-0.2500
G1 X113.5625 Y90.4151 Z-0.2500
G1 X103.7581 Y91.1500 Z-0.2500
G1 X93.9770 Y92.1043 Z-0.2500
G1 X85.0448 Y93.1737 Z-0.2500
G3 X79.3344 Y90.4409 I-1.1382 J-4.9542
G3 X83.1851 Y83.5950 I4.3805 J-2.0419
G1 X84.9056 Y83.5874 Z-0.2500
G1 X86.5314 Y83.7335 Z-0.2500
G1 X86.6657 Y82.2396 Z-0.2500
G2 X81.7163 Y82.3807 I-2.0862 J13.6950
G2 X83.2042 Y94.7198 I1.9986 J6.0183
G1 X85.1528 Y94.6715 Z-0.2500
G1 X94.1553 Y93.5937 Z-0.2500
G1 X103.9037 Y92.6429 Z-0.2500
G1 X113.6746 Y91.9109 Z-0.2500
G1 X123.4623 Y91.4007 Z-0.2500
G1 X133.2619 Y91.1153 Z-0.2500
G1 X143.0683 Y91.0575 Z-0.2500
G1 X152.8761 Y91.2301 Z-0.2500
G1 X160.2263 Y91.5341 Z-0.2500
G3 X160.1543 Y83.0259 I16.5151 J-4.3940
G1 X153.0155 Y83.5343 Z-0.2500
G1 X143.2145 Y83.9993 Z-0.2500
G1 X133.4079 Y84.2338 Z-0.2500
G1 X123.6013 Y84.2403 Z-0.2500
G1 X113.7999 Y84.0216 Z-0.2500
G1 X104.0088 Y83.5806 Z-0.2500
G1 X94.2327 Y82.9200 Z-0.2500
G1 X86.6657 Y82.2396 Z-0.2500
G1 X86.8001 Y80.7457 Z-0.2500
G1 X94.3339 Y81.4234 Z-0.2500
G1 X104.0763 Y82.0821 Z-0.2500
G1 X113.8334 Y82.5220 Z-0.2500
G1 X123.6003 Y82.7403 Z-0.2500
G1 X133.3721 Y82.7342 Z-0.2500
G1 X143.1434 Y82.5010 Z-0.2500
G1 X152.9090 Y82.0380 Z-0.2500
G1 X162.1588 Y81.3793 Z-0.2500
G2 X162.3806 Y93.1246 I14.9526 J5.5924
G1 X152.8496 Y92.7299 Z-0.2500
G1 X143.0771 Y92.5575 Z-0.2500
G1 X133.3055 Y92.6146 Z-0.2500
G1 X123.5403 Y92.8987 Z-0.2500
G1 X113.7866 Y93.4067 Z-0.2500
G1 X104.0492 Y94.1359 Z-0.2500
G1 X94.3337 Y95.0830 Z-0.2500
G1 X85.2608 Y96.1693 Z-0.2500
G3 X76.0157 Y86.8688 I-1.4510 J-7.8029
G3 X85.0336 Y80.5868 I7.8040 J1.5891
G1 X86.8001 Y80.7457 Z-0.2500
G1 X86.9345 Y79.2518 Z-0.2500
G2 X80.7656 Y79.5177 I-2.3893 J16.2616
G2 X82.9612 Y97.7267 I2.9493 J8.8813
G1 X85.3688 Y97.6670 Z-0.2500
G1 X94.5120 Y96.5724 Z-0.2500
G1 X104.1947 Y95.6288 Z-0.2500
G1 X113.8985 Y94.9025 Z-0.2500
G1 X123.6183 Y94.3966 Z-0.2500
G1 X133.3491 Y94.1140 Z-0.2500
G1 X143.0858 Y94.0574 Z-0.2500
G1 X152.8231 Y94.2296 Z-0.2500
G1 X162.5555 Y94.6332 Z-0.2500
G1 X164.9044 Y94.7867 Z-0.2500
G3 X164.6588 Y79.6460 I12.2192 J-7.7706
G1 X162.5205 Y79.8498 Z-0.2500
G1 X152.8024 Y80.5418 Z-0.2500
G1 X143.0725 Y81.0027 Z-0.2500
G1 X133.3364 Y81.2347 Z-0.2500
G1 X123.5995 Y81.2403 Z-0.2500
G1 X113.8670 Y81.0224 Z-0.2500
G1 X104.1440 Y80.5836 Z-0.2500
G1 X94.4352 Y79.9268 Z-0.2500
G1 X86.9345 Y79.2518 Z-0.2500
G1 X87.0690 Y77.7579 Z-0.2500
G1 X94.5365 Y78.4302 Z-0.2500
G1 X104.2116 Y79.0851 Z-0.2500
G1 X113.9006 Y79.5228 Z-0.2500
G1 X123.5986 Y79.7403 Z-0.2500
G1 X133.3007 Y79.7351 Z-0.2500
G1 X143.0016 Y79.5044 Z-0.2500
G1 X152.6959 Y79.0456 Z-0.2500
G1 X162.3782 Y78.3565 Z-0.2500
G1 X167.8304 Y77.8369 Z-0.2500
G2 X168.1576 Y96.5032 I9.5498 J9.1687
G1 X162.4933 Y96.1319 Z-0.2500
G1 X152.7965 Y95.7294 Z-0.2500
G1 X143.0944 Y95.5574 Z-0.2500
G1 X133.3926 Y95.6134 Z-0.2500
G1 X123.6962 Y95.8946 Z-0.2500
G1 X114.0104 Y96.3984 Z-0.2500
G1 X104.3402 Y97.1217 Z-0.2500
G1 X94.6903 Y98.0618 Z-0.2500
G1 X85.4767 Y99.1648 Z-0.2500
G3 X72.8495 Y88.5576 I-1.7246 J-10.7664
G3 X85.1617 Y77.5862 I10.9026 J-0.1592
G1 X87.0690 Y77.7579 Z-0.2500
G1 X87.2035 Y76.2640 Z-0.2500
G2 X79.8148 Y76.6547 I-2.7031 J18.9433
G2 X85.5847 Y100.6626 I3.9197 J11.7553
G1 X94.8686 Y99.5511 Z-0.2500
G1 X104.4855 Y98.6147 Z-0.2500
G1 X114.1223 Y97.8942 Z-0.2500
G1 X123.7740 Y97.3926 Z-0.2500
G1 X133.4360 Y97.1127 Z-0.2500
G1 X143.1030 Y97.0574 Z-0.2500
G1 X152.7698 Y97.2291 Z-0.2500
G1 X162.4311 Y97.6306 Z-0.2500
G1 X172.0810 Y98.2640 Z-0.2500
G1 X174.3260 Y98.4659 Z-0.2500
G3 X173.8142 Y75.7606 I3.1838 J-11.4302
G3 X173.9914 Y75.6907 I1.1890 J2.7543
G1 X171.8641 Y75.9456 Z-0.2500
G1 X162.2359 Y76.8633 Z-0.2500
G1 X152.5895 Y77.5494 Z-0.2500
G1 X142.9307 Y78.0060 Z-0.2500
G1 X133.2651 Y78.2355 Z-0.2500
G1 X123.5979 Y78.2403 Z-0.2500
G1 X113.9343 Y78.0232 Z-0.2500
G1 X104.2794 Y77.5867 Z-0.2500
G1 X94.6378 Y76.9336 Z-0.2500
G1 X87.2035 Y76.2640 Z-0.2500
G1 X87.3381 Y74.7702 Z-0.2500
G1 X94.7392 Y75.4371 Z-0.2500
G1 X104.3472 Y76.0882 Z-0.2500
G1 X113.9681 Y76.5235 Z-0.2500
G1 X123.5972 Y76.7403 Z-0.2500
G1 X133.2296 Y76.7359 Z-0.2500
G1 X142.8600 Y76.5077 Z-0.2500
G1 X152.4832 Y76.0532 Z-0.2500
G1 X162.0936 Y75.3701 Z-0.2500
G1 X171.6856 Y74.4562 Z-0.2500
G1 X181.2534 Y73.3097 Z-0.2500
G1 X190.7910 Y71.9285 Z-0.2500
G1 X200.2921 Y70.3111 Z-0.2500
G1 X209.7504 Y68.4559 Z-0.2500
G1 X219.1594 Y66.3617 Z-0.2500
G1 X228.5125 Y64.0277 Z-0.2500
G1 X237.7655 Y61.4643 Z-0.2500
G3 X265.6383 Y71.0093 I7.1533 J24.5801
G3 X266.0686 Y100.4680 I-20.7195 J15.0351
G3 X239.8690 Y111.1819 I-21.2286 J-14.5212
G1 X238.4676 Y110.8182 Z-0.2500
G1 X229.0872 Y108.5133 Z-0.2500
G1 X219.6701 Y106.4556 Z-0.2500
G1 X210.2043 Y104.6392 Z-0.2500
G1 X200.6963 Y103.0630 Z-0.2500
G1 X191.1525 Y101.7257 Z-0.2500
G1 X181.5793 Y100.6256 Z-0.2500
G1 X171.9827 Y99.7608 Z-0.2500
G1 X162.3687 Y99.1293 Z-0.2500
G1 X152.7431 Y98.7289 Z-0.2500
G1 X143.1116 Y98.5574 Z-0.2500
G1 X133.4794 Y98.6121 Z-0.2500
G1 X123.8518 Y98.8906 Z-0.2500
G1 X114.2340 Y99.3900 Z-0.2500
G1 X104.6309 Y100.1076 Z-0.2500
G1 X95.0469 Y101.0405 Z-0.2500
G1 X85.6927 Y102.1604 Z-0.2500
G3 X69.8331 Y88.6017 I-1.9604 J-13.7617
G3 X85.2899 Y74.5856 I13.8992 J-0.2030
G1 X87.3381 Y74.7702 Z-0.2500
G1 X87.2430 Y75.8266 Z0.8107 F3000.
G1 X87.2430 Y75.8266 Z1.4107
G0 Z10.0000
G0 X87.2430 Y75.8266
G0 Z10.0000
G0 X226.3049 Y363.3976
G1 X226.3049 Y363.3976 Z0.9500 F3000.
G1 X226.3049 Y363.3976 Z0.3500
G1 X226.5113 Y363.4171 Z0.3134
G1 X228.1064 Y363.5075 Z0.0317
G1 X229.7039 Y363.5376 Z-0.2500
G2 X252.4116 Y356.9345 I0.0000 J-42.3468 F6000.
G1 X255.6773 Y354.6368 Z-0.2500
G2 X270.4870 Y309.9654 I-26.1196 J-33.4499
G1 X268.1648 Y301.0797 Z-0.2500
G1 X266.0591 Y292.0808 Z-0.2500
G1 X264.1849 Y283.0320 Z-0.2500
G1 X262.5411 Y273.9396 Z-0.2500
G1 X261.1263 Y264.8100 Z-0.2500
G1 X259.9389 Y255.6492 Z-0.2500
G1 X258.9771 Y246.4632 Z-0.2500
G1 X258.2388 Y237.2579 Z-0.2500
G1 X257.7218 Y228.0387 Z-0.2500
G1 X257.4240 Y218.8110 Z-0.2500
G1 X257.3429 Y209.5800 Z-0.2500
G1 X257.4758 Y200.3509 Z-0.2500
G1 X257.8202 Y191.1287 Z-0.2500
G1 X258.3733 Y181.9178 Z-0.2500
G1 X260.0945 Y163.5481 Z-0.2500
G1 X260.2843 Y161.9086 Z-0.2500
G1 X260.3820 Y160.3081 Z-0.2500
G2 X247.4014 Y134.9561 I-30.7929 J-0.2327
G1 X244.6887 Y133.2449 Z-0.2500
G2 X214.7190 Y133.2449 I-14.9848 J26.7256
G1 X212.0705 Y134.9132 Z-0.2500
G2 X199.3080 Y163.4986 I17.7798 J25.0798
G1 X201.0229 Y181.7675 Z-0.2500
G1 X201.5825 Y191.0265 Z-0.2500
G1 X201.9292 Y200.2477 Z-0.2500
G1 X202.0645 Y209.4754 Z-0.2500
G1 X201.9859 Y218.7051 Z-0.2500
G1 X201.6906 Y227.9316 Z-0.2500
G1 X201.1763 Y237.1498 Z-0.2500
G1 X200.4407 Y246.3541 Z-0.2500
G1 X199.4817 Y255.5391 Z-0.2500
G1 X198.2972 Y264.6990 Z-0.2500
G1 X196.8854 Y273.8279 Z-0.2500
G1 X195.2446 Y282.9196 Z-0.2500
G1 X193.3735 Y291.9679 Z-0.2500
G1 X191.2710 Y300.9664 Z-0.2500
G1 X188.4224 Y311.7747 Z-0.2500
G1 X188.0032 Y313.6271 Z-0.2500
G2 X203.7904 Y354.6770 I41.8030 J7.4839
G1 X206.9961 Y356.9345 Z-0.2500
G2 X229.7039 Y363.5376 I22.7078 J-35.7437
G1 X229.7039 Y364.9905 Z-0.2500
G3 X204.5001 Y357.0124 I0.0000 J-43.7997
G3 X186.9652 Y311.4179 I25.3061 J-35.9014
G1 X189.8103 Y300.6251 Z-0.2500
G1 X191.9046 Y291.6641 Z-0.2500
G1 X193.7685 Y282.6531 Z-0.2500
G1 X195.4030 Y273.5985 Z-0.2500
G1 X196.8096 Y264.5065 Z-0.2500
G1 X197.9898 Y255.3832 Z-0.2500
G1 X198.9455 Y246.2345 Z-0.2500
G1 X199.6786 Y237.0661 Z-0.2500
G1 X200.1914 Y227.8836 Z-0.2500
G1 X200.4859 Y218.6922 Z-0.2500
G1 X200.5647 Y209.4974 Z-0.2500
G1 X200.4302 Y200.3040 Z-0.2500
G1 X200.0852 Y191.1169 Z-0.2500
G1 X199.5294 Y181.9077 Z-0.2500
G1 X197.8180 Y163.6715 Z-0.2500
G3 X212.5953 Y132.8098 I31.8859 J-3.7010
G3 X246.8124 Y132.8098 I17.1086 J27.1607
G3 X261.7790 Y162.0407 I-17.2233 J27.2656
G1 X261.5863 Y163.7044 Z-0.2500
G1 X259.8706 Y182.0078 Z-0.2500
G1 X259.3192 Y191.1847 Z-0.2500
G1 X258.9757 Y200.3726 Z-0.2500
G1 X258.8428 Y209.5669 Z-0.2500
G1 X258.9232 Y218.7627 Z-0.2500
G1 X259.2195 Y227.9548 Z-0.2500
G1 X259.7340 Y237.1380 Z-0.2500
G1 X260.4689 Y246.3071 Z-0.2500
G1 X261.4265 Y255.4565 Z-0.2500
G1 X262.6086 Y264.5803 Z-0.2500
G1 X264.0172 Y273.6728 Z-0.2500
G1 X265.6537 Y282.7278 Z-0.2500
G1 X267.5196 Y291.7391 Z-0.2500
G1 X269.6160 Y300.7004 Z-0.2500
G1 X271.9332 Y309.5673 Z-0.2500
G3 X254.9076 Y357.0124 I-42.2293 J11.6235
G3 X229.7039 Y364.9905 I-25.2037 J-35.8216
G1 X229.3838 Y363.9793 Z0.8107 F3000.
G1 X229.3838 Y363.9793 Z1.4107
G0 Z10.0000
G0 X229.3838 Y363.9793
G0 Z10.0000
G0 X292.3995 Y323.9440
G1 X292.3995 Y323.9440 Z-0.1500 F3000.
G1 X292.3995 Y323.9440 Z-0.7500
G1 X290.1487 Y323.9440 Z-1.1469
G1 X290.1487 Y325.0961 Z-1.3500
G1 X290.1487 Y326.2481 Z-1.3500 F6000.
G1 X296.2553 Y326.2481 Z-1.3500
G1 X296.2553 Y323.9440 Z-1.3500
G1 X290.1487 Y323.9440 Z-1.3500
G1 X290.1487 Y325.0961 Z-1.3500
G1 X288.6487 Y325.0961 Z-1.3500
G1 X288.6487 Y322.4440 Z-1.3500
G1 X297.7553 Y322.4440 Z-1.3500
G1 X297.7553 Y327.7481 Z-1.3500
G1 X288.6487 Y327.7481 Z-1.3500
G1 X288.6487 Y325.0961 Z-1.3500
G0 Z10.0000
G0 X288.6487 Y325.0961
G0 Z10.0000
G0 X290.1487 Y325.0961
G1 X290.1487 Y325.0961 Z-2.7000 F3000.
G1 X290.1487 Y326.2481 Z-2.7000 F6000.
G1 X296.2553 Y326.2481 Z-2.7000
G1 X296.2553 Y323.9440 Z-2.7000
G1 X290.1487 Y323.9440 Z-2.7000
G1 X290.1487 Y325.0961 Z-2.7000
G1 X288.6487 Y325.0961 Z-2.7000
G1 X288.6487 Y322.4440 Z-2.7000
G1 X297.7553 Y322.4440 Z-2.7000
G1 X297.7553 Y327.7481 Z-2.7000
G1 X288.6487 Y327.7481 Z-2.7000
G1 X288.6487 Y325.0961 Z-2.7000
G1 X289.7094 Y325.0961 Z-1.6393 F3000.
G1 X289.7094 Y325.0961 Z-1.0393
G0 Z10.0000
G0 X289.7094 Y325.0961
G0 Z10.0000
G0 X194.3459 Y168.4452
G1 X194.3459 Y168.4452 Z-0.1500 F3000.
G1 X194.3459 Y168.4452 Z-0.7500
G1 X194.3459 Y168.4679 Z-0.7540
G1 X197.7260 Y168.4679 Z-1.3500
G1 X201.1060 Y168.4679 Z-1.3500 F6000.
G1 X201.1060 Y166.1639 Z-1.3500
G1 X194.3459 Y166.1639 Z-1.3500
G1 X194.3459 Y168.4679 Z-1.3500
G1 X197.7260 Y168.4679 Z-1.3500
G1 X197.7260 Y169.9679 Z-1.3500
G1 X192.8459 Y169.9679 Z-1.3500
G1 X192.8459 Y164.6639 Z-1.3500
G1 X202.6060 Y164.6639 Z-1.3500
G1 X202.6060 Y169.9679 Z-1.3500
G1 X197.7260 Y169.9679 Z-1.3500
G0 Z10.0000
G0 X197.7260 Y169.9679
G0 Z10.0000
G0 X197.7260 Y168.4679
G1 X197.7260 Y168.4679 Z-2.7000 F3000.
G1 X201.1060 Y168.4679 Z-2.7000 F6000.
G1 X201.1060 Y166.1639 Z-2.7000
G1 X194.3459 Y166.1639 Z-2.7000
G1 X194.3459 Y168.4679 Z-2.7000
G1 X197.7260 Y168.4679 Z-2.7000
G1 X197.7260 Y169.9679 Z-2.7000
G1 X192.8459 Y169.9679 Z-2.7000
G1 X192.8459 Y164.6639 Z-2.7000
G1 X202.6060 Y164.6639 Z-2.7000
G1 X202.6060 Y169.9679 Z-2.7000
G1 X197.7260 Y169.9679 Z-2.7000
G1 X197.7260 Y168.9073 Z-1.6393 F3000.
G1 X197.7260 Y168.9073 Z-1.0393
G0 Z10.0000
G0 X197.7260 Y168.9073
G0 Z10.0000
G0 X114.4788 Y26.0564
G1 X114.4788 Y26.0564 Z-2.0000 F3000.
G1 X119.4468 Y26.2647 Z-2.0000 F6000.
G3 X124.0778 Y26.9052 I1.0521 J9.4551
G3 X122.5129 Y39.9881 I-2.8660 J6.2922
G1 X116.6003 Y40.5801 Z-2.0000
G1 X110.4360 Y41.2929 Z-2.0000
G1 X100.6389 Y42.6248 Z-2.0000
G1 X93.8952 Y43.7127 Z-2.0000
G1 X93.8952 Y43.7127 Z0.0000
G1 X90.8868 Y44.1980 Z0.0000
G1 X83.9841 Y45.4668 Z0.0000
G1 X83.9841 Y45.4668 Z-2.0000
G1 X83.6629 Y45.5259 Z-2.0000
G1 X76.4643 Y46.9895 Z-2.0000
G1 X69.1565 Y48.6214 Z-2.0000
G1 X61.8902 Y50.3927 Z-2.0000
G1 X56.8963 Y51.6979 Z-2.0000
G1 X51.9204 Y53.0707 Z-2.0000
G1 X46.9635 Y54.5113 Z-2.0000
G3 X39.7834 Y56.5833 I-24.8677 J-72.6982
G3 X15.0345 Y36.0694 I-3.9536 J-20.4162
G3 X39.9751 Y15.7889 I20.7953 J0.0977
G1 X39.9751 Y15.7889 Z0.0000
G1 X40.7076 Y15.9418 Z0.0000
G1 X47.1459 Y17.4153 Z0.0000
G1 X49.7313 Y17.9594 Z0.0000
G1 X49.7313 Y17.9594 Z-2.0000
G1 X53.6371 Y18.7813 Z-2.0000
G1 X60.1507 Y20.0337 Z-2.0000
G1 X66.6899 Y21.1735 Z-2.0000
G1 X74.5258 Y22.3872 Z-2.0000
G1 X82.3873 Y23.4405 Z-2.0000
G1 X91.0101 Y24.4099 Z-2.0000
G1 X99.6561 Y25.1895 Z-2.0000
G1 X109.5582 Y25.8496 Z-2.0000
G1 X114.4788 Y26.0564 Z-2.0000
G1 X114.4788 Y26.0564 Z-4.0000
G1 X109.5582 Y25.8496 Z-4.0000
G1 X99.6561 Y25.1895 Z-4.0000
G1 X91.0101 Y24.4099 Z-4.0000
G1 X82.3873 Y23.4405 Z-4.0000
G1 X74.5258 Y22.3872 Z-4.0000
G1 X66.6899 Y21.1735 Z-4.0000
G1 X60.1507 Y20.0337 Z-4.0000
G1 X53.6371 Y18.7813 Z-4.0000
G1 X49.7313 Y17.9594 Z-4.0000
G1 X49.7313 Y17.9594 Z0.0000
G1 X47.1459 Y17.4153 Z0.0000
G1 X40.7076 Y15.9418 Z0.0000
G1 X39.9751 Y15.7889 Z0.0000
G1 X39.9751 Y15.7889 Z-4.0000
G2 X15.0634 Y37.2637 I-4.1443 J20.3792
G2 X42.0965 Y55.9980 I20.7674 J-1.0956
G1 X46.9635 Y54.5113 Z-4.0000
G1 X51.9204 Y53.0707 Z-4.0000
G1 X56.8963 Y51.6979 Z-4.0000
G1 X61.8902 Y50.3927 Z-4.0000
G1 X69.1565 Y48.6214 Z-4.0000
G1 X76.4643 Y46.9895 Z-4.0000
G1 X83.6629 Y45.5259 Z-4.0000
G1 X83.9841 Y45.4668 Z-4.0000
G1 X83.9841 Y45.4668 Z0.0000
G1 X90.8868 Y44.1980 Z0.0000
G1 X93.8952 Y43.7127 Z0.0000
G1 X93.8952 Y43.7127 Z-4.0000
G1 X100.6389 Y42.6248 Z-4.0000
G1 X110.4360 Y41.2929 Z-4.0000
G1 X116.6003 Y40.5801 Z-4.0000
G1 X122.5129 Y39.9881 Z-4.0000
G2 X122.0447 Y26.3328 I-1.3015 J-6.7911
G1 X119.4468 Y26.2647 Z-4.0000
G1 X114.4788 Y26.0564 Z-4.0000
G0 Z10.0000
G0 X114.4788 Y26.0564
G0 Z10.0000
G0 X206.2466 Y96.4702
G1 X206.2466 Y96.4702 Z-2.0000 F3000.
G1 X202.4412 Y95.8442 Z-2.0000 F6000.
G1 X195.0633 Y94.7757 Z-2.0000
G1 X187.6720 Y93.8472 Z-2.0000
G1 X181.5830 Y93.1878 Z-2.0000
G1 X175.8676 Y92.6568 Z-2.0000
G3 X175.1974 Y81.6346 I1.6281 J-5.6305
G1 X175.1974 Y81.6346 Z0.0000
G1 X175.7067 Y81.4505 Z0.0000
G1 X182.9128 Y80.5541 Z0.0000
G1 X184.4788 Y80.3290 Z0.0000
G1 X184.4788 Y80.3290 Z-2.0000
G1 X190.4329 Y79.4732 Z-2.0000
G1 X197.7302 Y78.2831 Z-2.0000
G1 X205.0049 Y76.9559 Z-2.0000
G1 X212.3936 Y75.4614 Z-2.0000
G1 X219.7434 Y73.8256 Z-2.0000
G1 X224.7970 Y72.6129 Z-2.0000
G1 X229.8338 Y71.3317 Z-2.0000
G1 X234.8529 Y69.9820 Z-2.0000
G3 X241.8233 Y68.1113 I22.6582 J70.5042
G3 X260.9717 Y94.6062 I3.0982 J17.9278
G1 X260.9717 Y94.6062 Z0.0000
G3 X255.3384 Y100.9653 I-15.9615 J-8.4652
G1 X255.3384 Y100.9653 Z-2.0000
G3 X240.2937 Y103.6472 I-10.4226 J-14.9286
G1 X234.6553 Y102.2301 Z-2.0000
G1 X228.9661 Y100.8931 Z-2.0000
G1 X223.2574 Y99.6433 Z-2.0000
G1 X217.5236 Y98.4793 Z-2.0000
G1 X209.9948 Y97.0874 Z-2.0000
G1 X206.2466 Y96.4702 Z-2.0000
G1 X206.2466 Y96.4702 Z-4.0000
G1 X209.9948 Y97.0874 Z-4.0000
G1 X217.5236 Y98.4793 Z-4.0000
G1 X223.2574 Y99.6433 Z-4.0000
G1 X228.9661 Y100.8931 Z-4.0000
G1 X234.6553 Y102.2301 Z-4.0000
G2 X242.3484 Y104.0603 I22.9691 J-79.4678
G2 X255.3384 Y100.9653 I2.5719 J-18.0132
G1 X255.3384 Y100.9653 Z0.0000
G2 X260.9717 Y94.6062 I-10.3551 J-14.8481
G1 X260.9717 Y94.6062 Z-4.0000
G2 X239.7828 Y68.5839 I-16.0524 J-8.5669
G1 X234.8529 Y69.9820 Z-4.0000
G1 X229.8338 Y71.3317 Z-4.0000
G1 X224.7970 Y72.6129 Z-4.0000
G1 X219.7434 Y73.8256 Z-4.0000
G1 X212.3936 Y75.4614 Z-4.0000
G1 X205.0049 Y76.9559 Z-4.0000
G1 X197.7302 Y78.2831 Z-4.0000
G1 X190.4329 Y79.4732 Z-4.0000
G1 X184.4788 Y80.3290 Z-4.0000
G1 X184.4788 Y80.3290 Z0.0000
G1 X182.9128 Y80.5541 Z0.0000
G1 X175.7067 Y81.4505 Z0.0000
G1 X175.1974 Y81.6346 Z0.0000
G1 X175.1974 Y81.6346 Z-4.0000
G2 X175.8676 Y92.6568 I2.2983 J5.3917
G1 X181.5830 Y93.1878 Z-4.0000
G1 X187.6720 Y93.8472 Z-4.0000
G1 X195.0633 Y94.7757 Z-4.0000
G1 X202.4412 Y95.8442 Z-4.0000
G1 X206.2466 Y96.4702 Z-4.0000
G0 Z10.0000
G0 X206.2466 Y96.4702
G0 Z10.0000
G0 X66.5017 Y200.8115
G1 X66.5017 Y200.8115 Z-2.0000 F3000.
G1 X66.2670 Y205.4718 Z-2.0000 F6000.
G1 X66.0060 Y214.7339 Z-2.0000
G1 X65.9525 Y223.8159 Z-2.0000
G1 X66.1010 Y232.8842 Z-2.0000
G1 X66.2903 Y238.3797 Z-2.0000
G1 X66.5551 Y243.8724 Z-2.0000
G1 X66.8958 Y249.3611 Z-2.0000
G1 X67.3126 Y254.8428 Z-2.0000
G1 X67.7552 Y259.7911 Z-2.0000
G1 X68.2607 Y264.7336 Z-2.0000
G1 X68.8295 Y269.6695 Z-2.0000
G1 X69.4632 Y274.6084 Z-2.0000
G1 X70.5682 Y282.2231 Z-2.0000
G1 X71.8269 Y289.8142 Z-2.0000
G1 X73.2324 Y297.3400 Z-2.0000
G1 X74.7890 Y304.8251 Z-2.0000
G1 X75.8703 Y309.6178 Z-2.0000
G1 X77.0153 Y314.3958 Z-2.0000
G1 X78.2239 Y319.1584 Z-2.0000
G1 X78.8420 Y321.4644 Z-2.0000
G1 X78.8420 Y321.4644 Z0.0000
G3 X80.5702 Y330.7060 I-36.2072 J11.5533
G1 X80.5702 Y330.7060 Z-2.0000
G3 X45.9256 Y363.1691 I-31.1635 J1.4602
G3 X19.3429 Y323.8313 I3.4811 J-31.0029
G1 X21.0168 Y317.5281 Z-2.0000
G1 X22.5848 Y311.1685 Z-2.0000
G1 X24.0398 Y304.7824 Z-2.0000
G1 X25.3820 Y298.3720 Z-2.0000
G1 X26.6157 Y291.9174 Z-2.0000
G1 X27.7368 Y285.4424 Z-2.0000
G1 X28.7527 Y278.9006 Z-2.0000
G1 X29.6561 Y272.3338 Z-2.0000
G1 X30.6904 Y263.5025 Z-2.0000
G1 X31.5226 Y254.6506 Z-2.0000
G1 X32.1543 Y245.7828 Z-2.0000
G1 X32.5873 Y236.9048 Z-2.0000
G1 X32.8180 Y228.3470 Z-2.0000
G1 X32.8680 Y219.7868 Z-2.0000
G1 X32.7390 Y211.2281 Z-2.0000
G1 X32.4333 Y202.6785 Z-2.0000
G1 X32.3260 Y200.7239 Z-2.0000
G1 X32.3260 Y200.7239 Z0.0000
G1 X32.0273 Y195.2854 Z0.0000
G1 X31.6941 Y190.6915 Z0.0000
G1 X31.6941 Y190.6915 Z-2.0000
G1 X31.4917 Y187.9009 Z-2.0000
G1 X30.8277 Y180.5274 Z-2.0000
G3 X29.9268 Y170.1572 I75.9992 J-11.8271
G3 X50.9728 Y151.5087 I19.4837 J0.7885
G3 X68.7700 Y173.2794 I-1.5623 J19.4370
G1 X68.1505 Y178.9492 Z-2.0000
G1 X67.6006 Y184.6944 Z-2.0000
G1 X67.1284 Y190.4468 Z-2.0000
G1 X66.7338 Y196.2179 Z-2.0000
G1 X66.5017 Y200.8115 Z-2.0000
G1 X66.5017 Y200.8115 Z-4.0000
G1 X66.7338 Y196.2179 Z-4.0000
G1 X67.1284 Y190.4468 Z-4.0000
G1 X67.6006 Y184.6944 Z-4.0000
G1 X68.1505 Y178.9492 Z-4.0000
G2 X68.8926 Y170.1572 I-62.6989 J-9.7200
G2 X47.8451 Y151.5088 I-19.4838 J0.7885
G2 X30.0496 Y173.2822 I1.5637 J19.4369
G1 X30.8277 Y180.5274 Z-4.0000
G1 X31.4917 Y187.9009 Z-4.0000
G1 X31.6941 Y190.6915 Z-4.0000
G1 X31.6941 Y190.6915 Z0.0000
G1 X32.0273 Y195.2854 Z0.0000
G1 X32.3260 Y200.7239 Z0.0000
G1 X32.3260 Y200.7239 Z-4.0000
G1 X32.4333 Y202.6785 Z-4.0000
G1 X32.7390 Y211.2281 Z-4.0000
G1 X32.8680 Y219.7868 Z-4.0000
G1 X32.8180 Y228.3470 Z-4.0000
G1 X32.5873 Y236.9048 Z-4.0000
G1 X32.1543 Y245.7828 Z-4.0000
G1 X31.5226 Y254.6506 Z-4.0000
G1 X30.6904 Y263.5025 Z-4.0000
G1 X29.6561 Y272.3338 Z-4.0000
G1 X28.7527 Y278.9006 Z-4.0000
G1 X27.7368 Y285.4424 Z-4.0000
G1 X26.6157 Y291.9174 Z-4.0000
G1 X25.3820 Y298.3720 Z-4.0000
G1 X24.0398 Y304.7824 Z-4.0000
G1 X22.5848 Y311.1685 Z-4.0000
G1 X21.0168 Y317.5281 Z-4.0000
G2 X18.5915 Y327.3073 I103.4842 J30.8558
G2 X47.6994 Y363.3171 I30.8160 J4.8597
G2 X80.5702 Y330.7060 I1.7081 J-31.1501
G1 X80.5702 Y330.7060 Z0.0000
G2 X78.8420 Y321.4644 I-35.5248 J1.8609
G1 X78.8420 Y321.4644 Z-4.0000
G1 X78.2239 Y319.1584 Z-4.0000
G1 X77.0153 Y314.3958 Z-4.0000
G1 X75.8703 Y309.6178 Z-4.0000
G1 X74.7890 Y304.8251 Z-4.0000
G1 X73.2324 Y297.3400 Z-4.0000
G1 X71.8269 Y289.8142 Z-4.0000
G1 X70.5682 Y282.2231 Z-4.0000
G1 X69.4632 Y274.6084 Z-4.0000
G1 X68.8295 Y269.6695 Z-4.0000
G1 X68.2607 Y264.7336 Z-4.0000
G1 X67.7552 Y259.7911 Z-4.0000
G1 X67.3126 Y254.8428 Z-4.0000
G1 X66.8958 Y249.3611 Z-4.0000
G1 X66.5551 Y243.8724 Z-4.0000
G1 X66.2903 Y238.3797 Z-4.0000
G1 X66.1010 Y232.8842 Z-4.0000
G1 X65.9525 Y223.8159 Z-4.0000
G1 X66.0060 Y214.7339 Z-4.0000
G1 X66.2670 Y205.4718 Z-4.0000
G1 X66.5017 Y200.8115 Z-4.0000
G0 Z10.0000
G0 X66.5017 Y200.8115
G0 Z10.0000
G0 X157.8622 Y330.5077
G1 X157.8622 Y330.5077 Z-2.0000 F3000.
G3 X158.4642 Y338.4393 I-43.6442 J7.3010 F6000.
G3 X134.6355 Y359.5777 I-22.0816 J-0.8920
G3 X114.4365 Y334.9477 I1.7471 J-22.0304
G1 X115.2475 Y327.3677 Z-2.0000
G1 X115.9248 Y319.7484 Z-2.0000
G1 X116.4641 Y312.1177 Z-2.0000
G1 X116.8636 Y304.4861 Z-2.0000
G1 X117.0606 Y299.1070 Z-2.0000
G1 X117.0624 Y299.0325 Z-2.0000
G1 X117.0624 Y299.0325 Z0.0000
G1 X117.1874 Y293.7256 Z0.0000
G1 X117.2366 Y288.9948 Z0.0000
G1 X117.2366 Y288.9948 Z-2.0000
G1 X117.2433 Y288.3426 Z-2.0000
G1 X117.2279 Y282.9521 Z-2.0000
G1 X117.0928 Y275.6705 Z-2.0000
G1 X116.8252 Y268.3921 Z-2.0000
G1 X116.4242 Y261.1194 Z-2.0000
G1 X115.8889 Y253.8576 Z-2.0000
G1 X115.2886 Y247.3048 Z-2.0000
G1 X114.5771 Y240.7626 Z-2.0000
G1 X113.7536 Y234.2333 Z-2.0000
G1 X112.8163 Y227.7104 Z-2.0000
G1 X111.4047 Y219.1234 Z-2.0000
G1 X109.7961 Y210.5797 Z-2.0000
G1 X108.4623 Y204.2141 Z-2.0000
G1 X107.0166 Y197.8726 Z-2.0000
G1 X105.4587 Y191.5575 Z-2.0000
G3 X102.9968 Y181.5891 I105.2506 J-31.2816
G3 X138.3107 Y142.5826 I33.3875 J-5.2619
G3 X168.9559 Y185.3547 I-1.9264 J33.7446
G1 X166.7661 Y193.7005 Z-2.0000
G1 X166.3372 Y195.5084 Z-2.0000
G1 X166.3372 Y195.5084 Z0.0000
G1 X164.7691 Y202.1189 Z0.0000
G1 X164.0881 Y205.3240 Z0.0000
G1 X164.0881 Y205.3240 Z-2.0000
G1 X162.9631 Y210.6181 Z-2.0000
G1 X161.3562 Y219.1568 Z-2.0000
G1 X159.9403 Y227.7775 Z-2.0000
G1 X158.7237 Y236.4281 Z-2.0000
G1 X157.6989 Y245.1621 Z-2.0000
G1 X156.8731 Y253.9168 Z-2.0000
G1 X156.2383 Y262.7958 Z-2.0000
G1 X155.8043 Y271.6741 Z-2.0000
G1 X155.6314 Y277.3353 Z-2.0000
G1 X155.5384 Y282.9981 Z-2.0000
G1 X155.5248 Y288.6614 Z-2.0000
G1 X155.5900 Y294.3241 Z-2.0000
G1 X155.7342 Y300.0066 Z-2.0000
G1 X155.9567 Y305.6862 Z-2.0000
G1 X156.2568 Y311.3620 Z-2.0000
G1 X156.6350 Y317.0447 Z-2.0000
G1 X157.3920 Y326.0472 Z-2.0000
G1 X157.8622 Y330.5077 Z-2.0000
G1 X157.8622 Y330.5077 Z-4.0000
G1 X157.3920 Y326.0472 Z-4.0000
G1 X156.6350 Y317.0447 Z-4.0000
G1 X156.2568 Y311.3620 Z-4.0000
G1 X155.9567 Y305.6862 Z-4.0000
G1 X155.7342 Y300.0066 Z-4.0000
G1 X155.5900 Y294.3241 Z-4.0000
G1 X155.5248 Y288.6614 Z-4.0000
G1 X155.5384 Y282.9981 Z-4.0000
G1 X155.6314 Y277.3353 Z-4.0000
G1 X155.8043 Y271.6741 Z-4.0000
G1 X156.2383 Y262.7958 Z-4.0000
G1 X156.8731 Y253.9168 Z-4.0000
G1 X157.6989 Y245.1621 Z-4.0000
G1 X158.7237 Y236.4281 Z-4.0000
G1 X159.9403 Y227.7775 Z-4.0000
G1 X161.3562 Y219.1568 Z-4.0000
G1 X162.9631 Y210.6181 Z-4.0000
G1 X164.0881 Y205.3240 Z-4.0000
G1 X164.0881 Y205.3240 Z0.0000
G1 X164.7691 Y202.1189 Z0.0000
G1 X166.3372 Y195.5084 Z0.0000
G1 X166.3372 Y195.5084 Z-4.0000
G1 X166.7661 Y193.7005 Z-4.0000
G2 X169.7699 Y181.5891 I-137.0019 J-40.4071
G2 X134.4583 Y142.5825 I-33.3873 J-5.2619
G2 X103.8098 Y185.3504 I1.9243 J33.7447
G1 X105.4587 Y191.5575 Z-4.0000
G1 X107.0166 Y197.8726 Z-4.0000
G1 X108.4623 Y204.2141 Z-4.0000
G1 X109.7961 Y210.5797 Z-4.0000
G1 X111.4047 Y219.1234 Z-4.0000
G1 X112.8163 Y227.7104 Z-4.0000
G1 X113.7536 Y234.2333 Z-4.0000
G1 X114.5771 Y240.7626 Z-4.0000
G1 X115.2886 Y247.3048 Z-4.0000
G1 X115.8889 Y253.8576 Z-4.0000
G1 X116.4242 Y261.1194 Z-4.0000
G1 X116.8252 Y268.3921 Z-4.0000
G1 X117.0928 Y275.6705 Z-4.0000
G1 X117.2279 Y282.9521 Z-4.0000
G1 X117.2433 Y288.3426 Z-4.0000
G1 X117.2366 Y288.9948 Z-4.0000
G1 X117.2366 Y288.9948 Z0.0000
G1 X117.1874 Y293.7256 Z0.0000
G1 X117.0624 Y299.0325 Z0.0000
G1 X117.0624 Y299.0325 Z-4.0000
G1 X117.0606 Y299.1070 Z-4.0000
G1 X116.8636 Y304.4861 Z-4.0000
G1 X116.4641 Y312.1177 Z-4.0000
G1 X115.9248 Y319.7484 Z-4.0000
G1 X115.2475 Y327.3677 Z-4.0000
G2 X114.2864 Y337.2774 I116.7143 J16.3214
G2 X136.9543 Y359.6397 I22.0971 J0.2709
G2 X158.4371 Y336.1367 I-0.5708 J-22.0914
G1 X157.8622 Y330.5077 Z-4.0000
G0 Z10.0000
G0 X157.8622 Y330.5077
G0 Z10.0000
G0 X205.6933 Y167.8592
G1 X205.6933 Y167.8592 Z-2.0000 F3000.
G1 X205.0555 Y161.5474 Z-2.0000 F6000.
G3 X230.3700 Y135.2799 I24.6492 J-1.5768
G3 X254.2332 Y162.8726 I-0.6653 J24.6907
G1 X253.2949 Y171.7792 Z-2.0000
G1 X252.5446 Y180.7155 Z-2.0000
G1 X252.1703 Y186.3512 Z-2.0000
G1 X251.8726 Y191.9918 Z-2.0000
G1 X251.8132 Y193.5112 Z-2.0000
G1 X251.8132 Y193.5112 Z0.0000
G1 X251.6520 Y197.6362 Z0.0000
G1 X251.5093 Y203.2833 Z0.0000
G1 X251.5058 Y203.5891 Z0.0000
G1 X251.5058 Y203.5891 Z-2.0000
G1 X251.4451 Y208.9098 Z-2.0000
G1 X251.4592 Y214.5369 Z-2.0000
G1 X251.5521 Y220.1636 Z-2.0000
G1 X251.7251 Y225.8009 Z-2.0000
G1 X252.1581 Y234.6333 Z-2.0000
G1 X252.7903 Y243.4539 Z-2.0000
G1 X253.6120 Y252.1499 Z-2.0000
G1 X254.6316 Y260.8253 Z-2.0000
G1 X255.8415 Y269.4168 Z-2.0000
G1 X257.2493 Y277.9785 Z-2.0000
G1 X258.8466 Y286.4576 Z-2.0000
G1 X260.6417 Y294.8975 Z-2.0000
G1 X262.6262 Y303.2561 Z-2.0000
G3 X265.6587 Y315.5242 I-138.3690 J40.7117
G3 X227.6306 Y357.5313 I-35.9557 J5.6667
G3 X194.6246 Y311.4733 I2.0724 J-36.3404
G1 X195.8392 Y306.8442 Z-2.0000
G1 X195.8392 Y306.8442 Z0.0000
G1 X196.7987 Y303.1871 Z0.0000
G1 X198.2506 Y297.0668 Z0.0000
G1 X198.2506 Y297.0668 Z-2.0000
G1 X198.7815 Y294.8286 Z-2.0000
G1 X200.5749 Y286.3889 Z-2.0000
G1 X202.1705 Y277.9099 Z-2.0000
G1 X203.5767 Y269.3484 Z-2.0000
G1 X204.7850 Y260.7572 Z-2.0000
G1 X205.8029 Y252.0819 Z-2.0000
G1 X206.6231 Y243.3861 Z-2.0000
G1 X207.2537 Y234.5657 Z-2.0000
G1 X207.6848 Y225.7461 Z-2.0000
G1 X207.8566 Y220.1213 Z-2.0000
G1 X207.9490 Y214.4948 Z-2.0000
G1 X207.9625 Y208.8680 Z-2.0000
G1 X207.8977 Y203.2438 Z-2.0000
G1 X207.7727 Y198.1757 Z-2.0000
G1 X207.5850 Y193.1098 Z-2.0000
G1 X207.3350 Y188.0468 Z-2.0000
G1 X207.0218 Y182.9694 Z-2.0000
G1 X206.2141 Y172.8646 Z-2.0000
G1 X205.6933 Y167.8592 Z-2.0000
G1 X205.6933 Y167.8592 Z-4.0000
G1 X206.2141 Y172.8646 Z-4.0000
G1 X207.0218 Y182.9694 Z-4.0000
G1 X207.3350 Y188.0468 Z-4.0000
G1 X207.5850 Y193.1098 Z-4.0000
G1 X207.7727 Y198.1757 Z-4.0000
G1 X207.8977 Y203.2438 Z-4.0000
G1 X207.9625 Y208.8680 Z-4.0000
G1 X207.9490 Y214.4948 Z-4.0000
G1 X207.8566 Y220.1213 Z-4.0000
G1 X207.6848 Y225.7461 Z-4.0000
G1 X207.2537 Y234.5657 Z-4.0000
G1 X206.6231 Y243.3861 Z-4.0000
G1 X205.8029 Y252.0819 Z-4.0000
G1 X204.7850 Y260.7572 Z-4.0000
G1 X203.5767 Y269.3484 Z-4.0000
G1 X202.1705 Y277.9099 Z-4.0000
G1 X200.5749 Y286.3889 Z-4.0000
G1 X198.7815 Y294.8286 Z-4.0000
G1 X198.2506 Y297.0668 Z-4.0000
G1 X198.2506 Y297.0668 Z0.0000
G1 X196.7987 Y303.1871 Z0.0000
G1 X195.8392 Y306.8442 Z0.0000
G1 X195.8392 Y306.8442 Z-4.0000
G2 X193.3369 Y319.6713 I49.9647 J16.4047
G2 X233.8541 Y357.3530 I36.3678 J1.5195
G2 X264.7831 Y311.4733 I-4.1494 J-36.1622
G1 X262.6262 Y303.2561 Z-4.0000
G1 X260.6417 Y294.8975 Z-4.0000
G1 X258.8466 Y286.4576 Z-4.0000
G1 X257.2493 Y277.9785 Z-4.0000
G1 X255.8415 Y269.4168 Z-4.0000
G1 X254.6316 Y260.8253 Z-4.0000
G1 X253.6120 Y252.1499 Z-4.0000
G1 X252.7903 Y243.4539 Z-4.0000
G1 X252.1581 Y234.6333 Z-4.0000
G1 X251.7251 Y225.8009 Z-4.0000
G1 X251.5521 Y220.1636 Z-4.0000
G1 X251.4592 Y214.5369 Z-4.0000
G1 X251.4451 Y208.9098 Z-4.0000
G1 X251.5058 Y203.5891 Z-4.0000
G1 X251.5058 Y203.5891 Z0.0000
G1 X251.5093 Y203.2833 Z0.0000
G1 X251.6520 Y197.6362 Z0.0000
G1 X251.8132 Y193.5112 Z0.0000
G1 X251.8132 Y193.5112 Z-4.0000
G1 X251.8726 Y191.9918 Z-4.0000
G1 X252.1703 Y186.3512 Z-4.0000
G1 X252.5446 Y180.7155 Z-4.0000
G1 X253.2949 Y171.7792 Z-4.0000
G2 X254.4006 Y160.2724 I-140.8709 J-19.3432
G2 X229.0658 Y135.2792 I-24.6968 J-0.3027
G2 X205.0555 Y161.5474 I0.6380 J24.6905
G1 X205.6933 Y167.8592 Z-4.0000
G0 Z10.0000
G0 X205.6933 Y167.8592
G0 Z10.0000
G0 X301.4833 Y324.5528
G1 X301.4833 Y324.5528 Z-2.0000 F3000.
G1 X302.0107 Y319.4757 Z-2.0000 F6000.
G1 X302.8157 Y309.3882 Z-2.0000
G1 X303.1271 Y304.3286 Z-2.0000
G1 X303.3766 Y299.2653 Z-2.0000
G1 X303.5639 Y294.1992 Z-2.0000
G1 X303.6885 Y289.1288 Z-2.0000
G1 X303.7527 Y283.5022 Z-2.0000
G1 X303.7386 Y277.8751 Z-2.0000
G1 X303.6456 Y272.2484 Z-2.0000
G1 X303.4726 Y266.6110 Z-2.0000
G1 X303.0397 Y257.7787 Z-2.0000
G1 X302.4075 Y248.9581 Z-2.0000
G1 X301.5857 Y240.2621 Z-2.0000
G1 X300.5662 Y231.5866 Z-2.0000
G1 X299.3563 Y222.9951 Z-2.0000
G1 X297.9485 Y214.4334 Z-2.0000
G1 X296.3511 Y205.9544 Z-2.0000
G1 X294.5560 Y197.5145 Z-2.0000
G1 X294.0409 Y195.3446 Z-2.0000
G1 X294.0409 Y195.3446 Z0.0000
G1 X292.5715 Y189.1559 Z0.0000
G1 X291.6296 Y185.5674 Z0.0000
G1 X291.6296 Y185.5674 Z-2.0000
G3 X289.1269 Y172.7407 I49.9346 J-16.4006
G3 X329.6441 Y135.0589 I36.3678 J-1.5195
G3 X360.5731 Y180.9387 I-4.1494 J36.1623
G1 X358.3990 Y189.2248 Z-2.0000
G1 X356.4162 Y197.5833 Z-2.0000
G1 X354.6228 Y206.0231 Z-2.0000
G1 X353.0272 Y214.5020 Z-2.0000
G1 X351.6211 Y223.0636 Z-2.0000
G1 X350.4128 Y231.6548 Z-2.0000
G1 X349.3949 Y240.3300 Z-2.0000
G1 X348.5747 Y249.0258 Z-2.0000
G1 X347.9440 Y257.8463 Z-2.0000
G1 X347.5130 Y266.6659 Z-2.0000
G1 X347.3412 Y272.2907 Z-2.0000
G1 X347.2488 Y277.9171 Z-2.0000
G1 X347.2353 Y283.5439 Z-2.0000
G1 X347.2961 Y288.8232 Z-2.0000
G1 X347.2961 Y288.8232 Z0.0000
G1 X347.3001 Y289.1702 Z0.0000
G1 X347.4434 Y294.8171 Z0.0000
G1 X347.6034 Y298.9011 Z0.0000
G1 X347.6034 Y298.9011 Z-2.0000
G1 X347.6645 Y300.4612 Z-2.0000
G1 X347.9627 Y306.1014 Z-2.0000
G1 X348.3385 Y311.7486 Z-2.0000
G1 X349.0909 Y320.6961 Z-2.0000
G3 X350.1906 Y332.1396 I-139.8344 J19.2127
G3 X324.8558 Y357.1327 I-24.6968 J0.3027
G3 X300.8455 Y330.8645 I0.6380 J-24.6904
G1 X301.4833 Y324.5528 Z-2.0000
G1 X301.4833 Y324.5528 Z-4.0000
G1 X300.8455 Y330.8645 Z-4.0000
G2 X326.1601 Y357.1320 I24.6492 J1.5769
G2 X350.0232 Y329.5393 I-0.6654 J-24.6906
G1 X349.0909 Y320.6961 Z-4.0000
G1 X348.3385 Y311.7486 Z-4.0000
G1 X347.9627 Y306.1014 Z-4.0000
G1 X347.6645 Y300.4612 Z-4.0000
G1 X347.6034 Y298.9011 Z-4.0000
G1 X347.6034 Y298.9011 Z0.0000
G1 X347.4434 Y294.8171 Z0.0000
G1 X347.3001 Y289.1702 Z0.0000
G1 X347.2961 Y288.8232 Z0.0000
G1 X347.2961 Y288.8232 Z-4.0000
G1 X347.2353 Y283.5439 Z-4.0000
G1 X347.2488 Y277.9171 Z-4.0000
G1 X347.3412 Y272.2907 Z-4.0000
G1 X347.5130 Y266.6659 Z-4.0000
G1 X347.9440 Y257.8463 Z-4.0000
G1 X348.5747 Y249.0258 Z-4.0000
G1 X349.3949 Y240.3300 Z-4.0000
G1 X350.4128 Y231.6548 Z-4.0000
G1 X351.6211 Y223.0636 Z-4.0000
G1 X353.0272 Y214.5020 Z-4.0000
G1 X354.6228 Y206.0231 Z-4.0000
G1 X356.4162 Y197.5833 Z-4.0000
G1 X358.3990 Y189.2248 Z-4.0000
G2 X361.4487 Y176.8878 I-139.4630 J-41.0208
G2 X323.4206 Y134.8806 I-35.9557 J-5.6667
G2 X290.4146 Y180.9387 I2.0724 J36.3405
G1 X291.6296 Y185.5674 Z-4.0000
G1 X291.6296 Y185.5674 Z0.0000
G1 X292.5715 Y189.1559 Z0.0000
G1 X294.0409 Y195.3446 Z0.0000
G1 X294.0409 Y195.3446 Z-4.0000
G1 X294.5560 Y197.5145 Z-4.0000
G1 X296.3511 Y205.9544 Z-4.0000
G1 X297.9485 Y214.4334 Z-4.0000
G1 X299.3563 Y222.9951 Z-4.0000
G1 X300.5662 Y231.5866 Z-4.0000
G1 X301.5857 Y240.2621 Z-4.0000
G1 X302.4075 Y248.9581 Z-4.0000
G1 X303.0397 Y257.7787 Z-4.0000
G1 X303.4726 Y266.6110 Z-4.0000
G1 X303.6456 Y272.2484 Z-4.0000
G1 X303.7386 Y277.8751 Z-4.0000
G1 X303.7527 Y283.5022 Z-4.0000
G1 X303.6885 Y289.1288 Z-4.0000
G1 X303.5639 Y294.1992 Z-4.0000
G1 X303.3766 Y299.2653 Z-4.0000
G1 X303.1271 Y304.3286 Z-4.0000
G1 X302.8157 Y309.3882 Z-4.0000
G1 X302.0107 Y319.4757 Z-4.0000
G1 X301.4833 Y324.5528 Z-4.0000
G0 Z10.0000
G0 X301.4833 Y324.5528
G0 Z10.0000
G0 X-0.9447 Y37.4408
G1 X-0.9447 Y37.4408 Z-2.0000 F3000.
G2 X46.8145 Y71.2864 I36.7778 J-1.2777 F6000.
G1 X52.2305 Y69.6378 Z-2.0000
G1 X57.6606 Y68.0773 Z-2.0000
G1 X63.1146 Y66.6013 Z-2.0000
G1 X68.5871 Y65.2108 Z-2.0000
G1 X76.0730 Y63.4524 Z-2.0000
G1 X83.5892 Y61.8507 Z-2.0000
G1 X91.6409 Y60.3130 Z-2.0000
G1 X99.7272 Y58.9503 Z-2.0000
G1 X102.9103 Y58.4765 Z-2.0000
G1 X102.9103 Y58.4765 Z0.0000
G1 X106.0697 Y58.0063 Z0.0000
G1 X112.4311 Y57.1680 Z0.0000
G1 X112.7186 Y57.1349 Z0.0000
G1 X112.7186 Y57.1349 Z-2.0000
G1 X118.8058 Y56.4354 Z-2.0000
G1 X125.1925 Y55.8078 Z-2.0000
G1 X131.4197 Y55.2974 Z-2.0000
G1 X137.6549 Y54.8854 Z-2.0000
G1 X143.8962 Y54.5713 Z-2.0000
G1 X150.1382 Y54.3545 Z-2.0000
G1 X158.4466 Y54.2154 Z-2.0000
G1 X166.7551 Y54.2453 Z-2.0000
G1 X173.8041 Y54.4017 Z-2.0000
G1 X180.8521 Y54.6777 Z-2.0000
G1 X187.8950 Y55.0719 Z-2.0000
G2 X197.4297 Y55.6607 I9.8911 J-82.6686
G2 X217.7181 Y16.4579 I-0.4721 J-25.0956
G2 X193.9673 Y5.6318 I-20.7881 J14.1400
G1 X184.8913 Y6.9225 Z-2.0000
G1 X176.5633 Y7.9319 Z-2.0000
G1 X167.5768 Y8.8319 Z-2.0000
G1 X158.5755 Y9.5355 Z-2.0000
G1 X149.0784 Y10.0618 Z-2.0000
G1 X139.5739 Y10.3648 Z-2.0000
G1 X129.7323 Y10.4404 Z-2.0000
G1 X124.8261 Y10.3867 Z-2.0000
G1 X119.9208 Y10.2716 Z-2.0000
G1 X111.0614 Y9.8994 Z-2.0000
G1 X111.0614 Y9.8994 Z0.0000
G1 X110.3908 Y9.8713 Z0.0000
G1 X101.1565 Y9.2548 Z0.0000
G1 X101.1565 Y9.2548 Z-2.0000
G3 X84.3177 Y7.5574 I16.2649 J-245.7166
G1 X76.7842 Y6.5473 Z-2.0000
G1 X69.2696 Y5.3829 Z-2.0000
G1 X63.0121 Y4.2916 Z-2.0000
G1 X56.7724 Y3.0915 Z-2.0000
G1 X50.5550 Y1.7827 Z-2.0000
G2 X40.4345 Y-0.3481 I-23.2685 J85.4155
G2 X-0.9447 Y37.4408 I-4.6000 J36.5126
G1 X-0.9447 Y37.4408 Z-4.0000
G3 X44.3489 Y0.3619 I36.7778 J-1.2777
G1 X50.5550 Y1.7827 Z-4.0000
G1 X56.7724 Y3.0915 Z-4.0000
G1 X63.0121 Y4.2916 Z-4.0000
G1 X69.2696 Y5.3829 Z-4.0000
G1 X76.7842 Y6.5473 Z-4.0000
G1 X84.3177 Y7.5574 Z-4.0000
G1 X92.5916 Y8.4882 Z-4.0000
G1 X100.8808 Y9.2364 Z-4.0000
G1 X101.1565 Y9.2548 Z-4.0000
G1 X101.1565 Y9.2548 Z0.0000
G1 X110.3908 Y9.8713 Z0.0000
G1 X111.0614 Y9.8994 Z0.0000
G1 X111.0614 Y9.8994 Z-4.0000
G1 X119.9208 Y10.2716 Z-4.0000
G1 X124.8261 Y10.3867 Z-4.0000
G1 X129.7323 Y10.4404 Z-4.0000
G1 X139.5739 Y10.3648 Z-4.0000
G1 X149.0784 Y10.0618 Z-4.0000
G1 X158.5755 Y9.5355 Z-4.0000
G1 X167.5768 Y8.8319 Z-4.0000
G1 X176.5633 Y7.9319 Z-4.0000
G1 X184.8913 Y6.9225 Z-4.0000
G1 X193.9673 Y5.6318 Z-4.0000
G3 X218.6471 Y43.1975 I2.9774 J24.9338
G3 X194.9431 Y55.5842 I-21.6895 J-12.6323
G1 X187.8950 Y55.0719 Z-4.0000
G1 X180.8521 Y54.6777 Z-4.0000
G1 X173.8041 Y54.4017 Z-4.0000
G1 X166.7551 Y54.2453 Z-4.0000
G1 X158.4466 Y54.2154 Z-4.0000
G1 X150.1382 Y54.3545 Z-4.0000
G1 X143.8962 Y54.5713 Z-4.0000
G1 X137.6549 Y54.8854 Z-4.0000
G1 X131.4197 Y55.2974 Z-4.0000
G1 X125.1925 Y55.8078 Z-4.0000
G1 X118.8058 Y56.4354 Z-4.0000
G1 X112.7186 Y57.1349 Z-4.0000
G1 X112.7186 Y57.1349 Z0.0000
G2 X102.9103 Y58.4765 I25.3571 J221.9117
G1 X102.9103 Y58.4765 Z-4.0000
G1 X99.7272 Y58.9503 Z-4.0000
G1 X91.6409 Y60.3130 Z-4.0000
G1 X83.5892 Y61.8507 Z-4.0000
G1 X76.0730 Y63.4524 Z-4.0000
G1 X68.5871 Y65.2108 Z-4.0000
G1 X63.1146 Y66.6013 Z-4.0000
G1 X57.6606 Y68.0773 Z-4.0000
G1 X52.2305 Y69.6378 Z-4.0000
G3 X40.9966 Y72.5990 I-21.0646 J-57.1227
G3 X14.5601 Y66.1914 I-5.1635 J-36.4360
G3 X-0.9447 Y37.4408 I21.1631 J-29.9690
G0 Z10.0000
G0 X-0.9447 Y37.4408
G0 Z10.0000
G0 X279.1157 Y85.5449
G1 X279.1157 Y85.5449 Z-2.0000 F3000.
G2 X265.2469 Y58.5411 I-34.0803 J0.4399 F6000.
G2 X236.2810 Y52.9395 I-20.3558 J27.5677
G1 X230.5723 Y54.5652 Z-2.0000
G1 X225.7640 Y55.8580 Z-2.0000
G1 X220.9383 Y57.0851 Z-2.0000
G1 X216.1006 Y58.2457 Z-2.0000
G1 X209.0415 Y59.8164 Z-2.0000
G1 X201.9570 Y61.2488 Z-2.0000
G1 X194.9795 Y62.5213 Z-2.0000
G1 X187.9833 Y63.6618 Z-2.0000
G1 X178.5176 Y64.9932 Z-2.0000
G1 X178.3836 Y65.0086 Z-2.0000
G1 X178.3836 Y65.0086 Z0.0000
G1 X169.0182 Y66.0895 Z0.0000
G1 X168.5066 Y66.1385 Z0.0000
G1 X168.5066 Y66.1385 Z-2.0000
G1 X163.4632 Y66.6211 Z-2.0000
G1 X157.8932 Y67.0741 Z-2.0000
G1 X152.3170 Y67.4480 Z-2.0000
G1 X146.7347 Y67.7434 Z-2.0000
G1 X141.7641 Y67.9405 Z-2.0000
G1 X136.7992 Y68.0758 Z-2.0000
G1 X126.8345 Y68.1636 Z-2.0000
G1 X118.7955 Y68.0576 Z-2.0000
G1 X110.7528 Y67.7948 Z-2.0000
G1 X104.5541 Y67.4862 Z-2.0000
G1 X98.3570 Y67.0858 Z-2.0000
G1 X92.1661 Y66.5947 Z-2.0000
G2 X82.8154 Y65.9169 I-8.9119 J58.1123
G2 X64.5039 Y76.6862 I0.8995 J22.4820
G2 X85.9106 Y110.8035 I19.2238 J11.7126
G1 X95.3378 Y109.6599 Z-2.0000
G1 X104.0593 Y108.7906 Z-2.0000
G1 X112.7962 Y108.1031 Z-2.0000
G1 X121.5435 Y107.5996 Z-2.0000
G1 X131.1109 Y107.2623 Z-2.0000
G1 X140.6900 Y107.1498 Z-2.0000
G1 X145.6299 Y107.1808 Z-2.0000
G1 X150.5773 Y107.2729 Z-2.0000
G1 X155.5230 Y107.4266 Z-2.0000
G1 X160.4573 Y107.6418 Z-2.0000
G1 X169.1402 Y108.1817 Z-2.0000
G1 X169.1402 Y108.1817 Z0.0000
G1 X170.0413 Y108.2378 Z0.0000
G1 X179.0304 Y109.0198 Z0.0000
G1 X179.0304 Y109.0198 Z-2.0000
G1 X179.6005 Y109.0694 Z-2.0000
G1 X187.9299 Y109.9906 Z-2.0000
G1 X196.2401 Y111.0953 Z-2.0000
G1 X203.8043 Y112.2648 Z-2.0000
G1 X211.3464 Y113.5895 Z-2.0000
G1 X217.6252 Y114.8152 Z-2.0000
G1 X223.8839 Y116.1501 Z-2.0000
G1 X230.1179 Y117.5940 Z-2.0000
G2 X240.1908 Y119.9159 I23.5605 J-79.1977
G2 X279.1157 Y85.5449 I4.7278 J-33.8724
G1 X279.1157 Y85.5449 Z-4.0000
G3 X266.0415 Y112.9422 I-34.1943 J0.5005
G3 X236.3382 Y119.1503 I-21.1221 J-26.8978
G1 X230.1179 Y117.5940 Z-4.0000
G1 X223.8839 Y116.1501 Z-4.0000
G1 X217.6252 Y114.8152 Z-4.0000
G1 X211.3464 Y113.5895 Z-4.0000
G1 X203.8043 Y112.2648 Z-4.0000
G1 X196.2401 Y111.0953 Z-4.0000
G1 X187.9299 Y109.9906 Z-4.0000
G1 X179.6005 Y109.0694 Z-4.0000
G1 X179.0304 Y109.0198 Z-4.0000
G1 X179.0304 Y109.0198 Z0.0000
G1 X170.0413 Y108.2378 Z0.0000
G1 X169.1402 Y108.1817 Z0.0000
G1 X169.1402 Y108.1817 Z-4.0000
G1 X160.4573 Y107.6418 Z-4.0000
G1 X155.5230 Y107.4266 Z-4.0000
G1 X150.5773 Y107.2729 Z-4.0000
G1 X145.6299 Y107.1808 Z-4.0000
G1 X140.6900 Y107.1498 Z-4.0000
G1 X131.1109 Y107.2623 Z-4.0000
G1 X121.5435 Y107.5996 Z-4.0000
G1 X112.7962 Y108.1031 Z-4.0000
G1 X104.0593 Y108.7906 Z-4.0000
G1 X95.3378 Y109.6599 Z-4.0000
G1 X85.9106 Y110.8035 Z-4.0000
G3 X61.2150 Y88.3741 I-2.1902 J-22.3986
G3 X85.9719 Y66.0124 I22.5054 J0.0308
G1 X92.1661 Y66.5947 Z-4.0000
G1 X98.3570 Y67.0858 Z-4.0000
G1 X104.5541 Y67.4862 Z-4.0000
G1 X110.7528 Y67.7948 Z-4.0000
G1 X118.7955 Y68.0576 Z-4.0000
G1 X126.8345 Y68.1636 Z-4.0000
G1 X136.7992 Y68.0758 Z-4.0000
G1 X141.7641 Y67.9405 Z-4.0000
G1 X146.7347 Y67.7434 Z-4.0000
G1 X152.3170 Y67.4480 Z-4.0000
G1 X157.8932 Y67.0741 Z-4.0000
G1 X163.4632 Y66.6211 Z-4.0000
G1 X168.5066 Y66.1385 Z-4.0000
G1 X168.5066 Y66.1385 Z0.0000
G1 X169.0182 Y66.0895 Z0.0000
G1 X178.3836 Y65.0086 Z0.0000
G1 X178.3836 Y65.0086 Z-4.0000
G2 X194.9795 Y62.5213 I-28.1171 J-244.2106
G1 X201.9570 Y61.2488 Z-4.0000
G1 X209.0415 Y59.8164 Z-4.0000
G1 X216.1006 Y58.2457 Z-4.0000
G1 X220.9383 Y57.0851 Z-4.0000
G1 X225.7640 Y55.8580 Z-4.0000
G1 X230.5723 Y54.5652 Z-4.0000
G3 X240.1385 Y52.1714 I18.0670 J51.8873
G3 X265.2469 Y58.5411 I4.7526 J33.9374
G3 X279.1157 Y85.5449 I-20.2115 J27.4437
G0 Z10.0000
G0 X279.1157 Y85.5449
G0 Z10.0000
G0 X229.7039 Y373.5916
G1 X229.7039 Y373.5916 Z-2.0000 F3000.
G2 X280.5422 Y308.4379 I-0.0089 J-52.4179 F6000.
G1 X278.8140 Y301.9955 Z-2.0000
G1 X277.4871 Y296.6840 Z-2.0000
G1 X276.2439 Y291.3521 Z-2.0000
G1 X275.0842 Y286.0012 Z-2.0000
G1 X274.0000 Y280.5920 Z-2.0000
G1 X273.0002 Y275.1665 Z-2.0000
G1 X272.0843 Y269.7258 Z-2.0000
G1 X271.2522 Y264.2716 Z-2.0000
G1 X270.4954 Y258.7432 Z-2.0000
G1 X270.0292 Y254.8992 Z-2.0000
G1 X270.0292 Y254.8992 Z0.0000
G3 X268.9996 Y245.0444 I245.1065 J-30.5890
G1 X268.9996 Y245.0444 Z-2.0000
G1 X268.7325 Y242.0965 Z-2.0000
G1 X268.3075 Y236.4580 Z-2.0000
G1 X267.9676 Y230.8136 Z-2.0000
G1 X267.7124 Y225.1644 Z-2.0000
G1 X267.5414 Y219.5163 Z-2.0000
G1 X267.4420 Y211.5348 Z-2.0000
G1 X267.5071 Y203.5568 Z-2.0000
G1 X267.7350 Y195.5810 Z-2.0000
G1 X268.1240 Y187.6067 Z-2.0000
G1 X268.5033 Y181.8643 Z-2.0000
G1 X268.9651 Y176.1234 Z-2.0000
G1 X269.5084 Y170.3893 Z-2.0000
G2 X270.3688 Y158.2804 I-64.7790 J-10.6879
G2 X227.0317 Y119.3578 I-40.6714 J1.6967
G2 X189.1531 Y163.6104 I2.6657 J40.6193
G1 X189.8993 Y170.3893 Z-2.0000
G1 X190.4426 Y176.1234 Z-2.0000
G1 X190.9044 Y181.8643 Z-2.0000
G1 X191.2837 Y187.6067 Z-2.0000
G1 X191.6728 Y195.5810 Z-2.0000
G1 X191.9006 Y203.5568 Z-2.0000
G1 X191.9657 Y211.5348 Z-2.0000
G1 X191.8663 Y219.5163 Z-2.0000
G1 X191.6953 Y225.1644 Z-2.0000
G1 X191.4401 Y230.8136 Z-2.0000
G1 X191.1002 Y236.4580 Z-2.0000
G1 X190.6752 Y242.0965 Z-2.0000
G1 X190.4074 Y245.0523 Z-2.0000
G1 X190.4074 Y245.0523 Z0.0000
G1 X190.1716 Y247.6543 Z0.0000
G1 X189.5842 Y253.2037 Z0.0000
G1 X189.3776 Y254.9071 Z0.0000
G1 X189.3776 Y254.9071 Z-2.0000
G1 X188.9123 Y258.7432 Z-2.0000
G1 X188.1555 Y264.2716 Z-2.0000
G1 X187.3234 Y269.7258 Z-2.0000
G1 X186.4075 Y275.1665 Z-2.0000
G1 X185.4077 Y280.5920 Z-2.0000
G1 X184.3235 Y286.0012 Z-2.0000
G1 X183.1638 Y291.3521 Z-2.0000
G1 X181.9206 Y296.6840 Z-2.0000
G1 X180.5937 Y301.9955 Z-2.0000
G1 X179.1798 Y307.2965 Z-2.0000
G2 X188.0237 Y352.9489 I50.5240 J13.8951
G2 X229.7039 Y373.5916 I41.6794 J-31.7557
G1 X229.7039 Y373.5916 Z-4.0000
G3 X179.1798 Y307.2965 I0.0000 J-52.4000
G1 X180.5937 Y301.9955 Z-4.0000
G1 X181.9206 Y296.6840 Z-4.0000
G1 X183.1638 Y291.3521 Z-4.0000
G1 X184.3235 Y286.0012 Z-4.0000
G1 X185.4077 Y280.5920 Z-4.0000
G1 X186.4075 Y275.1665 Z-4.0000
G1 X187.3234 Y269.7258 Z-4.0000
G1 X188.1555 Y264.2716 Z-4.0000
G1 X188.9123 Y258.7432 Z-4.0000
G1 X189.3776 Y254.9071 Z-4.0000
G1 X189.3776 Y254.9071 Z0.0000
G2 X190.4074 Y245.0523 I-245.2273 J-30.6077
G1 X190.4074 Y245.0523 Z-4.0000
G1 X190.6752 Y242.0965 Z-4.0000
G1 X191.1002 Y236.4580 Z-4.0000
G1 X191.4401 Y230.8136 Z-4.0000
G1 X191.6953 Y225.1644 Z-4.0000
G1 X191.8663 Y219.5163 Z-4.0000
G1 X191.9657 Y211.5348 Z-4.0000
G1 X191.9006 Y203.5568 Z-4.0000
G1 X191.6728 Y195.5810 Z-4.0000
G1 X191.2837 Y187.6067 Z-4.0000
G1 X190.9044 Y181.8643 Z-4.0000
G1 X190.4426 Y176.1234 Z-4.0000
G1 X189.8993 Y170.3893 Z-4.0000
G3 X188.9982 Y159.3580 I66.9233 J-11.0193
G3 X208.0115 Y125.5326 I40.7419 J0.6447
G3 X270.1336 Y164.6527 I21.6924 J34.4374
G1 X269.5084 Y170.3893 Z-4.0000
G1 X268.9651 Y176.1234 Z-4.0000
G1 X268.5033 Y181.8643 Z-4.0000
G1 X268.1240 Y187.6067 Z-4.0000
G1 X267.7350 Y195.5810 Z-4.0000
G1 X267.5071 Y203.5568 Z-4.0000
G1 X267.4420 Y211.5348 Z-4.0000
G1 X267.5414 Y219.5163 Z-4.0000
G1 X267.7124 Y225.1644 Z-4.0000
G1 X267.9676 Y230.8136 Z-4.0000
G1 X268.3075 Y236.4580 Z-4.0000
G1 X268.7325 Y242.0965 Z-4.0000
G1 X268.9996 Y245.0444 Z-4.0000
G1 X268.9996 Y245.0444 Z0.0000
G1 X269.2361 Y247.6543 Z0.0000
G1 X269.8236 Y253.2037 Z0.0000
G1 X270.0292 Y254.8992 Z0.0000
G1 X270.0292 Y254.8992 Z-4.0000
G1 X270.4954 Y258.7432 Z-4.0000
G1 X271.2522 Y264.2716 Z-4.0000
G1 X272.0843 Y269.7258 Z-4.0000
G1 X273.0002 Y275.1665 Z-4.0000
G1 X274.0000 Y280.5920 Z-4.0000
G1 X275.0842 Y286.0012 Z-4.0000
G1 X276.2439 Y291.3521 Z-4.0000
G1 X277.4871 Y296.6840 Z-4.0000
G1 X278.8140 Y301.9955 Z-4.0000
G3 X281.6649 Y314.3545 I-69.5346 J22.5479
G3 X271.3840 Y352.9489 I-52.0255 J6.8078
G3 X229.7039 Y373.5916 I-41.6212 J-31.6383
G0 Z10.0000
G0 X229.7039 Y373.5916
G0 Z10.0000
G0 X136.3834 Y126.5264
G1 X136.3834 Y126.5264 Z-2.0000 F3000.
G2 X96.7713 Y146.1449 I-0.0564 J49.6862 F6000.
G2 X88.0686 Y188.4508 I39.6730 J30.2092
G1 X90.4743 Y197.5648 Z-2.0000
G1 X92.3887 Y205.6348 Z-2.0000
G1 X94.1128 Y213.7482 Z-2.0000
G1 X95.6475 Y221.9002 Z-2.0000
G1 X97.0043 Y230.1563 Z-2.0000
G1 X98.1703 Y238.4420 Z-2.0000
G1 X98.6595 Y242.6079 Z-2.0000
G1 X98.6595 Y242.6079 Z0.0000
G1 X99.1534 Y246.8140 Z0.0000
G1 X99.6888 Y252.4855 Z0.0000
G1 X99.6888 Y252.4855 Z-2.0000
G1 X99.9457 Y255.2065 Z-2.0000
G1 X100.5555 Y263.7251 Z-2.0000
G1 X100.9732 Y272.2617 Z-2.0000
G1 X101.1393 Y277.6919 Z-2.0000
G1 X101.2289 Y283.1303 Z-2.0000
G1 X101.2422 Y288.5698 Z-2.0000
G1 X101.1799 Y294.0009 Z-2.0000
G1 X100.8775 Y303.8154 Z-2.0000
G1 X100.3341 Y313.6121 Z-2.0000
G1 X99.5529 Y323.3938 Z-2.0000
G1 X98.5355 Y333.1724 Z-2.0000
G2 X156.6900 Y369.7855 I37.8479 J4.3757
G2 X174.3430 Y334.1349 I-20.3402 J-32.2677
G1 X173.3178 Y324.5076 Z-2.0000
G1 X172.5894 Y315.8378 Z-2.0000
G1 X172.2273 Y310.3903 Z-2.0000
G1 X171.9390 Y304.9327 Z-2.0000
G1 X171.7253 Y299.4719 Z-2.0000
G1 X171.5870 Y294.0090 Z-2.0000
G1 X171.5246 Y288.5697 Z-2.0000
G1 X171.5379 Y283.1303 Z-2.0000
G1 X171.6274 Y277.6919 Z-2.0000
G1 X171.7936 Y272.2618 Z-2.0000
G1 X172.2113 Y263.7251 Z-2.0000
G1 X172.8211 Y255.2065 Z-2.0000
G1 X173.0787 Y252.4777 Z-2.0000
G1 X173.0787 Y252.4777 Z0.0000
G1 X173.6134 Y246.8139 Z0.0000
G1 X174.1082 Y242.6001 Z0.0000
G1 X174.1082 Y242.6001 Z-2.0000
G1 X174.5965 Y238.4420 Z-2.0000
G1 X175.7625 Y230.1563 Z-2.0000
G1 X177.1193 Y221.9002 Z-2.0000
G1 X178.6579 Y213.7285 Z-2.0000
G1 X180.3869 Y205.5954 Z-2.0000
G1 X182.2973 Y197.5453 Z-2.0000
G1 X184.4023 Y189.5258 Z-2.0000
G2 X136.3834 Y126.5264 I-48.0189 J-13.1994
G1 X136.3834 Y126.5264 Z-4.0000
G3 X184.4023 Y189.5258 I0.0000 J49.8000
G1 X182.2973 Y197.5453 Z-4.0000
G1 X180.3869 Y205.5954 Z-4.0000
G1 X178.6579 Y213.7285 Z-4.0000
G1 X177.1193 Y221.9002 Z-4.0000
G1 X175.7625 Y230.1563 Z-4.0000
G1 X174.5965 Y238.4420 Z-4.0000
G1 X174.1082 Y242.6001 Z-4.0000
G1 X174.1082 Y242.6001 Z0.0000
G1 X173.6134 Y246.8139 Z0.0000
G1 X173.0787 Y252.4777 Z0.0000
G1 X173.0787 Y252.4777 Z-4.0000
G1 X172.8211 Y255.2065 Z-4.0000
G1 X172.2113 Y263.7251 Z-4.0000
G1 X171.7936 Y272.2618 Z-4.0000
G1 X171.6274 Y277.6919 Z-4.0000
G1 X171.5379 Y283.1303 Z-4.0000
G1 X171.5246 Y288.5697 Z-4.0000
G1 X171.5870 Y294.0090 Z-4.0000
G1 X171.7253 Y299.4719 Z-4.0000
G1 X171.9390 Y304.9327 Z-4.0000
G1 X172.2273 Y310.3903 Z-4.0000
G1 X172.5894 Y315.8378 Z-4.0000
G1 X173.3178 Y324.5076 Z-4.0000
G3 X174.4696 Y336.1722 I-131.7471 J18.8985
G3 X156.6900 Y369.7855 I-38.1198 J1.3456
G3 X116.0767 Y369.7855 I-20.3066 J-32.2374
G3 X98.5355 Y333.1724 I20.3067 J-32.2374
G1 X99.5529 Y323.3938 Z-4.0000
G1 X100.3341 Y313.6121 Z-4.0000
G1 X100.8775 Y303.8154 Z-4.0000
G1 X101.1799 Y294.0009 Z-4.0000
G1 X101.2422 Y288.5698 Z-4.0000
G1 X101.2289 Y283.1303 Z-4.0000
G1 X101.1393 Y277.6919 Z-4.0000
G1 X100.9732 Y272.2617 Z-4.0000
G1 X100.5555 Y263.7251 Z-4.0000
G1 X99.9457 Y255.2065 Z-4.0000
G1 X99.6888 Y252.4855 Z-4.0000
G1 X99.6888 Y252.4855 Z0.0000
G1 X99.1534 Y246.8140 Z0.0000
G1 X98.6595 Y242.6079 Z0.0000
G1 X98.6595 Y242.6079 Z-4.0000
G1 X98.1703 Y238.4420 Z-4.0000
G1 X97.0043 Y230.1563 Z-4.0000
G1 X95.6475 Y221.9002 Z-4.0000
G1 X94.1128 Y213.7482 Z-4.0000
G1 X92.3887 Y205.6348 Z-4.0000
G1 X90.4743 Y197.5648 Z-4.0000
G3 X87.5522 Y186.1573 I154.2309 J-45.5856
G3 X96.7713 Y146.1449 I48.8921 J-9.8032
G3 X136.3834 Y126.5264 I39.5571 J30.0706
G0 Z10.0000
G0 X136.3834 Y126.5264
G0 Z10.0000
G0 X49.4097 Y379.3653
G1 X49.4097 Y379.3653 Z-2.0000 F3000.
G2 X95.2169 Y320.7276 I-0.0062 J-47.2158 F6000.
G1 X93.3085 Y313.5826 Z-2.0000
G1 X91.8080 Y307.4984 Z-2.0000
G1 X90.4156 Y301.3883 Z-2.0000
G1 X89.1317 Y295.2585 Z-2.0000
G1 X87.5789 Y287.0079 Z-2.0000
G1 X86.2178 Y278.7232 Z-2.0000
G1 X85.3157 Y272.4412 Z-2.0000
G1 X84.5215 Y266.1399 Z-2.0000
G1 X84.4969 Y265.9135 Z-2.0000
G1 X84.4969 Y265.9135 Z0.0000
G1 X83.8352 Y259.8256 Z0.0000
G1 X83.4865 Y256.0162 Z0.0000
G1 X83.4865 Y256.0162 Z-2.0000
G1 X83.2563 Y253.5014 Z-2.0000
G1 X82.7393 Y246.4824 Z-2.0000
G1 X82.3524 Y239.4559 Z-2.0000
G1 X82.0944 Y232.4229 Z-2.0000
G1 X81.9643 Y225.3824 Z-2.0000
G1 X81.9497 Y220.1796 Z-2.0000
G1 X82.0041 Y214.9733 Z-2.0000
G1 X82.1270 Y209.7679 Z-2.0000
G1 X82.3177 Y204.5683 Z-2.0000
G1 X82.7055 Y197.1684 Z-2.0000
G1 X83.2281 Y189.7804 Z-2.0000
G1 X83.8845 Y182.4025 Z-2.0000
G2 X84.9092 Y171.1405 I-94.1857 J-14.2473
G2 X68.3306 Y140.9061 I-35.4995 J-0.1969
G2 X14.1447 Y175.0215 I-18.9209 J30.0375
G1 X15.0637 Y183.7391 Z-2.0000
G1 X15.7967 Y192.4639 Z-2.0000
G1 X16.1612 Y197.9470 Z-2.0000
G1 X16.4514 Y203.4401 Z-2.0000
G1 X16.6665 Y208.9364 Z-2.0000
G1 X16.8057 Y214.4348 Z-2.0000
G1 X16.8685 Y219.9106 Z-2.0000
G1 X16.8551 Y225.3865 Z-2.0000
G1 X16.7649 Y230.8613 Z-2.0000
G1 X16.5976 Y236.3279 Z-2.0000
G1 X16.1771 Y244.9232 Z-2.0000
G1 X15.5632 Y253.5003 Z-2.0000
G1 X15.3259 Y256.0146 Z-2.0000
G1 X15.3259 Y256.0146 Z0.0000
G1 X14.7684 Y261.9217 Z0.0000
G1 X14.3025 Y265.8931 Z0.0000
G1 X14.3025 Y265.8931 Z-2.0000
G1 X13.7829 Y270.3225 Z-2.0000
G1 X12.6054 Y278.6978 Z-2.0000
G1 X11.2344 Y287.0430 Z-2.0000
G1 X9.6884 Y295.2549 Z-2.0000
G1 X7.9515 Y303.4283 Z-2.0000
G1 X6.0229 Y311.5577 Z-2.0000
G1 X3.8975 Y319.6559 Z-2.0000
G2 X11.8658 Y360.7711 I45.5122 J12.5094
G2 X49.4097 Y379.3653 I37.5431 J-28.6042
G1 X49.4097 Y379.3653 Z-4.0000
G3 X3.8975 Y319.6559 I0.0000 J-47.2000
G1 X6.0229 Y311.5577 Z-4.0000
G1 X7.9515 Y303.4283 Z-4.0000
G1 X9.6884 Y295.2549 Z-4.0000
G1 X11.2344 Y287.0430 Z-4.0000
G1 X12.6054 Y278.6978 Z-4.0000
G1 X13.7829 Y270.3225 Z-4.0000
G1 X14.3025 Y265.8931 Z-4.0000
G1 X14.3025 Y265.8931 Z0.0000
G1 X14.7684 Y261.9217 Z0.0000
G1 X15.3259 Y256.0146 Z0.0000
G1 X15.3259 Y256.0146 Z-4.0000
G1 X15.5632 Y253.5003 Z-4.0000
G1 X16.1771 Y244.9232 Z-4.0000
G1 X16.5976 Y236.3279 Z-4.0000
G1 X16.7649 Y230.8613 Z-4.0000
G1 X16.8551 Y225.3865 Z-4.0000
G1 X16.8685 Y219.9106 Z-4.0000
G1 X16.8057 Y214.4348 Z-4.0000
G1 X16.6665 Y208.9364 Z-4.0000
G1 X16.4514 Y203.4401 Z-4.0000
G1 X16.1612 Y197.9470 Z-4.0000
G1 X15.7967 Y192.4639 Z-4.0000
G1 X15.0637 Y183.7391 Z-4.0000
G1 X14.1447 Y175.0215 Z-4.0000
G3 X49.4109 Y135.4436 I35.2650 J-4.0779
G3 X84.6744 Y175.0239 I-0.0012 J35.5000
G1 X83.8845 Y182.4025 Z-4.0000
G1 X83.2281 Y189.7804 Z-4.0000
G1 X82.7055 Y197.1684 Z-4.0000
G1 X82.3177 Y204.5683 Z-4.0000
G1 X82.1270 Y209.7679 Z-4.0000
G1 X82.0041 Y214.9733 Z-4.0000
G1 X81.9497 Y220.1796 Z-4.0000
G1 X81.9643 Y225.3824 Z-4.0000
G1 X82.0944 Y232.4229 Z-4.0000
G1 X82.3524 Y239.4559 Z-4.0000
G1 X82.7393 Y246.4824 Z-4.0000
G1 X83.2563 Y253.5014 Z-4.0000
G1 X83.4865 Y256.0162 Z-4.0000
G1 X83.4865 Y256.0162 Z0.0000
G1 X83.8352 Y259.8256 Z0.0000
G1 X84.4969 Y265.9135 Z0.0000
G1 X84.4969 Y265.9135 Z-4.0000
G1 X84.5215 Y266.1399 Z-4.0000
G1 X85.3157 Y272.4412 Z-4.0000
G1 X86.2178 Y278.7232 Z-4.0000
G1 X87.5789 Y287.0079 Z-4.0000
G1 X89.1317 Y295.2585 Z-4.0000
G1 X90.4156 Y301.3883 Z-4.0000
G1 X91.8080 Y307.4984 Z-4.0000
G1 X93.3085 Y313.5826 Z-4.0000
G3 X96.1041 Y325.2100 I-77.2873 J24.7320
G3 X49.4097 Y379.3653 I-46.6964 J6.9452
G0 Z10.0000
G0 X49.4097 Y379.3653
G0 Z10.0000
G0 X325.4939 Y118.8203
G1 X325.4939 Y118.8203 Z-2.0000 F3000.
G2 X274.6556 Y183.9740 I0.0088 J52.4179 F6000.
G1 X276.3837 Y190.4165 Z-2.0000
G1 X277.7106 Y195.7279 Z-2.0000
G1 X278.9539 Y201.0599 Z-2.0000
G1 X280.1136 Y206.4108 Z-2.0000
G1 X281.1977 Y211.8199 Z-2.0000
G1 X282.1976 Y217.2455 Z-2.0000
G1 X283.1134 Y222.6861 Z-2.0000
G1 X283.9456 Y228.1404 Z-2.0000
G1 X284.7023 Y233.6687 Z-2.0000
G1 X285.1685 Y237.5127 Z-2.0000
G1 X285.1685 Y237.5127 Z0.0000
G3 X286.1981 Y247.3676 I-245.1064 J30.5891
G1 X286.1981 Y247.3676 Z-2.0000
G1 X286.4652 Y250.3155 Z-2.0000
G1 X286.8903 Y255.9539 Z-2.0000
G1 X287.2301 Y261.5983 Z-2.0000
G1 X287.4853 Y267.2475 Z-2.0000
G1 X287.6563 Y272.8957 Z-2.0000
G1 X287.7558 Y280.8772 Z-2.0000
G1 X287.6907 Y288.8552 Z-2.0000
G1 X287.4628 Y296.8309 Z-2.0000
G1 X287.0738 Y304.8053 Z-2.0000
G1 X286.6944 Y310.5477 Z-2.0000
G1 X286.2327 Y316.2886 Z-2.0000
G1 X285.6894 Y322.0227 Z-2.0000
G2 X284.8290 Y334.1316 I64.7790 J10.6879
G2 X328.1661 Y373.0542 I40.6713 J-1.6968
G2 X366.0446 Y328.8016 I-2.6658 J-40.6194
G1 X365.2984 Y322.0227 Z-2.0000
G1 X364.7551 Y316.2886 Z-2.0000
G1 X364.2933 Y310.5477 Z-2.0000
G1 X363.9140 Y304.8053 Z-2.0000
G1 X363.5250 Y296.8309 Z-2.0000
G1 X363.2971 Y288.8552 Z-2.0000
G1 X363.2320 Y280.8772 Z-2.0000
G1 X363.3315 Y272.8957 Z-2.0000
G1 X363.5024 Y267.2475 Z-2.0000
G1 X363.7577 Y261.5983 Z-2.0000
G1 X364.0975 Y255.9539 Z-2.0000
G1 X364.5226 Y250.3155 Z-2.0000
G1 X364.7904 Y247.3597 Z-2.0000
G1 X364.7904 Y247.3597 Z0.0000
G1 X365.0261 Y244.7576 Z0.0000
G1 X365.6136 Y239.2082 Z0.0000
G1 X365.8202 Y237.5049 Z0.0000
G1 X365.8202 Y237.5049 Z-2.0000
G1 X366.2855 Y233.6687 Z-2.0000
G1 X367.0422 Y228.1404 Z-2.0000
G1 X367.8743 Y222.6861 Z-2.0000
G1 X368.7902 Y217.2455 Z-2.0000
G1 X369.7901 Y211.8199 Z-2.0000
G1 X370.8742 Y206.4108 Z-2.0000
G1 X372.0339 Y201.0599 Z-2.0000
G1 X373.2771 Y195.7279 Z-2.0000
G1 X374.6041 Y190.4165 Z-2.0000
G1 X376.0180 Y185.1155 Z-2.0000
G2 X367.1740 Y139.4630 I-50.5241 J-13.8952
G2 X325.4939 Y118.8203 I-41.6793 J31.7557
G1 X325.4939 Y118.8203 Z-4.0000
G3 X376.0180 Y185.1155 I0.0000 J52.4000
G1 X374.6041 Y190.4165 Z-4.0000
G1 X373.2771 Y195.7279 Z-4.0000
G1 X372.0339 Y201.0599 Z-4.0000
G1 X370.8742 Y206.4108 Z-4.0000
G1 X369.7901 Y211.8199 Z-4.0000
G1 X368.7902 Y217.2455 Z-4.0000
G1 X367.8743 Y222.6861 Z-4.0000
G1 X367.0422 Y228.1404 Z-4.0000
G1 X366.2855 Y233.6687 Z-4.0000
G1 X365.8202 Y237.5049 Z-4.0000
G1 X365.8202 Y237.5049 Z0.0000
G2 X364.7904 Y247.3597 I245.2273 J30.6077
G1 X364.7904 Y247.3597 Z-4.0000
G1 X364.5226 Y250.3155 Z-4.0000
G1 X364.0975 Y255.9539 Z-4.0000
G1 X363.7577 Y261.5983 Z-4.0000
G1 X363.5024 Y267.2475 Z-4.0000
G1 X363.3315 Y272.8957 Z-4.0000
G1 X363.2320 Y280.8772 Z-4.0000
G1 X363.2971 Y288.8552 Z-4.0000
G1 X363.5250 Y296.8309 Z-4.0000
G1 X363.9140 Y304.8053 Z-4.0000
G1 X364.2933 Y310.5477 Z-4.0000
G1 X364.7551 Y316.2886 Z-4.0000
G1 X365.2984 Y322.0227 Z-4.0000
G3 X366.1995 Y333.0540 I-66.9233 J11.0193
G3 X322.8487 Y373.0560 I-40.7002 J-0.6165
G3 X285.0642 Y327.7592 I2.6506 J-40.6185
G1 X285.6894 Y322.0227 Z-4.0000
G1 X286.2327 Y316.2886 Z-4.0000
G1 X286.6944 Y310.5477 Z-4.0000
G1 X287.0738 Y304.8053 Z-4.0000
G1 X287.4628 Y296.8309 Z-4.0000
G1 X287.6907 Y288.8552 Z-4.0000
G1 X287.7558 Y280.8772 Z-4.0000
G1 X287.6563 Y272.8957 Z-4.0000
G1 X287.4853 Y267.2475 Z-4.0000
G1 X287.2301 Y261.5983 Z-4.0000
G1 X286.8903 Y255.9539 Z-4.0000
G1 X286.4652 Y250.3155 Z-4.0000
G1 X286.1981 Y247.3676 Z-4.0000
G1 X286.1981 Y247.3676 Z0.0000
G1 X285.9617 Y244.7576 Z0.0000
G1 X285.3742 Y239.2082 Z0.0000
G1 X285.1685 Y237.5127 Z0.0000
G1 X285.1685 Y237.5127 Z-4.0000
G1 X284.7023 Y233.6687 Z-4.0000
G1 X283.9456 Y228.1404 Z-4.0000
G1 X283.1134 Y222.6861 Z-4.0000
G1 X282.1976 Y217.2455 Z-4.0000
G1 X281.1977 Y211.8199 Z-4.0000
G1 X280.1136 Y206.4108 Z-4.0000
G1 X278.9539 Y201.0599 Z-4.0000
G1 X277.7106 Y195.7279 Z-4.0000
G1 X276.3837 Y190.4165 Z-4.0000
G3 X273.5328 Y178.0574 I69.5346 J-22.5480
G3 X283.8137 Y139.4630 I52.0256 J-6.8077
G3 X325.4939 Y118.8203 I41.6213 J31.6384
G0 Z10.0000
G0 X325.4939 Y118.8203
M9
M5
M30
(--THE END - THANK YOU FOR USING THIS AWESOME POSTPROCESSOR---)
